P3
320 200
255
95 114 213 95 114 213 95 114 213 94 113 213 94 113 213 94 113 213 94 113 213 94 113 213 94 113 213 94 113 212 94 113 212 94 113 212 94 113 212 93 113 212 93 113 212 93 113 212 93 112 212 93 112 212 93 113 213 93 113 213 93 112 212 93 112 212 93 112 212 93 112 212 93 112 212 93 112 212 93 112 212 92 112 212 92 112 212 92 112 212 92 112 212 92 112 212 92 111 212 92 111 212 92 111 212 92 111 212 92 111 212 92 111 212 91 111 212 91 111 212 91 111 212 92 111 212 92 111 212 91 111 212 91 111 212 91 111 212 91 111 212 91 111 212 91 110 212 91 110 212 91 110 212 91 110 212 91 110 212 91 110 212 91 110 212 91 110 212 90 110 212 90 110 212 90 110 212 90 110 212 90 110 212 90 110 212 90 110 212 90 110 212 90 109 212 90 109 212 90 110 212 90 110 212 90 110 212 90 109 212 90 109 212 90 109 212 89 109 212 89 109 212 89 109 212 89 109 212 89 109 212 89 109 212 89 109 212 89 109 212 89 109 212 89 109 212 89 109 212 89 109 212 88 108 211 88 108 211 88 108 211 88 108 211 88 108 211 88 108 211 88 108 211 88 108 211 88 108 211 88 108 211 88 108 211 88 108 211 88 108 211 88 108 211 88 108 211 88 108 211 88 108 211 88 108 211 88 108 211 88 108 211 87 108 211 87 108 211 87 108 211 87 108 211 87 108 211 87 107 211 87 107 211 87 107 211 87 107 211 87 107 211 87 107 211 87 107 211 87 107 211 87 107 211 87 107 211 87 107 211 87 107 211 87 107 211 87 107 211 87 107 211 87 107 211 87 107 211 87 107 211 87 107 211 87 107 211 86 107 211 86 107 211 86 107 211 86 107 211 86 107 211 86 107 211 86 107 211 86 107 211 86 107 211 86 107 211 86 107 211 86 107 211 86 107 211 86 107 211 86 107 211 86 107 211 86 107 211 86 107 211 86 107 211 86 107 211 86 107 211 86 107 211 86 107 211 86 106 211 86 106 211 86 106 211 86 106 211 86 106 211 86 106 211 86 106 211 86 106 211 86 106 211 86 106 211 86 106 211 86 106 211 86 106 211 86 106 211 86 106 211 86 106 211 86 106 211 86 107 211 86 107 211 86 107 211 86 107 211 86 107 211 86 107 211 86 107 211 86 107 211 86 107 211 86 107 211 86 107 211 86 107 211 86 107 211 86 107 211 86 107 211 86 107 211 86 107 211 86 107 211 86 107 211 86 107 211 86 107 211 86 107 211 86 107 211 87 107 211 87 107 211 87 107 211 87 107 211 87 107 211 87 107 211 87 107 211 87 107 211 87 107 211 87 107 211 87 107 211 87 107 211 87 107 211 87 107 211 87 107 211 87 107 211 87 107 211 87 107 211 87 107 211 87 107 211 87 108 211 87 108 211 87 108 211 87 108 211 87 108 211 88 108 211 88 108 211 88 108 211 88 108 211 88 108 211 88 108 211 88 108 211 88 108 211 88 108 211 88 108 211 88 108 211 88 108 211 88 108 211 88 108 211 88 108 211 88 108 211 88 108 211 88 108 211 88 108 211 88 108 211 89 109 212 89 109 212 89 109 212 89 109 212 89 109 212 89 109 212 89 109 212 89 109 212 89 109 212 89 109 212 89 109 212 89 109 212 90 109 212 90 109 212 90 109 212 90 110 212 90 110 212 90 110 212 90 109 212 90 109 212 90 110 212 90 110 212 90 110 212 90 110 212 90 110 212 90 110 212 90 110 212 90 110 212 91 110 212 91 110 212 91 110 212 91 110 212 91 110 212 91 110 212 91 110 212 91 110 212 91 111 212 91 111 212 91 111 212 91 111 212 91 111 212 92 111 212 92 111 212 91 111 212 91 111 212 91 111 212 92 111 212 92 111 212 92 111 212 92 111 212 92 111 212 92 111 212 92 112 212 92 112 212 92 112 212 92 112 212 92 112 212 93 112 212 93 112 212 93 112 212 93 112 212 93 112 212 93 112 212 93 112 212 93 113 213 93 113 213 93 112 212 93 112 212 93 113 212 93 113 212 93 113 212 94 113 212 94 113 212 94 113 212 94 113 212 94 113 213 94 113 213 94 113 213 94 113 213 94 113 213 94 113 213 95 114 213 95 114 213 
95 114 213 95 114 213 95 114 213 95 114 213 95 114 213 95 114 213 95 114 213 94 113 213 94 113 213 94 113 213 94 113 213 94 113 213 94 113 213 94 113 212 94 113 212 94 113 212 94 113 212 94 113 212 93 113 212 93 113 212 93 112 212 93 112 212 93 112 212 93 113 213 93 113 213 93 112 212 93 112 212 93 112 212 93 112 212 93 112 212 93 112 212 92 112 212 92 112 212 92 112 212 92 112 212 92 112 212 92 111 212 92 111 212 92 111 212 92 111 212 92 111 212 92 111 212 92 111 212 91 111 212 91 111 212 92 111 212 92 111 212 92 111 212 91 111 212 91 111 212 91 111 212 91 111 212 91 111 212 91 110 212 91 110 212 91 110 212 91 110 212 91 110 212 91 110 212 91 110 212 91 110 212 90 110 212 90 110 212 90 110 212 90 110 212 90 110 212 90 110 212 90 110 212 90 110 212 90 109 212 90 109 212 90 110 212 90 110 212 90 110 212 90 109 212 90 109 212 90 109 212 89 109 212 89 109 212 89 109 212 89 109 212 89 109 212 89 109 212 89 109 212 89 109 212 89 109 212 89 109 212 89 109 212 89 109 212 88 108 211 88 108 211 88 108 211 88 108 211 88 108 211 88 108 211 88 108 211 88 108 211 88 108 211 88 108 211 88 108 211 88 108 211 88 108 211 88 108 211 88 108 211 88 108 211 88 108 211 88 108 211 88 108 211 88 108 211 88 108 211 88 108 211 88 108 211 87 108 211 87 108 211 87 108 211 87 108 211 87 108 211 87 107 211 87 107 211 87 107 211 87 107 211 87 107 211 87 107 211 87 107 211 87 107 211 87 107 211 87 107 211 87 107 211 87 107 211 87 107 211 87 107 211 87 107 211 87 107 211 87 107 211 87 107 211 87 107 211 87 107 211 87 107 211 87 107 211 87 107 211 87 107 211 87 107 211 87 107 211 87 107 211 87 107 211 87 107 211 87 107 211 86 107 211 86 107 211 86 107 211 86 107 211 86 107 211 86 107 211 86 107 211 86 107 211 86 107 211 86 107 211 86 107 211 86 107 211 86 107 211 86 107 211 86 107 211 86 107 211 86 107 211 86 107 211 86 107 211 86 107 211 86 107 211 86 107 211 86 107 211 86 107 211 86 107 211 86 107 211 86 107 211 87 107 211 87 107 211 87 107 211 87 107 211 87 107 211 87 107 211 87 107 211 87 107 211 87 107 211 87 107 211 87 107 211 87 107 211 87 107 211 87 107 211 87 107 211 87 107 211 87 107 211 87 107 211 87 107 211 87 107 211 87 107 211 87 107 211 87 107 211 87 107 211 87 107 211 87 107 211 87 107 211 87 107 211 87 107 211 87 107 211 87 108 211 87 108 211 87 108 211 87 108 211 87 108 211 88 108 211 88 108 211 88 108 211 88 108 211 88 108 211 88 108 211 88 108 211 88 108 211 88 108 211 88 108 211 88 108 211 88 108 211 88 108 211 88 108 211 88 108 211 88 108 211 88 108 211 88 108 211 88 108 211 88 108 211 88 108 211 88 108 211 88 108 211 89 109 212 89 109 212 89 109 212 89 109 212 89 109 212 89 109 212 89 109 212 89 109 212 89 109 212 89 109 212 89 109 212 89 109 212 90 109 212 90 109 212 90 109 212 90 110 212 90 110 212 90 110 212 90 109 212 90 109 212 90 110 212 90 110 212 90 110 212 90 110 212 90 110 212 90 110 212 90 110 212 90 110 212 91 110 212 91 110 212 91 110 212 91 110 212 91 110 212 91 110 212 91 110 212 91 110 212 91 111 212 91 111 212 91 111 212 91 111 212 91 111 212 92 111 212 92 111 212 92 111 212 91 111 212 91 111 212 92 111 212 92 111 212 92 111 212 92 111 212 92 111 212 92 111 212 92 111 212 92 112 212 92 112 212 92 112 212 92 112 212 92 112 212 93 112 212 93 112 212 93 112 212 93 112 212 93 112 212 93 112 212 93 113 213 93 113 213 93 112 212 93 112 212 93 112 212 93 113 212 93 113 212 94 113 212 94 113 212 94 113 212 94 113 212 94 113 212 94 113 213 94 113 213 94 113 213 94 113 213 94 113 213 94 113 213 95 114 213 95 114 213 95 114 213 95 114 213 95 114 213 95 114 213 
95 115 213 95 114 213 95 114 213 95 114 213 95 114 213 95 114 213 95 114 213 95 114 213 95 114 213 95 114 213 95 114 213 94 113 213 94 113 213 94 113 213 94 113 213 94 113 213 94 113 213 94 113 213 94 113 212 94 113 212 94 113 212 94 113 212 93 113 212 93 113 212 93 113 212 93 112 212 93 112 212 93 113 213 93 113 213 93 112 212 93 112 212 93 112 212 93 112 212 93 112 212 93 112 212 93 112 212 92 112 212 92 112 212 92 112 212 92 112 212 92 112 212 92 111 212 92 111 212 92 111 212 92 111 212 92 111 212 92 111 212 92 111 212 91 111 212 91 111 212 92 111 212 92 111 212 92 111 212 91 111 212 91 111 212 91 111 212 91 111 212 91 111 212 91 110 212 91 110 212 91 110 212 91 110 212 91 110 212 91 110 212 91 110 212 91 110 212 90 110 212 90 110 212 90 110 212 90 110 212 90 110 212 90 110 212 90 110 212 90 110 212 90 109 212 90 109 212 90 109 212 90 110 212 90 110 212 90 110 212 90 109 212 90 109 212 90 109 212 89 109 212 89 109 212 89 109 212 89 109 212 89 109 212 89 109 212 89 109 212 89 109 212 89 109 212 89 109 212 89 109 212 89 109 212 89 109 212 89 109 212 88 108 211 88 108 211 88 108 211 88 108 211 88 108 211 88 108 211 88 108 211 88 108 211 88 108 211 88 108 211 88 108 211 88 108 211 88 108 211 88 108 211 88 108 211 88 108 211 88 108 211 88 108 211 88 108 211 88 108 211 88 108 211 88 108 211 88 108 211 88 108 211 88 108 211 87 108 211 87 108 211 87 108 211 87 108 211 87 108 211 87 108 211 87 108 211 87 107 211 87 107 211 87 107 211 87 107 211 87 107 211 87 107 211 87 107 211 87 107 211 87 107 211 87 107 211 87 107 211 87 107 211 87 107 211 87 107 211 87 107 211 87 107 211 87 107 211 87 107 211 87 107 211 87 107 211 87 107 211 87 107 211 87 107 211 87 107 211 87 107 211 87 107 211 87 107 211 87 107 211 87 107 211 87 107 211 87 107 211 87 107 211 87 107 211 87 107 211 87 107 211 87 107 211 87 107 211 87 107 211 87 107 211 87 107 211 87 107 211 87 107 211 87 107 211 87 107 211 87 107 211 87 107 211 87 107 211 87 107 211 87 107 211 87 107 211 87 107 211 87 107 211 87 107 211 87 107 211 87 107 211 87 107 211 87 107 211 87 107 211 87 107 211 87 107 211 87 107 211 87 107 211 87 107 211 87 108 211 87 108 211 87 108 211 87 108 211 87 108 211 87 108 211 87 108 211 88 108 211 88 108 211 88 108 211 88 108 211 88 108 211 88 108 211 88 108 211 88 108 211 88 108 211 88 108 211 88 108 211 88 108 211 88 108 211 88 108 211 88 108 211 88 108 211 88 108 211 88 108 211 88 108 211 88 108 211 88 108 211 88 108 211 88 108 211 88 108 211 88 108 211 89 109 212 89 109 212 89 109 212 89 109 212 89 109 212 89 109 212 89 109 212 89 109 212 89 109 212 89 109 212 89 109 212 89 109 212 89 109 212 89 109 212 90 109 212 90 109 212 90 109 212 90 110 212 90 110 212 90 110 212 90 109 212 90 109 212 90 109 212 90 110 212 90 110 212 90 110 212 90 110 212 90 110 212 90 110 212 90 110 212 90 110 212 91 110 212 91 110 212 91 110 212 91 110 212 91 110 212 91 110 212 91 110 212 91 110 212 91 111 212 91 111 212 91 111 212 91 111 212 91 111 212 92 111 212 92 111 212 92 111 212 91 111 212 91 111 212 92 111 212 92 111 212 92 111 212 92 111 212 92 111 212 92 111 212 92 111 212 92 112 212 92 112 212 92 112 212 92 112 212 92 112 212 93 112 212 93 112 212 93 112 212 93 112 212 93 112 212 93 112 212 93 112 212 93 113 213 93 113 213 93 112 212 93 112 212 93 113 212 93 113 212 93 113 212 94 113 212 94 113 212 94 113 212 94 113 212 94 113 213 94 113 213 94 113 213 94 113 213 94 113 213 94 113 213 94 113 213 95 114 213 95 114 213 95 114 213 95 114 213 95 114 213 95 114 213 95 114 213 95 114 213 95 114 213 95 114 213 
96 115 213 96 115 213 96 115 213 95 115 213 95 115 213 95 114 213 95 114 213 95 114 213 95 114 213 95 114 213 95 114 213 95 114 213 95 114 213 95 114 213 95 114 213 95 114 213 94 113 213 94 113 213 94 113 213 94 113 213 94 113 213 94 113 213 94 113 213 94 113 212 94 113 212 94 113 212 94 113 212 93 113 212 93 113 212 93 112 212 93 112 212 93 112 212 93 113 213 93 113 213 93 112 212 93 112 212 93 112 212 93 112 212 93 112 212 93 112 212 93 112 212 92 112 212 92 112 212 92 112 212 92 112 212 92 112 212 92 111 212 92 111 212 92 111 212 92 111 212 92 111 212 92 111 212 92 111 212 91 111 212 91 111 212 91 111 212 92 111 212 92 111 212 91 111 212 91 111 212 91 111 212 91 111 212 91 111 212 91 111 212 91 110 212 91 110 212 91 110 212 91 110 212 91 110 212 91 110 212 91 110 212 91 110 212 90 110 212 90 110 212 90 110 212 90 110 212 90 110 212 90 110 212 90 110 212 90 110 212 90 109 212 90 109 212 90 109 212 90 110 212 90 110 212 90 110 212 90 110 212 90 109 212 90 109 212 90 109 212 89 109 212 89 109 212 89 109 212 89 109 212 89 109 212 89 109 212 89 109 212 89 109 212 89 109 212 89 109 212 89 109 212 89 109 212 89 109 212 89 109 212 88 108 211 88 108 211 88 108 211 88 108 211 88 108 211 88 108 211 88 108 211 88 108 211 88 108 211 88 108 211 88 108 211 88 108 211 88 108 211 88 108 211 88 108 211 88 108 211 88 108 211 88 108 211 88 108 211 88 108 211 88 108 211 88 108 211 88 108 211 88 108 211 88 108 211 88 108 211 88 108 211 88 108 211 88 108 211 88 108 211 88 108 211 88 108 211 88 108 211 88 108 211 87 108 211 87 108 211 87 108 211 87 108 211 87 108 211 87 108 211 87 108 211 87 108 211 87 108 211 87 108 211 87 108 211 87 108 211 87 107 211 87 107 211 87 107 211 87 107 211 87 107 211 87 107 211 87 107 211 87 107 211 87 107 211 87 107 211 87 107 211 87 107 211 87 107 211 87 107 211 87 107 211 87 107 211 87 107 211 87 107 211 87 107 211 87 107 211 87 107 211 87 108 211 87 108 211 87 108 211 87 108 211 87 108 211 87 108 211 87 108 211 87 108 211 87 108 211 87 108 211 87 108 211 87 108 211 88 108 211 88 108 211 88 108 211 88 108 211 88 108 211 88 108 211 88 108 211 88 108 211 88 108 211 88 108 211 88 108 211 88 108 211 88 108 211 88 108 211 88 108 211 88 108 211 88 108 211 88 108 211 88 108 211 88 108 211 88 108 211 88 108 211 88 108 211 88 108 211 88 108 211 88 108 211 88 108 211 88 108 211 88 108 211 88 108 211 88 108 211 88 108 211 88 108 211 88 108 211 89 109 212 89 109 212 89 109 212 89 109 212 89 109 212 89 109 212 89 109 212 89 109 212 89 109 212 89 109 212 89 109 212 89 109 212 89 109 212 89 109 212 90 109 212 90 109 212 90 109 212 90 110 212 90 110 212 90 110 212 90 110 212 90 109 212 90 109 212 90 109 212 90 110 212 90 110 212 90 110 212 90 110 212 90 110 212 90 110 212 90 110 212 90 110 212 91 110 212 91 110 212 91 110 212 91 110 212 91 110 212 91 110 212 91 110 212 91 110 212 91 111 212 91 111 212 91 111 212 91 111 212 91 111 212 91 111 212 92 111 212 92 111 212 91 111 212 91 111 212 91 111 212 92 111 212 92 111 212 92 111 212 92 111 212 92 111 212 92 111 212 92 111 212 92 112 212 92 112 212 92 112 212 92 112 212 92 112 212 93 112 212 93 112 212 93 112 212 93 112 212 93 112 212 93 112 212 93 112 212 93 113 213 93 113 213 93 112 212 93 112 212 93 112 212 93 113 212 93 113 212 94 113 212 94 113 212 94 113 212 94 113 212 94 113 213 94 113 213 94 113 213 94 113 213 94 113 213 94 113 213 94 113 213 95 114 213 95 114 213 95 114 213 95 114 213 95 114 213 95 114 213 95 114 213 95 114 213 95 114 213 95 114 213 95 114 213 95 115 213 95 115 213 96 115 213 96 115 213 
96 115 213 96 115 213 96 115 213 96 115 213 96 115 213 96 115 213 96 115 213 95 115 213 95 115 213 95 114 213 95 114 213 95 114 213 95 114 213 95 114 213 95 114 213 95 114 213 95 114 213 95 114 213 95 114 213 95 114 213 94 113 213 94 113 213 94 113 213 94 113 213 94 113 213 94 113 213 94 113 213 94 113 212 94 113 212 94 113 212 94 113 212 94 113 212 93 113 212 93 113 212 93 112 212 93 112 212 93 113 213 93 113 213 93 113 213 93 112 212 93 112 212 93 112 212 93 112 212 93 112 212 93 112 212 93 112 212 92 112 212 92 112 212 92 112 212 92 112 212 92 112 212 92 111 212 92 111 212 92 111 212 92 111 212 92 111 212 92 111 212 92 111 212 91 111 212 91 111 212 91 111 212 92 111 212 92 111 212 92 111 212 91 111 212 91 111 212 91 111 212 91 111 212 91 111 212 91 110 212 91 110 212 91 110 212 91 110 212 91 110 212 91 110 212 91 110 212 91 110 212 90 110 212 90 110 212 90 110 212 90 110 212 90 110 212 90 110 212 90 110 212 90 110 212 90 110 212 90 109 212 90 109 212 90 109 212 90 109 212 90 110 212 90 110 212 90 110 212 90 109 212 90 109 212 90 109 212 90 109 212 89 109 212 89 109 212 89 109 212 89 109 212 89 109 212 89 109 212 89 109 212 89 109 212 89 109 212 89 109 212 89 109 212 89 109 212 89 109 212 89 109 212 89 109 212 89 109 212 88 108 211 88 108 211 88 108 211 88 108 211 88 108 211 88 108 211 88 108 211 88 108 211 88 108 211 88 108 211 88 108 211 88 108 211 88 108 211 88 108 211 88 108 211 88 108 211 88 108 211 88 108 211 88 108 211 88 108 211 88 108 211 88 108 211 88 108 211 88 108 211 88 108 211 88 108 211 88 108 211 88 108 211 88 108 211 88 108 211 88 108 211 88 108 211 88 108 211 88 108 211 88 108 211 88 108 211 88 108 211 88 108 211 88 108 211 88 108 211 88 108 211 88 108 211 88 108 211 88 108 211 88 108 211 88 108 211 88 108 211 88 108 211 88 108 211 88 108 211 88 108 211 88 108 211 88 108 211 88 108 211 88 108 211 88 108 211 88 108 211 88 108 211 88 108 211 88 108 211 88 108 211 88 108 211 88 108 211 88 108 211 88 108 211 88 108 211 88 108 211 88 108 211 88 108 211 88 108 211 88 108 211 88 108 211 88 108 211 88 108 211 88 108 211 88 108 211 88 108 211 88 108 211 88 108 211 88 108 211 88 108 211 88 108 211 88 108 211 88 108 211 88 108 211 88 108 211 88 108 211 88 108 211 88 108 211 88 108 211 88 108 211 88 108 211 88 108 211 88 108 211 88 108 211 89 109 212 89 109 212 89 109 212 89 109 212 89 109 212 89 109 212 89 109 212 89 109 212 89 109 212 89 109 212 89 109 212 89 109 212 89 109 212 89 109 212 89 109 212 89 109 212 90 109 212 90 109 212 90 109 212 90 109 212 90 110 212 90 110 212 90 110 212 90 109 212 90 109 212 90 109 212 90 109 212 90 110 212 90 110 212 90 110 212 90 110 212 90 110 212 90 110 212 90 110 212 90 110 212 90 110 212 91 110 212 91 110 212 91 110 212 91 110 212 91 110 212 91 110 212 91 110 212 91 110 212 91 111 212 91 111 212 91 111 212 91 111 212 91 111 212 92 111 212 92 111 212 92 111 212 91 111 212 91 111 212 91 111 212 92 111 212 92 111 212 92 111 212 92 111 212 92 111 212 92 111 212 92 111 212 92 112 212 92 112 212 92 112 212 92 112 212 92 112 212 93 112 212 93 112 212 93 112 212 93 112 212 93 112 212 93 112 212 93 112 212 93 113 213 93 113 213 93 113 213 93 112 212 93 112 212 93 113 212 93 113 212 94 113 212 94 113 212 94 113 212 94 113 212 94 113 212 94 113 213 94 113 213 94 113 213 94 113 213 94 113 213 94 113 213 94 113 213 95 114 213 95 114 213 95 114 213 95 114 213 95 114 213 95 114 213 95 114 213 95 114 213 95 114 213 95 114 213 95 114 213 95 115 213 95 115 213 96 115 213 96 115 213 96 115 213 96 115 213 96 115 213 96 115 213 
97 116 213 96 115 213 96 115 213 96 115 213 96 115 213 96 115 213 96 115 213 96 115 213 96 115 213 96 115 213 96 115 213 95 115 213 95 115 213 95 115 213 95 114 213 95 114 213 95 114 213 95 114 213 95 114 213 95 114 213 95 114 213 95 114 213 95 114 213 95 114 213 95 114 213 94 113 213 94 113 213 94 113 213 94 113 213 94 113 213 94 113 213 94 113 213 94 113 212 94 113 212 94 113 212 94 113 212 94 113 212 93 113 212 93 113 212 93 112 212 93 112 212 93 113 213 93 113 213 93 113 213 93 112 212 93 112 212 93 112 212 93 112 212 93 112 212 93 112 212 93 112 212 92 112 212 92 112 212 92 112 212 92 112 212 92 112 212 92 111 212 92 111 212 92 111 212 92 111 212 92 111 212 92 111 212 92 111 212 92 111 212 91 111 212 91 111 212 92 111 212 92 111 212 92 111 212 91 111 212 91 111 212 91 111 212 91 111 212 91 111 212 91 111 212 91 110 212 91 110 212 91 110 212 91 110 212 91 110 212 91 110 212 91 110 212 91 110 212 91 110 212 90 110 212 90 110 212 90 110 212 90 110 212 90 110 212 90 110 212 90 110 212 90 110 212 90 110 212 90 109 212 90 109 212 90 109 212 90 109 212 90 110 212 90 110 212 90 110 212 90 110 212 90 109 212 90 109 212 90 109 212 90 109 212 89 109 212 89 109 212 89 109 212 89 109 212 89 109 212 89 109 212 89 109 212 89 109 212 89 109 212 89 109 212 89 109 212 89 109 212 89 109 212 89 109 212 89 109 212 89 109 212 89 109 212 89 109 212 89 109 212 88 108 211 88 108 211 88 108 211 88 108 211 88 108 211 88 108 211 88 108 211 88 108 211 88 108 211 88 108 211 88 108 211 88 108 211 88 108 211 88 108 211 88 108 211 88 108 211 88 108 211 88 108 211 88 108 211 88 108 211 88 108 211 88 108 211 88 108 211 88 108 211 88 108 211 88 108 211 88 108 211 88 108 211 88 108 211 88 108 211 88 108 211 88 108 211 88 108 211 88 108 211 88 108 211 88 108 211 88 108 211 88 108 211 88 108 211 88 108 211 88 108 211 88 108 211 88 108 211 88 108 211 88 108 211 88 108 211 88 108 211 88 108 211 88 108 211 88 108 211 88 108 211 88 108 211 88 108 211 88 108 211 88 108 211 88 108 211 88 108 211 88 108 211 88 108 211 88 108 211 88 108 211 88 108 211 88 108 211 88 108 211 88 108 211 88 108 211 88 108 211 88 108 211 88 108 211 88 108 211 88 108 211 88 108 211 88 108 211 89 109 212 89 109 212 89 109 212 89 109 212 89 109 212 89 109 212 89 109 212 89 109 212 89 109 212 89 109 212 89 109 212 89 109 212 89 109 212 89 109 212 89 109 212 89 109 212 89 109 212 89 109 212 89 109 212 90 109 212 90 109 212 90 109 212 90 109 212 90 110 212 90 110 212 90 110 212 90 110 212 90 109 212 90 109 212 90 109 212 90 109 212 90 110 212 90 110 212 90 110 212 90 110 212 90 110 212 90 110 212 90 110 212 90 110 212 90 110 212 91 110 212 91 110 212 91 110 212 91 110 212 91 110 212 91 110 212 91 110 212 91 110 212 91 110 212 91 111 212 91 111 212 91 111 212 91 111 212 91 111 212 91 111 212 92 111 212 92 111 212 92 111 212 91 111 212 91 111 212 92 111 212 92 111 212 92 111 212 92 111 212 92 111 212 92 111 212 92 111 212 92 111 212 92 112 212 92 112 212 92 112 212 92 112 212 92 112 212 93 112 212 93 112 212 93 112 212 93 112 212 93 112 212 93 112 212 93 112 212 93 113 213 93 113 213 93 113 213 93 112 212 93 112 212 93 113 212 93 113 212 94 113 212 94 113 212 94 113 212 94 113 212 94 113 212 94 113 213 94 113 213 94 113 213 94 113 213 94 113 213 94 113 213 94 113 213 95 114 213 95 114 213 95 114 213 95 114 213 95 114 213 95 114 213 95 114 213 95 114 213 95 114 213 95 114 213 95 114 213 95 115 213 95 115 213 95 115 213 96 115 213 96 115 213 96 115 213 96 115 213 96 115 213 96 115 213 96 115 213 96 115 213 96 115 213 96 115 213 
97 116 213 97 116 213 97 116 213 97 116 213 97 116 213 96 115 213 96 115 213 96 115 213 96 115 213 96 115 213 96 115 213 96 115 213 96 115 213 96 115 213 96 115 213 96 115 213 95 115 213 95 115 213 95 114 213 95 114 213 95 114 213 95 114 213 95 114 213 95 114 213 95 114 213 95 114 213 95 114 213 95 114 213 95 114 213 95 114 213 94 113 213 94 113 213 94 113 213 94 113 213 94 113 213 94 113 213 94 113 213 94 113 212 94 113 212 94 113 212 94 113 212 94 113 212 93 113 212 93 113 212 93 112 212 93 112 212 93 113 213 93 113 213 93 113 213 93 112 212 93 112 212 93 112 212 93 112 212 93 112 212 93 112 212 93 112 212 92 112 212 92 112 212 92 112 212 92 112 212 92 112 212 92 111 212 92 111 212 92 111 212 92 111 212 92 111 212 92 111 212 92 111 212 92 111 212 91 111 212 91 111 212 91 111 212 92 111 212 92 111 212 92 111 212 91 111 212 91 111 212 91 111 212 91 111 212 91 111 212 91 111 212 91 110 212 91 110 212 91 110 212 91 110 212 91 110 212 91 110 212 91 110 212 91 110 212 91 110 212 90 110 212 90 110 212 90 110 212 90 110 212 90 110 212 90 110 212 90 110 212 90 110 212 90 110 212 90 110 212 90 110 212 90 109 212 90 109 212 90 109 212 90 109 212 90 110 212 90 110 212 90 110 212 90 110 212 90 109 212 90 109 212 90 109 212 90 109 212 90 109 212 89 109 212 89 109 212 89 109 212 89 109 212 89 109 212 89 109 212 89 109 212 89 109 212 89 109 212 89 109 212 89 109 212 89 109 212 89 109 212 89 109 212 89 109 212 89 109 212 89 109 212 89 109 212 89 109 212 89 109 212 89 109 212 89 109 212 89 109 212 89 109 212 89 109 212 89 109 212 88 108 211 88 108 211 88 108 211 88 108 211 88 108 211 88 108 211 88 108 211 88 108 211 88 108 211 88 108 211 88 108 211 88 108 211 88 108 211 88 108 211 88 108 211 88 108 211 88 108 211 88 108 211 88 108 211 88 108 211 88 108 211 88 108 211 88 108 211 88 108 211 88 108 211 88 108 211 88 108 211 88 108 211 88 108 211 88 108 211 88 108 211 88 108 211 88 108 211 88 108 211 88 108 211 88 108 211 88 108 211 88 108 211 88 108 211 88 108 211 88 108 211 89 109 212 89 109 212 89 109 212 89 109 212 89 109 212 89 109 212 89 109 212 89 109 212 89 109 212 89 109 212 89 109 212 89 109 212 89 109 212 89 109 212 89 109 212 89 109 212 89 109 212 89 109 212 89 109 212 89 109 212 89 109 212 89 109 212 89 109 212 89 109 212 89 109 212 89 109 212 90 109 212 90 109 212 90 109 212 90 109 212 90 109 212 90 110 212 90 110 212 90 110 212 90 110 212 90 109 212 90 109 212 90 109 212 90 109 212 90 110 212 90 110 212 90 110 212 90 110 212 90 110 212 90 110 212 90 110 212 90 110 212 90 110 212 90 110 212 90 110 212 91 110 212 91 110 212 91 110 212 91 110 212 91 110 212 91 110 212 91 110 212 91 110 212 91 110 212 91 111 212 91 111 212 91 111 212 91 111 212 91 111 212 91 111 212 92 111 212 92 111 212 92 111 212 91 111 212 91 111 212 91 111 212 92 111 212 92 111 212 92 111 212 92 111 212 92 111 212 92 111 212 92 111 212 92 111 212 92 112 212 92 112 212 92 112 212 92 112 212 92 112 212 93 112 212 93 112 212 93 112 212 93 112 212 93 112 212 93 112 212 93 112 212 93 113 213 93 113 213 93 113 213 93 112 212 93 112 212 93 113 212 93 113 212 94 113 212 94 113 212 94 113 212 94 113 212 94 113 212 94 113 213 94 113 213 94 113 213 94 113 213 94 113 213 94 113 213 94 113 213 95 114 213 95 114 213 95 114 213 95 114 213 95 114 213 95 114 213 95 114 213 95 114 213 95 114 213 95 114 213 95 114 213 95 114 213 95 115 213 95 115 213 96 115 213 96 115 213 96 115 213 96 115 213 96 115 213 96 115 213 96 115 213 96 115 213 96 115 213 96 115 213 96 115 213 97 116 213 97 116 213 97 116 213 97 116 213 
97 116 213 97 116 213 97 116 213 97 116 213 97 116 213 97 116 213 97 116 213 97 116 213 97 116 213 97 116 213 96 115 213 96 115 213 96 115 213 96 115 213 96 115 213 96 115 213 96 115 213 96 115 213 96 115 213 96 115 213 96 115 213 95 115 213 95 115 213 95 114 213 95 114 213 95 114 213 95 114 213 95 114 213 95 114 213 95 114 213 95 114 213 95 114 213 95 114 213 95 114 213 95 114 213 94 113 213 94 113 213 94 113 213 94 113 213 94 113 213 94 113 213 94 113 213 94 113 212 94 113 212 94 113 212 94 113 212 94 113 212 93 113 212 93 113 212 93 112 212 93 112 212 93 112 212 93 113 213 93 113 213 93 112 212 93 112 212 93 112 212 93 112 212 93 112 212 93 112 212 93 112 212 93 112 212 92 112 212 92 112 212 92 112 212 92 112 212 92 112 212 92 111 212 92 111 212 92 111 212 92 111 212 92 111 212 92 111 212 92 111 212 92 111 212 92 111 212 91 111 212 91 111 212 92 111 212 92 111 212 92 111 212 91 111 212 91 111 212 91 111 212 91 111 212 91 111 212 91 111 212 91 111 212 91 110 212 91 110 212 91 110 212 91 110 212 91 110 212 91 110 212 91 110 212 91 110 212 91 110 212 91 110 212 90 110 212 90 110 212 90 110 212 90 110 212 90 110 212 90 110 212 90 110 212 90 110 212 90 110 212 90 110 212 90 110 212 90 110 212 90 109 212 90 109 212 90 109 212 90 109 212 90 109 212 90 110 212 90 110 212 90 110 212 90 110 212 90 110 212 90 109 212 90 109 212 90 109 212 90 109 212 90 109 212 90 109 212 89 109 212 89 109 212 89 109 212 89 109 212 89 109 212 89 109 212 89 109 212 89 109 212 89 109 212 89 109 212 89 109 212 89 109 212 89 109 212 89 109 212 89 109 212 89 109 212 89 109 212 89 109 212 89 109 212 89 109 212 89 109 212 89 109 212 89 109 212 89 109 212 89 109 212 89 109 212 89 109 212 89 109 212 89 109 212 89 109 212 89 109 212 89 109 212 89 109 212 89 109 212 89 109 212 89 109 212 89 109 212 89 109 212 89 109 212 89 109 212 89 109 212 89 109 212 89 109 212 89 109 212 89 109 212 89 109 212 89 109 212 89 109 212 89 109 212 89 109 212 89 109 212 89 109 212 89 109 212 89 109 212 89 109 212 89 109 212 89 109 212 89 109 212 89 109 212 89 109 212 89 109 212 89 109 212 89 109 212 89 109 212 89 109 212 89 109 212 89 109 212 89 109 212 89 109 212 90 109 212 90 109 212 90 109 212 90 109 212 90 109 212 90 109 212 90 110 212 90 110 212 90 110 212 90 110 212 90 110 212 90 109 212 90 109 212 90 109 212 90 109 212 90 109 212 90 110 212 90 110 212 90 110 212 90 110 212 90 110 212 90 110 212 90 110 212 90 110 212 90 110 212 90 110 212 90 110 212 90 110 212 91 110 212 91 110 212 91 110 212 91 110 212 91 110 212 91 110 212 91 110 212 91 110 212 91 110 212 91 110 212 91 111 212 91 111 212 91 111 212 91 111 212 91 111 212 91 111 212 91 111 212 92 111 212 92 111 212 92 111 212 91 111 212 91 111 212 92 111 212 92 111 212 92 111 212 92 111 212 92 111 212 92 111 212 92 111 212 92 111 212 92 111 212 92 112 212 92 112 212 92 112 212 92 112 212 92 112 212 93 112 212 93 112 212 93 112 212 93 112 212 93 112 212 93 112 212 93 112 212 93 112 212 93 113 213 93 113 213 93 112 212 93 112 212 93 112 212 93 113 212 93 113 212 94 113 212 94 113 212 94 113 212 94 113 212 94 113 212 94 113 213 94 113 213 94 113 213 94 113 213 94 113 213 94 113 213 94 113 213 95 114 213 95 114 213 95 114 213 95 114 213 95 114 213 95 114 213 95 114 213 95 114 213 95 114 213 95 114 213 95 114 213 95 114 213 95 115 213 95 115 213 96 115 213 96 115 213 96 115 213 96 115 213 96 115 213 96 115 213 96 115 213 96 115 213 96 115 213 96 115 213 96 115 213 97 116 213 97 116 213 97 116 213 97 116 213 97 116 213 97 116 213 97 116 213 97 116 213 97 116 213 
98 116 213 97 116 213 97 116 213 97 116 213 97 116 213 97 116 213 97 116 213 97 116 213 97 116 213 97 116 213 97 116 213 97 116 213 97 116 213 97 116 213 96 115 213 96 115 213 96 115 213 96 115 213 96 115 213 96 115 213 96 115 213 96 115 213 96 115 213 96 115 213 96 115 213 96 115 213 95 115 213 95 115 213 95 114 213 95 114 213 95 114 213 95 114 213 95 114 213 95 114 213 95 114 213 95 114 213 95 114 213 95 114 213 95 114 213 95 114 213 94 113 213 94 113 213 94 113 213 94 113 213 94 113 213 94 113 213 94 113 213 94 113 212 94 113 212 94 113 212 94 113 212 94 113 212 93 113 212 93 113 212 93 112 212 93 112 212 93 112 212 93 113 213 93 113 213 93 112 212 93 112 212 93 112 212 93 112 212 93 112 212 93 112 212 93 112 212 93 112 212 93 112 212 92 112 212 92 112 212 92 112 212 92 112 212 92 112 212 92 111 212 92 111 212 92 111 212 92 111 212 92 111 212 92 111 212 92 111 212 92 111 212 92 111 212 91 111 212 91 111 212 91 111 212 92 111 212 92 111 212 92 111 212 91 111 212 91 111 212 91 111 212 91 111 212 91 111 212 91 111 212 91 111 212 91 110 212 91 110 212 91 110 212 91 110 212 91 110 212 91 110 212 91 110 212 91 110 212 91 110 212 91 110 212 91 110 212 90 110 212 90 110 212 90 110 212 90 110 212 90 110 212 90 110 212 90 110 212 90 110 212 90 110 212 90 110 212 90 110 212 90 110 212 90 110 212 90 110 212 90 109 212 90 109 212 90 109 212 90 109 212 90 109 212 90 110 212 90 110 212 90 110 212 90 110 212 90 110 212 90 110 212 90 110 212 90 110 212 90 109 212 90 109 212 90 109 212 90 109 212 90 109 212 90 109 212 90 109 212 90 109 212 89 109 212 89 109 212 89 109 212 89 109 212 89 109 212 89 109 212 89 109 212 89 109 212 89 109 212 89 109 212 89 109 212 89 109 212 89 109 212 89 109 212 89 109 212 89 109 212 89 109 212 89 109 212 89 109 212 89 109 212 89 109 212 89 109 212 89 109 212 89 109 212 89 109 212 89 109 212 89 109 212 89 109 212 89 109 212 89 109 212 89 109 212 89 109 212 89 109 212 89 109 212 89 109 212 89 109 212 89 109 212 89 109 212 89 109 212 90 109 212 90 109 212 90 109 212 90 109 212 90 109 212 90 109 212 90 109 212 90 109 212 90 110 212 90 110 212 90 110 212 90 110 212 90 110 212 90 110 212 90 110 212 90 110 212 90 109 212 90 109 212 90 109 212 90 109 212 90 109 212 90 110 212 90 110 212 90 110 212 90 110 212 90 110 212 90 110 212 90 110 212 90 110 212 90 110 212 90 110 212 90 110 212 90 110 212 90 110 212 90 110 212 91 110 212 91 110 212 91 110 212 91 110 212 91 110 212 91 110 212 91 110 212 91 110 212 91 110 212 91 110 212 91 110 212 91 111 212 91 111 212 91 111 212 91 111 212 91 111 212 91 111 212 91 111 212 92 111 212 92 111 212 92 111 212 91 111 212 91 111 212 91 111 212 92 111 212 92 111 212 92 111 212 92 111 212 92 111 212 92 111 212 92 111 212 92 111 212 92 111 212 92 112 212 92 112 212 92 112 212 92 112 212 92 112 212 93 112 212 93 112 212 93 112 212 93 112 212 93 112 212 93 112 212 93 112 212 93 112 212 93 112 212 93 113 213 93 113 213 93 112 212 93 112 212 93 112 212 93 113 212 93 113 212 94 113 212 94 113 212 94 113 212 94 113 212 94 113 212 94 113 213 94 113 213 94 113 213 94 113 213 94 113 213 94 113 213 94 113 213 95 114 213 95 114 213 95 114 213 95 114 213 95 114 213 95 114 213 95 114 213 95 114 213 95 114 213 95 114 213 95 114 213 95 114 213 95 115 213 95 115 213 96 115 213 96 115 213 96 115 213 96 115 213 96 115 213 96 115 213 96 115 213 96 115 213 96 115 213 96 115 213 96 115 213 96 115 213 97 116 213 97 116 213 97 116 213 97 116 213 97 116 213 97 116 213 97 116 213 97 116 213 97 116 213 97 116 213 97 116 213 97 116 213 97 116 213 
98 117 213 98 117 213 98 117 213 98 117 213 98 116 213 98 116 213 97 116 213 97 116 213 97 116 213 97 116 213 97 116 213 97 116 213 97 116 213 97 116 213 97 116 213 97 116 213 97 116 213 97 116 213 97 116 213 96 115 213 96 115 213 96 115 213 96 115 213 96 115 213 96 115 213 96 115 213 96 115 213 96 115 213 96 115 213 96 115 213 96 115 213 95 115 213 95 115 213 95 114 213 95 114 213 95 114 213 95 114 213 95 114 213 95 114 213 95 114 213 95 114 213 95 114 213 95 114 213 95 114 213 95 114 213 94 113 213 94 113 213 94 113 213 94 113 213 94 113 213 94 113 213 94 113 213 94 113 212 94 113 212 94 113 212 94 113 212 94 113 212 94 113 212 93 113 212 93 113 212 93 112 212 93 112 212 93 112 212 93 113 213 93 113 213 93 113 213 93 112 212 93 112 212 93 112 212 93 112 212 93 112 212 93 112 212 93 112 212 93 112 212 92 112 212 92 112 212 92 112 212 92 112 212 92 112 212 92 112 212 92 111 212 92 111 212 92 111 212 92 111 212 92 111 212 92 111 212 92 111 212 92 111 212 92 111 212 91 111 212 91 111 212 91 111 212 91 111 212 92 111 212 92 111 212 92 111 212 91 111 212 91 111 212 91 111 212 91 111 212 91 111 212 91 111 212 91 111 212 91 110 212 91 110 212 91 110 212 91 110 212 91 110 212 91 110 212 91 110 212 91 110 212 91 110 212 91 110 212 91 110 212 91 110 212 91 110 212 91 110 212 90 110 212 90 110 212 90 110 212 90 110 212 90 110 212 90 110 212 90 110 212 90 110 212 90 110 212 90 110 212 90 110 212 90 110 212 90 110 212 90 110 212 90 110 212 90 110 212 90 110 212 90 110 212 90 109 212 90 109 212 90 109 212 90 109 212 90 109 212 90 109 212 90 109 212 90 109 212 90 109 212 90 110 212 90 110 212 90 110 212 90 110 212 90 110 212 90 110 212 90 110 212 90 110 212 90 110 212 90 110 212 90 110 212 90 110 212 90 110 212 90 110 212 90 110 212 90 110 212 90 110 212 90 110 212 90 110 212 90 110 212 90 110 212 90 110 212 90 110 212 90 110 212 90 110 212 90 110 212 90 110 212 90 110 212 90 110 212 90 110 212 90 110 212 90 110 212 90 110 212 90 109 212 90 109 212 90 109 212 90 109 212 90 109 212 90 109 212 90 109 212 90 109 212 90 109 212 90 110 212 90 110 212 90 110 212 90 110 212 90 110 212 90 110 212 90 110 212 90 110 212 90 110 212 90 110 212 90 110 212 90 110 212 90 110 212 90 110 212 90 110 212 90 110 212 90 110 212 90 110 212 91 110 212 91 110 212 91 110 212 91 110 212 91 110 212 91 110 212 91 110 212 91 110 212 91 110 212 91 110 212 91 110 212 91 110 212 91 110 212 91 110 212 91 111 212 91 111 212 91 111 212 91 111 212 91 111 212 91 111 212 91 111 212 92 111 212 92 111 212 92 111 212 91 111 212 91 111 212 91 111 212 91 111 212 92 111 212 92 111 212 92 111 212 92 111 212 92 111 212 92 111 212 92 111 212 92 111 212 92 111 212 92 112 212 92 112 212 92 112 212 92 112 212 92 112 212 92 112 212 93 112 212 93 112 212 93 112 212 93 112 212 93 112 212 93 112 212 93 112 212 93 112 212 93 113 213 93 113 213 93 113 213 93 112 212 93 112 212 93 112 212 93 113 212 93 113 212 94 113 212 94 113 212 94 113 212 94 113 212 94 113 212 94 113 212 94 113 213 94 113 213 94 113 213 94 113 213 94 113 213 94 113 213 94 113 213 95 114 213 95 114 213 95 114 213 95 114 213 95 114 213 95 114 213 95 114 213 95 114 213 95 114 213 95 114 213 95 114 213 95 114 213 95 115 213 95 115 213 96 115 213 96 115 213 96 115 213 96 115 213 96 115 213 96 115 213 96 115 213 96 115 213 96 115 213 96 115 213 96 115 213 96 115 213 97 116 213 97 116 213 97 116 213 97 116 213 97 116 213 97 116 213 97 116 213 97 116 213 97 116 213 97 116 213 97 116 213 97 116 213 97 116 213 98 116 213 98 116 213 98 117 213 98 117 213 98 117 213 
98 117 213 98 117 213 98 117 213 98 117 213 98 117 213 98 117 213 98 117 213 98 117 213 98 116 213 98 116 213 97 116 213 97 116 213 97 116 213 97 116 213 97 116 213 97 116 213 97 116 213 97 116 213 97 116 213 97 116 213 97 116 213 97 116 213 97 116 213 97 116 213 96 115 213 96 115 213 96 115 213 96 115 213 96 115 213 96 115 213 96 115 213 96 115 213 96 115 213 96 115 213 96 115 213 96 115 213 95 115 213 95 115 213 95 114 213 95 114 213 95 114 213 95 114 213 95 114 213 95 114 213 95 114 213 95 114 213 95 114 213 95 114 213 95 114 213 95 114 213 94 113 213 94 113 213 94 113 213 94 113 213 94 113 213 94 113 213 94 113 213 94 113 213 94 113 212 94 113 212 94 113 212 94 113 212 94 113 212 93 113 212 93 113 212 93 113 212 93 112 212 93 112 212 93 112 212 93 113 213 93 113 213 93 113 213 93 112 212 93 112 212 93 112 212 93 112 212 93 112 212 93 112 212 93 112 212 93 112 212 92 112 212 92 112 212 92 112 212 92 112 212 92 112 212 92 112 212 92 111 212 92 111 212 92 111 212 92 111 212 92 111 212 92 111 212 92 111 212 92 111 212 92 111 212 92 111 212 91 111 212 91 111 212 91 111 212 91 111 212 92 111 212 92 111 212 92 111 212 92 111 212 91 111 212 91 111 212 91 111 212 91 111 212 91 111 212 91 111 212 91 111 212 91 111 212 91 111 212 91 110 212 91 110 212 91 110 212 91 110 212 91 110 212 91 110 212 91 110 212 91 110 212 91 110 212 91 110 212 91 110 212 91 110 212 91 110 212 91 110 212 91 110 212 91 110 212 90 110 212 90 110 212 90 110 212 90 110 212 90 110 212 90 110 212 90 110 212 90 110 212 90 110 212 90 110 212 90 110 212 90 110 212 90 110 212 90 110 212 90 110 212 90 110 212 90 110 212 90 110 212 90 110 212 90 110 212 90 110 212 90 110 212 90 110 212 90 110 212 90 110 212 90 110 212 90 110 212 90 110 212 90 110 212 90 110 212 90 110 212 90 110 212 90 110 212 90 110 212 90 110 212 90 110 212 90 110 212 90 110 212 90 110 212 90 110 212 90 110 212 90 110 212 90 110 212 90 110 212 90 110 212 90 110 212 90 110 212 90 110 212 90 110 212 90 110 212 90 110 212 90 110 212 90 110 212 90 110 212 90 110 212 90 110 212 90 110 212 90 110 212 90 110 212 90 110 212 90 110 212 90 110 212 90 110 212 91 110 212 91 110 212 91 110 212 91 110 212 91 110 212 91 110 212 91 110 212 91 110 212 91 110 212 91 110 212 91 110 212 91 110 212 91 110 212 91 110 212 91 110 212 91 110 212 91 111 212 91 111 212 91 111 212 91 111 212 91 111 212 91 111 212 91 111 212 91 111 212 91 111 212 92 111 212 92 111 212 92 111 212 92 111 212 91 111 212 91 111 212 91 111 212 91 111 212 92 111 212 92 111 212 92 111 212 92 111 212 92 111 212 92 111 212 92 111 212 92 111 212 92 111 212 92 111 212 92 112 212 92 112 212 92 112 212 92 112 212 92 112 212 92 112 212 93 112 212 93 112 212 93 112 212 93 112 212 93 112 212 93 112 212 93 112 212 93 112 212 93 113 213 93 113 213 93 113 213 93 112 212 93 112 212 93 112 212 93 113 212 93 113 212 93 113 212 94 113 212 94 113 212 94 113 212 94 113 212 94 113 212 94 113 213 94 113 213 94 113 213 94 113 213 94 113 213 94 113 213 94 113 213 94 113 213 95 114 213 95 114 213 95 114 213 95 114 213 95 114 213 95 114 213 95 114 213 95 114 213 95 114 213 95 114 213 95 114 213 95 114 213 95 115 213 95 115 213 96 115 213 96 115 213 96 115 213 96 115 213 96 115 213 96 115 213 96 115 213 96 115 213 96 115 213 96 115 213 96 115 213 96 115 213 97 116 213 97 116 213 97 116 213 97 116 213 97 116 213 97 116 213 97 116 213 97 116 213 97 116 213 97 116 213 97 116 213 97 116 213 97 116 213 97 116 213 98 116 213 98 116 213 98 117 213 98 117 213 98 117 213 98 117 213 98 117 213 98 117 213 98 117 213 
98 117 214 98 117 214 99 117 214 99 117 214 98 117 213 98 117 213 98 117 213 98 117 213 98 117 213 98 117 213 98 117 213 98 117 213 98 117 213 98 116 213 98 116 213 97 116 213 97 116 213 97 116 213 97 116 213 97 116 213 97 116 213 97 116 213 97 116 213 97 116 213 97 116 213 97 116 213 97 116 213 97 116 213 97 116 213 96 115 213 96 115 213 96 115 213 96 115 213 96 115 213 96 115 213 96 115 213 96 115 213 96 115 213 96 115 213 96 115 213 96 115 213 95 115 213 95 115 213 95 114 213 95 114 213 95 114 213 95 114 213 95 114 213 95 114 213 95 114 213 95 114 213 95 114 213 95 114 213 95 114 213 95 114 213 95 114 213 94 113 213 94 113 213 94 113 213 94 113 213 94 113 213 94 113 213 94 113 213 94 113 213 94 113 212 94 113 212 94 113 212 94 113 212 94 113 212 93 113 212 93 113 212 93 113 212 93 112 212 93 112 212 93 112 212 93 113 213 93 113 213 93 113 213 93 112 212 93 112 212 93 112 212 93 112 212 93 112 212 93 112 212 93 112 212 93 112 212 93 112 212 92 112 212 92 112 212 92 112 212 92 112 212 92 112 212 92 112 212 92 112 212 92 111 212 92 111 212 92 111 212 92 111 212 92 111 212 92 111 212 92 111 212 92 111 212 92 111 212 92 111 212 92 111 212 91 111 212 91 111 212 91 111 212 91 111 212 91 111 212 92 111 212 92 111 212 92 111 212 91 111 212 91 111 212 91 111 212 91 111 212 91 111 212 91 111 212 91 111 212 91 111 212 91 111 212 91 111 212 91 111 212 91 110 212 91 110 212 91 110 212 91 110 212 91 110 212 91 110 212 91 110 212 91 110 212 91 110 212 91 110 212 91 110 212 91 110 212 91 110 212 91 110 212 91 110 212 91 110 212 91 110 212 91 110 212 91 110 212 91 110 212 91 110 212 91 110 212 91 110 212 91 110 212 91 110 212 91 110 212 91 110 212 91 110 212 91 110 212 90 110 212 90 110 212 90 110 212 90 110 212 90 110 212 90 110 212 90 110 212 90 110 212 90 110 212 90 110 212 90 110 212 90 110 212 90 110 212 90 110 212 90 110 212 91 110 212 91 110 212 91 110 212 91 110 212 91 110 212 91 110 212 91 110 212 91 110 212 91 110 212 91 110 212 91 110 212 91 110 212 91 110 212 91 110 212 91 110 212 91 110 212 91 110 212 91 110 212 91 110 212 91 110 212 91 110 212 91 110 212 91 110 212 91 110 212 91 110 212 91 110 212 91 110 212 91 110 212 91 110 212 91 111 212 91 111 212 91 111 212 91 111 212 91 111 212 91 111 212 91 111 212 91 111 212 91 111 212 91 111 212 91 111 212 92 111 212 92 111 212 92 111 212 91 111 212 91 111 212 91 111 212 91 111 212 91 111 212 92 111 212 92 111 212 92 111 212 92 111 212 92 111 212 92 111 212 92 111 212 92 111 212 92 111 212 92 111 212 92 111 212 92 112 212 92 112 212 92 112 212 92 112 212 92 112 212 92 112 212 92 112 212 93 112 212 93 112 212 93 112 212 93 112 212 93 112 212 93 112 212 93 112 212 93 112 212 93 112 212 93 113 213 93 113 213 93 113 213 93 112 212 93 112 212 93 112 212 93 113 212 93 113 212 93 113 212 94 113 212 94 113 212 94 113 212 94 113 212 94 113 212 94 113 213 94 113 213 94 113 213 94 113 213 94 113 213 94 113 213 94 113 213 94 113 213 95 114 213 95 114 213 95 114 213 95 114 213 95 114 213 95 114 213 95 114 213 95 114 213 95 114 213 95 114 213 95 114 213 95 114 213 95 114 213 95 115 213 95 115 213 96 115 213 96 115 213 96 115 213 96 115 213 96 115 213 96 115 213 96 115 213 96 115 213 96 115 213 96 115 213 96 115 213 96 115 213 97 116 213 97 116 213 97 116 213 97 116 213 97 116 213 97 116 213 97 116 213 97 116 213 97 116 213 97 116 213 97 116 213 97 116 213 97 116 213 97 116 213 98 116 213 98 116 213 98 117 213 98 117 213 98 117 213 98 117 213 98 117 213 98 117 213 98 117 213 98 117 213 98 117 213 99 117 214 99 117 214 98 117 214 
99 118 214 99 118 214 99 117 214 99 117 214 98 117 214 98 117 214 98 117 214 99 117 214 99 117 214 98 117 213 98 117 213 98 117 213 98 117 213 98 117 213 98 117 213 98 117 213 98 117 213 98 117 213 98 116 213 98 116 213 97 116 213 97 116 213 97 116 213 97 116 213 97 116 213 97 116 213 97 116 213 97 116 213 97 116 213 97 116 213 97 116 213 97 116 213 97 116 213 97 116 213 96 115 213 96 115 213 96 115 213 96 115 213 96 115 213 96 115 213 96 115 213 96 115 213 96 115 213 96 115 213 96 115 213 96 115 213 95 115 213 95 115 213 95 115 213 95 114 213 95 114 213 95 114 213 95 114 213 95 114 213 95 114 213 95 114 213 95 114 213 95 114 213 95 114 213 95 114 213 95 114 213 95 114 213 94 113 213 94 113 213 94 113 213 94 113 213 94 113 213 94 113 213 94 113 213 94 113 213 94 113 212 94 113 212 94 113 212 94 113 212 94 113 212 93 113 212 93 113 212 93 113 212 93 112 212 93 112 212 93 112 212 93 113 213 93 113 213 93 113 213 93 113 213 93 112 212 93 112 212 93 112 212 93 112 212 93 112 212 93 112 212 93 112 212 93 112 212 93 112 212 93 112 212 92 112 212 92 112 212 92 112 212 92 112 212 92 112 212 92 112 212 92 112 212 92 111 212 92 111 212 92 111 212 92 111 212 92 111 212 92 111 212 92 111 212 92 111 212 92 111 212 92 111 212 92 111 212 92 111 212 91 111 212 91 111 212 91 111 212 91 111 212 91 111 212 92 111 212 92 111 212 92 111 212 92 111 212 92 111 212 92 111 212 91 111 212 91 111 212 91 111 212 91 111 212 91 111 212 91 111 212 91 111 212 91 111 212 91 111 212 91 111 212 91 111 212 91 111 212 91 111 212 91 111 212 91 111 212 91 111 212 91 110 212 91 110 212 91 110 212 91 110 212 91 110 212 91 110 212 91 110 212 91 110 212 91 110 212 91 110 212 91 110 212 91 110 212 91 110 212 91 110 212 91 110 212 91 110 212 91 110 212 91 110 212 91 110 212 91 110 212 91 110 212 91 110 212 91 110 212 91 110 212 91 110 212 91 110 212 91 110 212 91 110 212 91 110 212 91 110 212 91 110 212 91 110 212 91 110 212 91 110 212 91 110 212 91 110 212 91 110 212 91 110 212 91 110 212 91 111 212 91 111 212 91 111 212 91 111 212 91 111 212 91 111 212 91 111 212 91 111 212 91 111 212 91 111 212 91 111 212 91 111 212 91 111 212 91 111 212 91 111 212 91 111 212 92 111 212 92 111 212 92 111 212 92 111 212 92 111 212 92 111 212 91 111 212 91 111 212 91 111 212 91 111 212 91 111 212 92 111 212 92 111 212 92 111 212 92 111 212 92 111 212 92 111 212 92 111 212 92 111 212 92 111 212 92 111 212 92 111 212 92 111 212 92 112 212 92 112 212 92 112 212 92 112 212 92 112 212 92 112 212 92 112 212 93 112 212 93 112 212 93 112 212 93 112 212 93 112 212 93 112 212 93 112 212 93 112 212 93 112 212 93 112 212 93 113 213 93 113 213 93 113 213 93 113 213 93 112 212 93 112 212 93 112 212 93 113 212 93 113 212 93 113 212 94 113 212 94 113 212 94 113 212 94 113 212 94 113 212 94 113 213 94 113 213 94 113 213 94 113 213 94 113 213 94 113 213 94 113 213 94 113 213 95 114 213 95 114 213 95 114 213 95 114 213 95 114 213 95 114 213 95 114 213 95 114 213 95 114 213 95 114 213 95 114 213 95 114 213 95 114 213 95 115 213 95 115 213 95 115 213 96 115 213 96 115 213 96 115 213 96 115 213 96 115 213 96 115 213 96 115 213 96 115 213 96 115 213 96 115 213 96 115 213 96 115 213 97 116 213 97 116 213 97 116 213 97 116 213 97 116 213 97 116 213 97 116 213 97 116 213 97 116 213 97 116 213 97 116 213 97 116 213 97 116 213 97 116 213 98 116 213 98 116 213 98 117 213 98 117 213 98 117 213 98 117 213 98 117 213 98 117 213 98 117 213 98 117 213 98 117 213 99 117 214 99 117 214 98 117 214 98 117 214 98 117 214 99 117 214 99 117 214 99 118 214 
99 118 214 99 118 214 99 118 214 99 118 214 99 118 214 99 118 214 99 118 214 99 117 214 99 117 214 98 117 214 98 117 214 98 117 214 99 117 214 99 117 214 98 117 213 98 117 213 98 117 213 98 117 213 98 117 213 98 117 213 98 117 213 98 117 213 98 117 213 98 116 213 98 116 213 97 116 213 97 116 213 97 116 213 97 116 213 97 116 213 97 116 213 97 116 213 97 116 213 97 116 213 97 116 213 97 116 213 97 116 213 97 116 213 97 116 213 96 115 213 96 115 213 96 115 213 96 115 213 96 115 213 96 115 213 96 115 213 96 115 213 96 115 213 96 115 213 96 115 213 96 115 213 96 115 213 95 115 213 95 115 213 95 115 213 95 114 213 95 114 213 95 114 213 95 114 213 95 114 213 95 114 213 95 114 213 95 114 213 95 114 213 95 114 213 95 114 213 95 114 213 95 114 213 94 113 213 94 113 213 94 113 213 94 113 213 94 113 213 94 113 213 94 113 213 94 113 213 94 113 212 94 113 212 94 113 212 94 113 212 94 113 212 94 113 212 93 113 212 93 113 212 93 113 212 93 112 212 93 112 212 93 112 212 93 113 213 93 113 213 93 113 213 93 113 213 93 112 212 93 112 212 93 112 212 93 112 212 93 112 212 93 112 212 93 112 212 93 112 212 93 112 212 93 112 212 93 112 212 92 112 212 92 112 212 92 112 212 92 112 212 92 112 212 92 112 212 92 112 212 92 112 212 92 111 212 92 111 212 92 111 212 92 111 212 92 111 212 92 111 212 92 111 212 92 111 212 92 111 212 92 111 212 92 111 212 92 111 212 92 111 212 92 111 212 92 111 212 91 111 212 91 111 212 91 111 212 91 111 212 91 111 212 91 111 212 91 111 212 91 111 212 92 111 212 92 111 212 92 111 212 92 111 212 92 111 212 92 111 212 92 111 212 92 111 212 92 111 212 91 111 212 91 111 212 91 111 212 91 111 212 91 111 212 91 111 212 91 111 212 91 111 212 91 111 212 91 111 212 91 111 212 91 111 212 91 111 212 91 111 212 91 111 212 91 111 212 91 111 212 91 111 212 91 111 212 91 111 212 91 111 212 91 111 212 91 111 212 91 111 212 91 111 212 91 111 212 91 111 212 91 111 212 91 111 212 91 111 212 91 111 212 91 111 212 91 111 212 91 111 212 91 111 212 92 111 212 92 111 212 92 111 212 92 111 212 92 111 212 92 111 212 92 111 212 92 111 212 92 111 212 91 111 212 91 111 212 91 111 212 91 111 212 91 111 212 91 111 212 91 111 212 91 111 212 92 111 212 92 111 212 92 111 212 92 111 212 92 111 212 92 111 212 92 111 212 92 111 212 92 111 212 92 111 212 92 111 212 92 111 212 92 111 212 92 111 212 92 111 212 92 112 212 92 112 212 92 112 212 92 112 212 92 112 212 92 112 212 92 112 212 92 112 212 93 112 212 93 112 212 93 112 212 93 112 212 93 112 212 93 112 212 93 112 212 93 112 212 93 112 212 93 112 212 93 112 212 93 113 213 93 113 213 93 113 213 93 113 213 93 112 212 93 112 212 93 112 212 93 113 212 93 113 212 93 113 212 94 113 212 94 113 212 94 113 212 94 113 212 94 113 212 94 113 212 94 113 213 94 113 213 94 113 213 94 113 213 94 113 213 94 113 213 94 113 213 94 113 213 95 114 213 95 114 213 95 114 213 95 114 213 95 114 213 95 114 213 95 114 213 95 114 213 95 114 213 95 114 213 95 114 213 95 114 213 95 114 213 95 115 213 95 115 213 95 115 213 96 115 213 96 115 213 96 115 213 96 115 213 96 115 213 96 115 213 96 115 213 96 115 213 96 115 213 96 115 213 96 115 213 96 115 213 96 115 213 97 116 213 97 116 213 97 116 213 97 116 213 97 116 213 97 116 213 97 116 213 97 116 213 97 116 213 97 116 213 97 116 213 97 116 213 97 116 213 97 116 213 98 116 213 98 116 213 98 117 213 98 117 213 98 117 213 98 117 213 98 117 213 98 117 213 98 117 213 98 117 213 98 117 213 99 117 214 99 117 214 98 117 214 98 117 214 98 117 214 99 117 214 99 117 214 99 118 214 99 118 214 99 118 214 99 118 214 99 118 214 99 118 214 
100 118 214 100 118 214 100 118 214 99 118 214 99 118 214 99 118 214 99 118 214 99 118 214 99 118 214 99 118 214 99 118 214 99 118 214 99 117 214 99 117 214 98 117 214 98 117 214 98 117 214 99 117 214 99 117 214 98 117 213 98 117 213 98 117 213 98 117 213 98 117 213 98 117 213 98 117 213 98 117 213 98 117 213 98 116 213 98 116 213 98 116 213 97 116 213 97 116 213 97 116 213 97 116 213 97 116 213 97 116 213 97 116 213 97 116 213 97 116 213 97 116 213 97 116 213 97 116 213 97 116 213 97 116 213 96 115 213 96 115 213 96 115 213 96 115 213 96 115 213 96 115 213 96 115 213 96 115 213 96 115 213 96 115 213 96 115 213 96 115 213 96 115 213 95 115 213 95 115 213 95 115 213 95 114 213 95 114 213 95 114 213 95 114 213 95 114 213 95 114 213 95 114 213 95 114 213 95 114 213 95 114 213 95 114 213 95 114 213 95 114 213 94 113 213 94 113 213 94 113 213 94 113 213 94 113 213 94 113 213 94 113 213 94 113 213 94 113 213 94 113 213 94 113 212 94 113 212 94 113 212 94 113 212 94 113 212 94 113 212 93 113 212 93 113 212 93 113 212 93 112 212 93 112 212 93 112 212 93 112 212 93 113 213 93 113 213 93 113 213 93 112 212 93 112 212 93 112 212 93 112 212 93 112 212 93 112 212 93 112 212 93 112 212 93 112 212 93 112 212 93 112 212 93 112 212 93 112 212 92 112 212 92 112 212 92 112 212 92 112 212 92 112 212 92 112 212 92 112 212 92 112 212 92 112 212 92 112 212 92 111 212 92 111 212 92 111 212 92 111 212 92 111 212 92 111 212 92 111 212 92 111 212 92 111 212 92 111 212 92 111 212 92 111 212 92 111 212 92 111 212 92 111 212 92 111 212 92 111 212 92 111 212 92 111 212 92 111 212 92 111 212 92 111 212 92 111 212 92 111 212 92 111 212 92 111 212 92 111 212 91 111 212 91 111 212 91 111 212 91 111 212 91 111 212 91 111 212 91 111 212 91 111 212 91 111 212 91 111 212 91 111 212 91 111 212 91 111 212 91 111 212 91 111 212 91 111 212 91 111 212 91 111 212 91 111 212 91 111 212 91 111 212 92 111 212 92 111 212 92 111 212 92 111 212 92 111 212 92 111 212 92 111 212 92 111 212 92 111 212 92 111 212 92 111 212 92 111 212 92 111 212 92 111 212 92 111 212 92 111 212 92 111 212 92 111 212 92 111 212 92 111 212 92 111 212 92 111 212 92 111 212 92 111 212 92 111 212 92 111 212 92 111 212 92 112 212 92 112 212 92 112 212 92 112 212 92 112 212 92 112 212 92 112 212 92 112 212 92 112 212 92 112 212 93 112 212 93 112 212 93 112 212 93 112 212 93 112 212 93 112 212 93 112 212 93 112 212 93 112 212 93 112 212 93 112 212 93 112 212 93 112 212 93 113 213 93 113 213 93 113 213 93 112 212 93 112 212 93 112 212 93 112 212 93 113 212 93 113 212 93 113 212 94 113 212 94 113 212 94 113 212 94 113 212 94 113 212 94 113 212 94 113 213 94 113 213 94 113 213 94 113 213 94 113 213 94 113 213 94 113 213 94 113 213 94 113 213 94 113 213 95 114 213 95 114 213 95 114 213 95 114 213 95 114 213 95 114 213 95 114 213 95 114 213 95 114 213 95 114 213 95 114 213 95 114 213 95 114 213 95 115 213 95 115 213 95 115 213 96 115 213 96 115 213 96 115 213 96 115 213 96 115 213 96 115 213 96 115 213 96 115 213 96 115 213 96 115 213 96 115 213 96 115 213 96 115 213 97 116 213 97 116 213 97 116 213 97 116 213 97 116 213 97 116 213 97 116 213 97 116 213 97 116 213 97 116 213 97 116 213 97 116 213 97 116 213 97 116 213 98 116 213 98 116 213 98 116 213 98 117 213 98 117 213 98 117 213 98 117 213 98 117 213 98 117 213 98 117 213 98 117 213 98 117 213 99 117 214 99 117 214 98 117 214 98 117 214 98 117 214 99 117 214 99 117 214 99 118 214 99 118 214 99 118 214 99 118 214 99 118 214 99 118 214 99 118 214 99 118 214 99 118 214 100 118 214 100 118 214 
100 119 214 100 119 214 100 119 214 100 118 214 100 118 214 100 118 214 100 118 214 100 118 214 99 118 214 99 118 214 99 118 214 99 118 214 99 118 214 99 118 214 99 118 214 99 118 214 99 118 214 99 117 214 99 117 214 99 117 214 98 117 214 98 117 214 99 117 214 99 117 214 98 117 213 98 117 213 98 117 213 98 117 213 98 117 213 98 117 213 98 117 213 98 117 213 98 117 213 98 116 213 98 116 213 98 116 213 97 116 213 97 116 213 97 116 213 97 116 213 97 116 213 97 116 213 97 116 213 97 116 213 97 116 213 97 116 213 97 116 213 97 116 213 97 116 213 97 116 213 97 116 213 96 115 213 96 115 213 96 115 213 96 115 213 96 115 213 96 115 213 96 115 213 96 115 213 96 115 213 96 115 213 96 115 213 96 115 213 96 115 213 95 115 213 95 115 213 95 115 213 95 114 213 95 114 213 95 114 213 95 114 213 95 114 213 95 114 213 95 114 213 95 114 213 95 114 213 95 114 213 95 114 213 95 114 213 95 114 213 95 114 213 94 113 213 94 113 213 94 113 213 94 113 213 94 113 213 94 113 213 94 113 213 94 113 213 94 113 213 94 113 212 94 113 212 94 113 212 94 113 212 94 113 212 94 113 212 94 113 212 93 113 212 93 113 212 93 113 212 93 113 212 93 112 212 93 112 212 93 112 212 93 112 212 93 113 213 93 113 213 93 113 213 93 113 213 93 113 213 93 112 212 93 112 212 93 112 212 93 112 212 93 112 212 93 112 212 93 112 212 93 112 212 93 112 212 93 112 212 93 112 212 93 112 212 93 112 212 93 112 212 93 112 212 92 112 212 92 112 212 92 112 212 92 112 212 92 112 212 92 112 212 92 112 212 92 112 212 92 112 212 92 112 212 92 112 212 92 112 212 92 112 212 92 112 212 92 112 212 92 111 212 92 111 212 92 111 212 92 111 212 92 111 212 92 111 212 92 111 212 92 111 212 92 111 212 92 111 212 92 111 212 92 111 212 92 111 212 92 111 212 92 111 212 92 111 212 92 111 212 92 111 212 92 111 212 92 111 212 92 111 212 92 111 212 92 111 212 92 111 212 92 111 212 92 111 212 92 111 212 92 111 212 92 111 212 92 111 212 92 111 212 92 111 212 92 111 212 92 111 212 92 111 212 92 111 212 92 111 212 92 111 212 92 111 212 92 111 212 92 111 212 92 112 212 92 112 212 92 112 212 92 112 212 92 112 212 92 112 212 92 112 212 92 112 212 92 112 212 92 112 212 92 112 212 92 112 212 92 112 212 92 112 212 92 112 212 93 112 212 93 112 212 93 112 212 93 112 212 93 112 212 93 112 212 93 112 212 93 112 212 93 112 212 93 112 212 93 112 212 93 112 212 93 112 212 93 112 212 93 112 212 93 113 213 93 113 213 93 113 213 93 113 213 93 113 213 93 112 212 93 112 212 93 112 212 93 112 212 93 113 212 93 113 212 93 113 212 93 113 212 94 113 212 94 113 212 94 113 212 94 113 212 94 113 212 94 113 212 94 113 212 94 113 213 94 113 213 94 113 213 94 113 213 94 113 213 94 113 213 94 113 213 94 113 213 94 113 213 95 114 213 95 114 213 95 114 213 95 114 213 95 114 213 95 114 213 95 114 213 95 114 213 95 114 213 95 114 213 95 114 213 95 114 213 95 114 213 95 114 213 95 115 213 95 115 213 95 115 213 96 115 213 96 115 213 96 115 213 96 115 213 96 115 213 96 115 213 96 115 213 96 115 213 96 115 213 96 115 213 96 115 213 96 115 213 96 115 213 97 116 213 97 116 213 97 116 213 97 116 213 97 116 213 97 116 213 97 116 213 97 116 213 97 116 213 97 116 213 97 116 213 97 116 213 97 116 213 97 116 213 97 116 213 98 116 213 98 116 213 98 116 213 98 117 213 98 117 213 98 117 213 98 117 213 98 117 213 98 117 213 98 117 213 98 117 213 98 117 213 99 117 214 99 117 214 98 117 214 98 117 214 99 117 214 99 117 214 99 117 214 99 118 214 99 118 214 99 118 214 99 118 214 99 118 214 99 118 214 99 118 214 99 118 214 99 118 214 100 118 214 100 118 214 100 118 214 100 118 214 100 118 214 100 119 214 100 119 214 
100 119 214 100 119 214 100 119 214 100 119 214 100 119 214 100 119 214 100 119 214 100 119 214 100 119 214 100 118 214 100 118 214 100 118 214 100 118 214 99 118 214 99 118 214 99 118 214 99 118 214 99 118 214 99 118 214 99 118 214 99 118 214 99 118 214 99 118 214 99 117 214 99 117 214 98 117 214 98 117 214 99 117 214 99 117 214 99 117 214 98 117 213 98 117 213 98 117 213 98 117 213 98 117 213 98 117 213 98 117 213 98 117 213 98 117 213 98 116 213 98 116 213 98 116 213 97 116 213 97 116 213 97 116 213 97 116 213 97 116 213 97 116 213 97 116 213 97 116 213 97 116 213 97 116 213 97 116 213 97 116 213 97 116 213 97 116 213 97 116 213 96 115 213 96 115 213 96 115 213 96 115 213 96 115 213 96 115 213 96 115 213 96 115 213 96 115 213 96 115 213 96 115 213 96 115 213 96 115 213 96 115 213 95 115 213 95 115 213 95 114 213 95 114 213 95 114 213 95 114 213 95 114 213 95 114 213 95 114 213 95 114 213 95 114 213 95 114 213 95 114 213 95 114 213 95 114 213 95 114 213 95 114 213 95 114 213 94 113 213 94 113 213 94 113 213 94 113 213 94 113 213 94 113 213 94 113 213 94 113 213 94 113 213 94 113 213 94 113 212 94 113 212 94 113 212 94 113 212 94 113 212 94 113 212 94 113 212 94 113 212 93 113 212 93 113 212 93 113 212 93 113 212 93 112 212 93 112 212 93 112 212 93 112 212 93 112 212 93 113 213 93 113 213 93 113 213 93 113 213 93 113 213 93 113 213 93 112 212 93 112 212 93 112 212 93 112 212 93 112 212 93 112 212 93 112 212 93 112 212 93 112 212 93 112 212 93 112 212 93 112 212 93 112 212 93 112 212 93 112 212 93 112 212 93 112 212 93 112 212 93 112 212 93 112 212 93 112 212 93 112 212 93 112 212 92 112 212 92 112 212 92 112 212 92 112 212 92 112 212 92 112 212 92 112 212 92 112 212 92 112 212 92 112 212 92 112 212 92 112 212 92 112 212 92 112 212 92 112 212 92 112 212 92 112 212 92 112 212 92 112 212 92 112 212 92 112 212 92 112 212 92 112 212 92 112 212 92 112 212 92 112 212 92 112 212 92 112 212 92 112 212 92 112 212 92 112 212 93 112 212 93 112 212 93 112 212 93 112 212 93 112 212 93 112 212 93 112 212 93 112 212 93 112 212 93 112 212 93 112 212 93 112 212 93 112 212 93 112 212 93 112 212 93 112 212 93 112 212 93 112 212 93 112 212 93 112 212 93 112 212 93 112 212 93 112 212 93 113 213 93 113 213 93 113 213 93 113 213 93 113 213 93 113 213 93 112 212 93 112 212 93 112 212 93 112 212 93 112 212 93 113 212 93 113 212 93 113 212 93 113 212 94 113 212 94 113 212 94 113 212 94 113 212 94 113 212 94 113 212 94 113 212 94 113 212 94 113 213 94 113 213 94 113 213 94 113 213 94 113 213 94 113 213 94 113 213 94 113 213 94 113 213 94 113 213 95 114 213 95 114 213 95 114 213 95 114 213 95 114 213 95 114 213 95 114 213 95 114 213 95 114 213 95 114 213 95 114 213 95 114 213 95 114 213 95 114 213 95 114 213 95 114 213 95 115 213 95 115 213 96 115 213 96 115 213 96 115 213 96 115 213 96 115 213 96 115 213 96 115 213 96 115 213 96 115 213 96 115 213 96 115 213 96 115 213 96 115 213 96 115 213 97 116 213 97 116 213 97 116 213 97 116 213 97 116 213 97 116 213 97 116 213 97 116 213 97 116 213 97 116 213 97 116 213 97 116 213 97 116 213 97 116 213 97 116 213 98 116 213 98 116 213 98 116 213 98 117 213 98 117 213 98 117 213 98 117 213 98 117 213 98 117 213 98 117 213 98 117 213 98 117 213 99 117 214 99 117 214 99 117 214 98 117 214 98 117 214 99 117 214 99 117 214 99 118 214 99 118 214 99 118 214 99 118 214 99 118 214 99 118 214 99 118 214 99 118 214 99 118 214 99 118 214 100 118 214 100 118 214 100 118 214 100 118 214 100 119 214 100 119 214 100 119 214 100 119 214 100 119 214 100 119 214 100 119 214 100 119 214 
101 119 214 101 119 214 101 119 214 101 119 214 100 119 214 100 119 214 100 119 214 100 119 214 100 119 214 100 119 214 100 119 214 100 119 214 100 119 214 100 119 214 100 118 214 100 118 214 100 118 214 100 118 214 99 118 214 99 118 214 99 118 214 99 118 214 99 118 214 99 118 214 99 118 214 99 118 214 99 118 214 99 118 214 99 117 214 99 117 214 98 117 214 98 117 214 98 117 214 99 117 214 99 117 214 98 117 213 98 117 213 98 117 213 98 117 213 98 117 213 98 117 213 98 117 213 98 117 213 98 117 213 98 117 213 98 116 213 98 116 213 97 116 213 97 116 213 97 116 213 97 116 213 97 116 213 97 116 213 97 116 213 97 116 213 97 116 213 97 116 213 97 116 213 97 116 213 97 116 213 97 116 213 97 116 213 97 116 213 96 115 213 96 115 213 96 115 213 96 115 213 96 115 213 96 115 213 96 115 213 96 115 213 96 115 213 96 115 213 96 115 213 96 115 213 96 115 213 96 115 213 95 115 213 95 115 213 95 115 213 95 114 213 95 114 213 95 114 213 95 114 213 95 114 213 95 114 213 95 114 213 95 114 213 95 114 213 95 114 213 95 114 213 95 114 213 95 114 213 95 114 213 95 114 213 95 114 213 95 114 213 94 113 213 94 113 213 94 113 213 94 113 213 94 113 213 94 113 213 94 113 213 94 113 213 94 113 213 94 113 213 94 113 213 94 113 212 94 113 212 94 113 212 94 113 212 94 113 212 94 113 212 94 113 212 94 113 212 94 113 212 94 113 212 93 113 212 93 113 212 93 113 212 93 113 212 93 113 212 93 113 212 93 112 212 93 112 212 93 112 212 93 112 212 93 112 212 93 113 213 93 113 213 93 113 213 93 113 213 93 113 213 93 113 213 93 113 213 93 113 213 93 112 212 93 112 212 93 112 212 93 112 212 93 112 212 93 112 212 93 112 212 93 112 212 93 112 212 93 112 212 93 112 212 93 112 212 93 112 212 93 112 212 93 112 212 93 112 212 93 112 212 93 112 212 93 112 212 93 112 212 93 112 212 93 112 212 93 112 212 93 112 212 93 112 212 93 112 212 93 112 212 93 112 212 93 112 212 93 112 212 93 112 212 93 112 212 93 112 212 93 112 212 93 112 212 93 112 212 93 112 212 93 112 212 93 112 212 93 112 212 93 112 212 93 112 212 93 112 212 93 112 212 93 112 212 93 112 212 93 112 212 93 113 213 93 113 213 93 113 213 93 113 213 93 113 213 93 113 213 93 113 213 93 113 213 93 112 212 93 112 212 93 112 212 93 112 212 93 112 212 93 113 212 93 113 212 93 113 212 93 113 212 93 113 212 93 113 212 94 113 212 94 113 212 94 113 212 94 113 212 94 113 212 94 113 212 94 113 212 94 113 212 94 113 212 94 113 212 94 113 213 94 113 213 94 113 213 94 113 213 94 113 213 94 113 213 94 113 213 94 113 213 94 113 213 94 113 213 94 113 213 95 114 213 95 114 213 95 114 213 95 114 213 95 114 213 95 114 213 95 114 213 95 114 213 95 114 213 95 114 213 95 114 213 95 114 213 95 114 213 95 114 213 95 114 213 95 114 213 95 114 213 95 115 213 95 115 213 95 115 213 96 115 213 96 115 213 96 115 213 96 115 213 96 115 213 96 115 213 96 115 213 96 115 213 96 115 213 96 115 213 96 115 213 96 115 213 96 115 213 96 115 213 97 116 213 97 116 213 97 116 213 97 116 213 97 116 213 97 116 213 97 116 213 97 116 213 97 116 213 97 116 213 97 116 213 97 116 213 97 116 213 97 116 213 97 116 213 97 116 213 98 116 213 98 116 213 98 117 213 98 117 213 98 117 213 98 117 213 98 117 213 98 117 213 98 117 213 98 117 213 98 117 213 98 117 213 99 117 214 99 117 214 98 117 214 98 117 214 98 117 214 99 117 214 99 117 214 99 118 214 99 118 214 99 118 214 99 118 214 99 118 214 99 118 214 99 118 214 99 118 214 99 118 214 99 118 214 100 118 214 100 118 214 100 118 214 100 118 214 100 119 214 100 119 214 100 119 214 100 119 214 100 119 214 100 119 214 100 119 214 100 119 214 100 119 214 100 119 214 101 119 214 101 119 214 101 119 214 
102 120 214 101 120 214 101 120 214 101 119 214 101 119 214 101 119 214 101 119 214 101 119 214 101 119 214 101 119 214 100 119 214 100 119 214 100 119 214 100 119 214 100 119 214 100 119 214 100 119 214 100 119 214 100 119 214 100 118 214 100 118 214 100 118 214 100 118 214 100 118 214 99 118 214 99 118 214 99 118 214 99 118 214 99 118 214 99 118 214 99 118 214 99 118 214 99 118 214 99 118 214 99 117 214 99 117 214 98 117 214 98 117 214 99 117 214 99 117 214 99 117 214 98 117 213 98 117 213 98 117 213 98 117 213 98 117 213 98 117 213 98 117 213 98 117 213 98 117 213 98 117 213 98 116 213 98 116 213 98 116 213 97 116 213 97 116 213 97 116 213 97 116 213 97 116 213 97 116 213 97 116 213 97 116 213 97 116 213 97 116 213 97 116 213 97 116 213 97 116 213 97 116 213 97 116 213 97 116 213 96 115 213 96 115 213 96 115 213 96 115 213 96 115 213 96 115 213 96 115 213 96 115 213 96 115 213 96 115 213 96 115 213 96 115 213 96 115 213 96 115 213 96 115 213 95 115 213 95 115 213 95 115 213 95 114 213 95 114 213 95 114 213 95 114 213 95 114 213 95 114 213 95 114 213 95 114 213 95 114 213 95 114 213 95 114 213 95 114 213 95 114 213 95 114 213 95 114 213 95 114 213 95 114 213 95 114 213 94 113 213 94 113 213 94 113 213 94 113 213 94 113 213 94 113 213 94 113 213 94 113 213 94 113 213 94 113 213 94 113 213 94 113 213 94 113 213 94 113 213 94 113 213 94 113 212 94 113 212 94 113 212 94 113 212 94 113 212 94 113 212 94 113 212 94 113 212 94 113 212 94 113 212 94 113 212 94 113 212 93 113 212 93 113 212 93 113 212 93 113 212 93 113 212 93 113 212 93 113 212 93 113 212 93 113 212 93 113 212 93 112 212 93 112 212 93 112 212 93 112 212 93 112 212 93 112 212 93 112 212 93 112 212 93 112 212 93 112 212 93 112 212 93 112 212 93 112 212 93 112 212 93 112 212 93 112 212 93 112 212 93 112 212 93 112 212 93 112 212 93 112 212 93 112 212 93 112 212 93 112 212 93 112 212 93 112 212 93 112 212 93 112 212 93 112 212 93 112 212 93 112 212 93 112 212 93 112 212 93 112 212 93 112 212 93 113 212 93 113 212 93 113 212 93 113 212 93 113 212 93 113 212 93 113 212 93 113 212 93 113 212 93 113 212 94 113 212 94 113 212 94 113 212 94 113 212 94 113 212 94 113 212 94 113 212 94 113 212 94 113 212 94 113 212 94 113 212 94 113 212 94 113 213 94 113 213 94 113 213 94 113 213 94 113 213 94 113 213 94 113 213 94 113 213 94 113 213 94 113 213 94 113 213 94 113 213 94 113 213 94 113 213 94 113 213 95 114 213 95 114 213 95 114 213 95 114 213 95 114 213 95 114 213 95 114 213 95 114 213 95 114 213 95 114 213 95 114 213 95 114 213 95 114 213 95 114 213 95 114 213 95 114 213 95 114 213 95 114 213 95 115 213 95 115 213 95 115 213 96 115 213 96 115 213 96 115 213 96 115 213 96 115 213 96 115 213 96 115 213 96 115 213 96 115 213 96 115 213 96 115 213 96 115 213 96 115 213 96 115 213 96 115 213 97 116 213 97 116 213 97 116 213 97 116 213 97 116 213 97 116 213 97 116 213 97 116 213 97 116 213 97 116 213 97 116 213 97 116 213 97 116 213 97 116 213 97 116 213 97 116 213 98 116 213 98 116 213 98 116 213 98 117 213 98 117 213 98 117 213 98 117 213 98 117 213 98 117 213 98 117 213 98 117 213 98 117 213 98 117 213 99 117 214 99 117 214 99 117 214 98 117 214 98 117 214 99 117 214 99 117 214 99 118 214 99 118 214 99 118 214 99 118 214 99 118 214 99 118 214 99 118 214 99 118 214 99 118 214 99 118 214 100 118 214 100 118 214 100 118 214 100 118 214 100 118 214 100 119 214 100 119 214 100 119 214 100 119 214 100 119 214 100 119 214 100 119 214 100 119 214 100 119 214 101 119 214 101 119 214 101 119 214 101 119 214 101 119 214 101 119 214 101 119 214 101 120 214 101 120 214 
102 120 214 102 120 214 102 120 214 102 120 214 102 120 214 102 120 214 101 120 214 101 120 214 101 119 214 101 119 214 101 119 214 101 119 214 101 119 214 101 119 214 101 119 214 100 119 214 100 119 214 100 119 214 100 119 214 100 119 214 100 119 214 100 119 214 100 119 214 100 119 214 100 119 214 100 118 214 100 118 214 100 118 214 100 118 214 100 118 214 99 118 214 99 118 214 99 118 214 99 118 214 99 118 214 99 118 214 99 118 214 99 118 214 99 118 214 99 117 214 99 117 214 99 117 214 98 117 214 98 117 214 99 117 214 99 117 214 99 117 214 98 117 213 98 117 213 98 117 213 98 117 213 98 117 213 98 117 213 98 117 213 98 117 213 98 117 213 98 117 213 98 116 213 98 116 213 98 116 213 97 116 213 97 116 213 97 116 213 97 116 213 97 116 213 97 116 213 97 116 213 97 116 213 97 116 213 97 116 213 97 116 213 97 116 213 97 116 213 97 116 213 97 116 213 97 116 213 96 115 213 96 115 213 96 115 213 96 115 213 96 115 213 96 115 213 96 115 213 96 115 213 96 115 213 96 115 213 96 115 213 96 115 213 96 115 213 96 115 213 96 115 213 96 115 213 95 115 213 95 115 213 95 115 213 95 115 213 95 114 213 95 114 213 95 114 213 95 114 213 95 114 213 95 114 213 95 114 213 95 114 213 95 114 213 95 114 213 95 114 213 95 114 213 95 114 213 95 114 213 95 114 213 95 114 213 95 114 213 95 114 213 95 114 213 95 114 213 95 114 213 94 113 213 94 113 213 94 113 213 94 113 213 94 113 213 94 113 213 94 113 213 94 113 213 94 113 213 94 113 213 94 113 213 94 113 213 94 113 213 94 113 213 94 113 213 94 113 213 94 113 213 94 113 213 94 113 212 94 113 212 94 113 212 94 113 212 94 113 212 94 113 212 94 113 212 94 113 212 94 113 212 94 113 212 94 113 212 94 113 212 94 113 212 94 113 212 94 113 212 94 113 212 94 113 212 94 113 212 94 113 212 94 113 212 94 113 212 94 113 212 94 113 212 94 113 212 94 113 212 94 113 212 94 113 212 94 113 212 94 113 212 94 113 212 94 113 212 94 113 212 94 113 212 94 113 212 94 113 212 94 113 212 94 113 212 94 113 212 94 113 212 94 113 212 94 113 212 94 113 212 94 113 212 94 113 212 94 113 212 94 113 212 94 113 212 94 113 212 94 113 212 94 113 212 94 113 212 94 113 213 94 113 213 94 113 213 94 113 213 94 113 213 94 113 213 94 113 213 94 113 213 94 113 213 94 113 213 94 113 213 94 113 213 94 113 213 94 113 213 94 113 213 94 113 213 94 113 213 94 113 213 95 114 213 95 114 213 95 114 213 95 114 213 95 114 213 95 114 213 95 114 213 95 114 213 95 114 213 95 114 213 95 114 213 95 114 213 95 114 213 95 114 213 95 114 213 95 114 213 95 114 213 95 114 213 95 114 213 95 114 213 95 114 213 95 115 213 95 115 213 95 115 213 95 115 213 96 115 213 96 115 213 96 115 213 96 115 213 96 115 213 96 115 213 96 115 213 96 115 213 96 115 213 96 115 213 96 115 213 96 115 213 96 115 213 96 115 213 96 115 213 96 115 213 97 116 213 97 116 213 97 116 213 97 116 213 97 116 213 97 116 213 97 116 213 97 116 213 97 116 213 97 116 213 97 116 213 97 116 213 97 116 213 97 116 213 97 116 213 97 116 213 98 116 213 98 116 213 98 116 213 98 117 213 98 117 213 98 117 213 98 117 213 98 117 213 98 117 213 98 117 213 98 117 213 98 117 213 98 117 213 99 117 214 99 117 214 99 117 214 98 117 214 98 117 214 99 117 214 99 117 214 99 117 214 99 118 214 99 118 214 99 118 214 99 118 214 99 118 214 99 118 214 99 118 214 99 118 214 99 118 214 100 118 214 100 118 214 100 118 214 100 118 214 100 118 214 100 119 214 100 119 214 100 119 214 100 119 214 100 119 214 100 119 214 100 119 214 100 119 214 100 119 214 100 119 214 101 119 214 101 119 214 101 119 214 101 119 214 101 119 214 101 119 214 101 119 214 101 120 214 101 120 214 102 120 214 102 120 214 102 120 214 102 120 214 102 120 214 
102 120 214 102 120 214 102 120 214 102 120 214 102 120 214 102 120 214 102 120 214 102 120 214 102 120 214 102 120 214 102 120 214 101 120 214 101 120 214 101 120 214 101 119 214 101 119 214 101 119 214 101 119 214 101 119 214 101 119 214 101 119 214 100 119 214 100 119 214 100 119 214 100 119 214 100 119 214 100 119 214 100 119 214 100 119 214 100 119 214 100 118 214 100 118 214 100 118 214 100 118 214 100 118 214 99 118 214 99 118 214 99 118 214 99 118 214 99 118 214 99 118 214 99 118 214 99 118 214 99 118 214 99 118 214 99 117 214 99 117 214 99 117 214 98 117 214 98 117 214 99 117 214 99 117 214 99 117 214 98 117 213 98 117 213 98 117 213 98 117 213 98 117 213 98 117 213 98 117 213 98 117 213 98 117 213 98 117 213 98 117 213 98 116 213 98 116 213 97 116 213 97 116 213 97 116 213 97 116 213 97 116 213 97 116 213 97 116 213 97 116 213 97 116 213 97 116 213 97 116 213 97 116 213 97 116 213 97 116 213 97 116 213 97 116 213 97 116 213 97 116 213 96 115 213 96 115 213 96 115 213 96 115 213 96 115 213 96 115 213 96 115 213 96 115 213 96 115 213 96 115 213 96 115 213 96 115 213 96 115 213 96 115 213 96 115 213 96 115 213 96 115 213 96 115 213 95 115 213 95 115 213 95 115 213 95 115 213 95 114 213 95 114 213 95 114 213 95 114 213 95 114 213 95 114 213 95 114 213 95 114 213 95 114 213 95 114 213 95 114 213 95 114 213 95 114 213 95 114 213 95 114 213 95 114 213 95 114 213 95 114 213 95 114 213 95 114 213 95 114 213 95 114 213 95 114 213 95 114 213 95 114 213 95 114 213 94 113 213 94 113 213 94 113 213 94 113 213 94 113 213 94 113 213 94 113 213 94 113 213 94 113 213 94 113 213 94 113 213 94 113 213 94 113 213 94 113 213 94 113 213 94 113 213 94 113 213 94 113 213 94 113 213 94 113 213 94 113 213 94 113 213 94 113 213 94 113 213 94 113 213 94 113 213 94 113 213 94 113 213 94 113 213 94 113 213 94 113 213 94 113 213 94 113 213 94 113 213 94 113 213 94 113 213 94 113 213 94 113 213 94 113 213 94 113 213 94 113 213 94 113 213 94 113 213 94 113 213 94 113 213 94 113 213 94 113 213 94 113 213 94 113 213 94 113 213 94 113 213 94 113 213 94 113 213 94 113 213 94 113 213 94 113 213 94 113 213 95 114 213 95 114 213 95 114 213 95 114 213 95 114 213 95 114 213 95 114 213 95 114 213 95 114 213 95 114 213 95 114 213 95 114 213 95 114 213 95 114 213 95 114 213 95 114 213 95 114 213 95 114 213 95 114 213 95 114 213 95 114 213 95 114 213 95 114 213 95 114 213 95 114 213 95 114 213 95 115 213 95 115 213 95 115 213 95 115 213 96 115 213 96 115 213 96 115 213 96 115 213 96 115 213 96 115 213 96 115 213 96 115 213 96 115 213 96 115 213 96 115 213 96 115 213 96 115 213 96 115 213 96 115 213 96 115 213 96 115 213 96 115 213 97 116 213 97 116 213 97 116 213 97 116 213 97 116 213 97 116 213 97 116 213 97 116 213 97 116 213 97 116 213 97 116 213 97 116 213 97 116 213 97 116 213 97 116 213 97 116 213 97 116 213 97 116 213 98 116 213 98 116 213 98 117 213 98 117 213 98 117 213 98 117 213 98 117 213 98 117 213 98 117 213 98 117 213 98 117 213 98 117 213 98 117 213 99 117 214 99 117 214 99 117 214 98 117 214 98 117 214 99 117 214 99 117 214 99 117 214 99 118 214 99 118 214 99 118 214 99 118 214 99 118 214 99 118 214 99 118 214 99 118 214 99 118 214 99 118 214 100 118 214 100 118 214 100 118 214 100 118 214 100 118 214 100 119 214 100 119 214 100 119 214 100 119 214 100 119 214 100 119 214 100 119 214 100 119 214 100 119 214 101 119 214 101 119 214 101 119 214 101 119 214 101 119 214 101 119 214 101 119 214 101 120 214 101 120 214 101 120 214 102 120 214 102 120 214 102 120 214 102 120 214 102 120 214 102 120 214 102 120 214 102 120 214 102 120 214 102 120 214 
103 121 214 103 121 214 103 121 214 102 120 214 102 120 214 102 120 214 102 120 214 102 120 214 102 120 214 102 120 214 102 120 214 102 120 214 102 120 214 102 120 214 102 120 214 102 120 214 102 120 214 101 120 214 101 120 214 101 119 214 101 119 214 101 119 214 101 119 214 101 119 214 101 119 214 101 119 214 101 119 214 100 119 214 100 119 214 100 119 214 100 119 214 100 119 214 100 119 214 100 119 214 100 119 214 100 119 214 100 118 214 100 118 214 100 118 214 100 118 214 100 118 214 99 118 214 99 118 214 99 118 214 99 118 214 99 118 214 99 118 214 99 118 214 99 118 214 99 118 214 99 118 214 99 118 214 99 117 214 99 117 214 98 117 214 98 117 214 98 117 214 99 117 214 99 117 214 98 117 213 98 117 213 98 117 213 98 117 213 98 117 213 98 117 213 98 117 213 98 117 213 98 117 213 98 117 213 98 117 213 98 116 213 98 116 213 98 116 213 97 116 213 97 116 213 97 116 213 97 116 213 97 116 213 97 116 213 97 116 213 97 116 213 97 116 213 97 116 213 97 116 213 97 116 213 97 116 213 97 116 213 97 116 213 97 116 213 97 116 213 97 116 213 97 116 213 97 116 213 96 115 213 96 115 213 96 115 213 96 115 213 96 115 213 96 115 213 96 115 213 96 115 213 96 115 213 96 115 213 96 115 213 96 115 213 96 115 213 96 115 213 96 115 213 96 115 213 96 115 213 96 115 213 96 115 213 95 115 213 95 115 213 95 115 213 95 115 213 95 115 213 95 114 213 95 114 213 95 114 213 95 114 213 95 114 213 95 114 213 95 114 213 95 114 213 95 114 213 95 114 213 95 114 213 95 114 213 95 114 213 95 114 213 95 114 213 95 114 213 95 114 213 95 114 213 95 114 213 95 114 213 95 114 213 95 114 213 95 114 213 95 114 213 95 114 213 95 114 213 95 114 213 95 114 213 95 114 213 95 114 213 95 114 213 95 114 213 95 114 213 95 114 213 95 114 213 95 114 213 95 114 213 95 114 213 95 114 213 95 114 213 95 114 213 95 114 213 95 114 213 95 114 213 95 114 213 95 114 213 95 114 213 95 114 213 95 114 213 95 114 213 95 114 213 95 114 213 95 114 213 95 114 213 95 114 213 95 114 213 95 114 213 95 114 213 95 114 213 95 114 213 95 114 213 95 114 213 95 114 213 95 114 213 95 114 213 95 114 213 95 114 213 95 114 213 95 114 213 95 114 213 95 114 213 95 114 213 95 114 213 95 114 213 95 114 213 95 114 213 95 114 213 95 114 213 95 114 213 95 114 213 95 114 213 95 114 213 95 114 213 95 114 213 95 114 213 95 114 213 95 114 213 95 115 213 95 115 213 95 115 213 95 115 213 95 115 213 96 115 213 96 115 213 96 115 213 96 115 213 96 115 213 96 115 213 96 115 213 96 115 213 96 115 213 96 115 213 96 115 213 96 115 213 96 115 213 96 115 213 96 115 213 96 115 213 96 115 213 96 115 213 96 115 213 97 116 213 97 116 213 97 116 213 97 116 213 97 116 213 97 116 213 97 116 213 97 116 213 97 116 213 97 116 213 97 116 213 97 116 213 97 116 213 97 116 213 97 116 213 97 116 213 97 116 213 97 116 213 97 116 213 97 116 213 98 116 213 98 116 213 98 116 213 98 117 213 98 117 213 98 117 213 98 117 213 98 117 213 98 117 213 98 117 213 98 117 213 98 117 213 98 117 213 98 117 213 99 117 214 99 117 214 98 117 214 98 117 214 98 117 214 99 117 214 99 117 214 99 118 214 99 118 214 99 118 214 99 118 214 99 118 214 99 118 214 99 118 214 99 118 214 99 118 214 99 118 214 99 118 214 100 118 214 100 118 214 100 118 214 100 118 214 100 118 214 100 119 214 100 119 214 100 119 214 100 119 214 100 119 214 100 119 214 100 119 214 100 119 214 100 119 214 101 119 214 101 119 214 101 119 214 101 119 214 101 119 214 101 119 214 101 119 214 101 119 214 101 120 214 101 120 214 102 120 214 102 120 214 102 120 214 102 120 214 102 120 214 102 120 214 102 120 214 102 120 214 102 120 214 102 120 214 102 120 214 102 120 214 102 120 214 102 120 214 103 121 214 103 121 214 
103 121 215 103 121 215 103 121 215 103 121 214 103 121 214 103 121 214 103 121 214 103 121 214 102 120 214 102 120 214 102 120 214 102 120 214 102 120 214 102 120 214 102 120 214 102 120 214 102 120 214 102 120 214 102 120 214 102 120 214 102 120 214 102 120 214 102 120 214 101 120 214 101 120 214 101 119 214 101 119 214 101 119 214 101 119 214 101 119 214 101 119 214 101 119 214 101 119 214 100 119 214 100 119 214 100 119 214 100 119 214 100 119 214 100 119 214 100 119 214 100 119 214 100 119 214 100 118 214 100 118 214 100 118 214 100 118 214 100 118 214 100 118 214 99 118 214 99 118 214 99 118 214 99 118 214 99 118 214 99 118 214 99 118 214 99 118 214 99 118 214 99 118 214 99 117 214 99 117 214 99 117 214 98 117 214 98 117 214 99 117 214 99 117 214 99 117 214 98 117 213 98 117 213 98 117 213 98 117 213 98 117 213 98 117 213 98 117 213 98 117 213 98 117 213 98 117 213 98 117 213 98 117 213 98 116 213 98 116 213 98 116 213 97 116 213 97 116 213 97 116 213 97 116 213 97 116 213 97 116 213 97 116 213 97 116 213 97 116 213 97 116 213 97 116 213 97 116 213 97 116 213 97 116 213 97 116 213 97 116 213 97 116 213 97 116 213 97 116 213 97 116 213 97 116 213 96 115 213 96 115 213 96 115 213 96 115 213 96 115 213 96 115 213 96 115 213 96 115 213 96 115 213 96 115 213 96 115 213 96 115 213 96 115 213 96 115 213 96 115 213 96 115 213 96 115 213 96 115 213 96 115 213 96 115 213 96 115 213 96 115 213 96 115 213 96 115 213 95 115 213 95 115 213 95 115 213 95 115 213 95 115 213 95 115 213 95 115 213 95 114 213 95 114 213 95 114 213 95 114 213 95 114 213 95 114 213 95 114 213 95 114 213 95 114 213 95 114 213 95 114 213 95 114 213 95 114 213 95 114 213 95 114 213 95 114 213 95 114 213 95 114 213 95 114 213 95 114 213 95 114 213 95 114 213 95 114 213 95 114 213 95 114 213 95 114 213 95 114 213 95 114 213 95 114 213 95 114 213 95 114 213 95 114 213 95 114 213 95 114 213 95 114 213 95 114 213 95 114 213 95 114 213 95 114 213 95 114 213 95 114 213 95 114 213 95 114 213 95 114 213 95 114 213 95 114 213 95 114 213 95 114 213 95 114 213 95 114 213 95 114 213 95 114 213 95 114 213 95 114 213 95 114 213 95 115 213 95 115 213 95 115 213 95 115 213 95 115 213 95 115 213 95 115 213 96 115 213 96 115 213 96 115 213 96 115 213 96 115 213 96 115 213 96 115 213 96 115 213 96 115 213 96 115 213 96 115 213 96 115 213 96 115 213 96 115 213 96 115 213 96 115 213 96 115 213 96 115 213 96 115 213 96 115 213 96 115 213 96 115 213 96 115 213 96 115 213 97 116 213 97 116 213 97 116 213 97 116 213 97 116 213 97 116 213 97 116 213 97 116 213 97 116 213 97 116 213 97 116 213 97 116 213 97 116 213 97 116 213 97 116 213 97 116 213 97 116 213 97 116 213 97 116 213 97 116 213 97 116 213 98 116 213 98 116 213 98 116 213 98 117 213 98 117 213 98 117 213 98 117 213 98 117 213 98 117 213 98 117 213 98 117 213 98 117 213 98 117 213 98 117 213 98 117 213 99 117 214 99 117 214 99 117 214 98 117 214 98 117 214 99 117 214 99 117 214 99 117 214 99 118 214 99 118 214 99 118 214 99 118 214 99 118 214 99 118 214 99 118 214 99 118 214 99 118 214 99 118 214 100 118 214 100 118 214 100 118 214 100 118 214 100 118 214 100 118 214 100 119 214 100 119 214 100 119 214 100 119 214 100 119 214 100 119 214 100 119 214 100 119 214 100 119 214 101 119 214 101 119 214 101 119 214 101 119 214 101 119 214 101 119 214 101 119 214 101 119 214 101 120 214 101 120 214 102 120 214 102 120 214 102 120 214 102 120 214 102 120 214 102 120 214 102 120 214 102 120 214 102 120 214 102 120 214 102 120 214 102 120 214 102 120 214 102 120 214 102 120 214 103 121 214 103 121 214 103 121 214 103 121 214 103 121 214 103 121 215 103 121 215 
104 121 215 104 121 215 103 121 215 103 121 215 103 121 215 103 121 215 103 121 215 103 121 215 103 121 215 103 121 214 103 121 214 103 121 214 103 121 214 103 121 214 102 120 214 102 120 214 102 120 214 102 120 214 102 120 214 102 120 214 102 120 214 102 120 214 102 120 214 102 120 214 102 120 214 102 120 214 102 120 214 102 120 214 102 120 214 101 120 214 101 120 214 101 119 214 101 119 214 101 119 214 101 119 214 101 119 214 101 119 214 101 119 214 100 119 214 100 119 214 100 119 214 100 119 214 100 119 214 100 119 214 100 119 214 100 119 214 100 119 214 100 119 214 100 119 214 100 118 214 100 118 214 100 118 214 100 118 214 100 118 214 99 118 214 99 118 214 99 118 214 99 118 214 99 118 214 99 118 214 99 118 214 99 118 214 99 118 214 99 118 214 99 118 214 99 117 214 99 117 214 98 117 214 98 117 214 98 117 214 99 117 214 99 117 214 99 117 214 98 117 213 98 117 213 98 117 213 98 117 213 98 117 213 98 117 213 98 117 213 98 117 213 98 117 213 98 117 213 98 117 213 98 117 213 98 117 213 98 116 213 98 116 213 98 116 213 97 116 213 97 116 213 97 116 213 97 116 213 97 116 213 97 116 213 97 116 213 97 116 213 97 116 213 97 116 213 97 116 213 97 116 213 97 116 213 97 116 213 97 116 213 97 116 213 97 116 213 97 116 213 97 116 213 97 116 213 97 116 213 97 116 213 97 116 213 96 115 213 96 115 213 96 115 213 96 115 213 96 115 213 96 115 213 96 115 213 96 115 213 96 115 213 96 115 213 96 115 213 96 115 213 96 115 213 96 115 213 96 115 213 96 115 213 96 115 213 96 115 213 96 115 213 96 115 213 96 115 213 96 115 213 96 115 213 96 115 213 96 115 213 96 115 213 96 115 213 96 115 213 96 115 213 96 115 213 96 115 213 96 115 213 96 115 213 96 115 213 96 115 213 95 115 213 95 115 213 95 115 213 95 115 213 95 115 213 95 115 213 95 115 213 95 115 213 95 115 213 95 115 213 95 115 213 95 115 213 95 115 213 95 115 213 95 115 213 95 115 213 95 115 213 95 115 213 95 115 213 95 115 213 95 115 213 95 115 213 95 115 213 95 115 213 95 115 213 95 115 213 95 115 213 96 115 213 96 115 213 96 115 213 96 115 213 96 115 213 96 115 213 96 115 213 96 115 213 96 115 213 96 115 213 96 115 213 96 115 213 96 115 213 96 115 213 96 115 213 96 115 213 96 115 213 96 115 213 96 115 213 96 115 213 96 115 213 96 115 213 96 115 213 96 115 213 96 115 213 96 115 213 96 115 213 96 115 213 96 115 213 96 115 213 96 115 213 96 115 213 96 115 213 96 115 213 96 115 213 97 116 213 97 116 213 97 116 213 97 116 213 97 116 213 97 116 213 97 116 213 97 116 213 97 116 213 97 116 213 97 116 213 97 116 213 97 116 213 97 116 213 97 116 213 97 116 213 97 116 213 97 116 213 97 116 213 97 116 213 97 116 213 97 116 213 97 116 213 98 116 213 98 116 213 98 116 213 98 117 213 98 117 213 98 117 213 98 117 213 98 117 213 98 117 213 98 117 213 98 117 213 98 117 213 98 117 213 98 117 213 98 117 213 98 117 213 99 117 214 99 117 214 99 117 214 98 117 214 98 117 214 98 117 214 99 117 214 99 117 214 99 118 214 99 118 214 99 118 214 99 118 214 99 118 214 99 118 214 99 118 214 99 118 214 99 118 214 99 118 214 99 118 214 100 118 214 100 118 214 100 118 214 100 118 214 100 118 214 100 119 214 100 119 214 100 119 214 100 119 214 100 119 214 100 119 214 100 119 214 100 119 214 100 119 214 100 119 214 100 119 214 101 119 214 101 119 214 101 119 214 101 119 214 101 119 214 101 119 214 101 119 214 101 120 214 101 120 214 102 120 214 102 120 214 102 120 214 102 120 214 102 120 214 102 120 214 102 120 214 102 120 214 102 120 214 102 120 214 102 120 214 102 120 214 102 120 214 102 120 214 102 120 214 103 121 214 103 121 214 103 121 214 103 121 214 103 121 214 103 121 215 103 121 215 103 121 215 103 121 215 103 121 215 103 121 215 103 121 215 104 121 215 
104 122 215 104 122 215 104 122 215 104 122 215 104 122 215 104 121 215 104 121 215 104 121 215 103 121 215 103 121 215 103 121 215 103 121 215 103 121 215 103 121 215 103 121 215 103 121 214 103 121 214 103 121 214 103 121 214 103 121 214 102 120 214 102 120 214 102 120 214 102 120 214 102 120 214 102 120 214 102 120 214 102 120 214 102 120 214 102 120 214 102 120 214 102 120 214 102 120 214 102 120 214 102 120 214 101 120 214 101 120 214 101 119 214 101 119 214 101 119 214 101 119 214 101 119 214 101 119 214 101 119 214 101 119 214 100 119 214 100 119 214 100 119 214 100 119 214 100 119 214 100 119 214 100 119 214 100 119 214 100 119 214 100 119 214 100 118 214 100 118 214 100 118 214 100 118 214 100 118 214 100 118 214 99 118 214 99 118 214 99 118 214 99 118 214 99 118 214 99 118 214 99 118 214 99 118 214 99 118 214 99 118 214 99 118 214 99 117 214 99 117 214 99 117 214 98 117 214 98 117 214 98 117 214 99 117 214 99 117 214 99 117 214 98 117 213 98 117 213 98 117 213 98 117 213 98 117 213 98 117 213 98 117 213 98 117 213 98 117 213 98 117 213 98 117 213 98 117 213 98 117 213 98 117 213 98 116 213 98 116 213 98 116 213 97 116 213 97 116 213 97 116 213 97 116 213 97 116 213 97 116 213 97 116 213 97 116 213 97 116 213 97 116 213 97 116 213 97 116 213 97 116 213 97 116 213 97 116 213 97 116 213 97 116 213 97 116 213 97 116 213 97 116 213 97 116 213 97 116 213 97 116 213 97 116 213 97 116 213 97 116 213 97 116 213 97 116 213 97 116 213 96 115 213 96 115 213 96 115 213 96 115 213 96 115 213 96 115 213 96 115 213 96 115 213 96 115 213 96 115 213 96 115 213 96 115 213 96 115 213 96 115 213 96 115 213 96 115 213 96 115 213 96 115 213 96 115 213 96 115 213 96 115 213 96 115 213 96 115 213 96 115 213 96 115 213 96 115 213 96 115 213 96 115 213 96 115 213 96 115 213 96 115 213 96 115 213 96 115 213 96 115 213 96 115 213 96 115 213 96 115 213 96 115 213 96 115 213 96 115 213 96 115 213 96 115 213 96 115 213 96 115 213 96 115 213 96 115 213 96 115 213 96 115 213 96 115 213 96 115 213 96 115 213 96 115 213 96 115 213 96 115 213 96 115 213 96 115 213 96 115 213 96 115 213 96 115 213 96 115 213 96 115 213 96 115 213 96 115 213 96 115 213 96 115 213 96 115 213 96 115 213 97 116 213 97 116 213 97 116 213 97 116 213 97 116 213 97 116 213 97 116 213 97 116 213 97 116 213 97 116 213 97 116 213 97 116 213 97 116 213 97 116 213 97 116 213 97 116 213 97 116 213 97 116 213 97 116 213 97 116 213 97 116 213 97 116 213 97 116 213 97 116 213 97 116 213 97 116 213 97 116 213 97 116 213 97 116 213 98 116 213 98 116 213 98 116 213 98 117 213 98 117 213 98 117 213 98 117 213 98 117 213 98 117 213 98 117 213 98 117 213 98 117 213 98 117 213 98 117 213 98 117 213 98 117 213 98 117 213 99 117 214 99 117 214 99 117 214 98 117 214 98 117 214 98 117 214 99 117 214 99 117 214 99 117 214 99 118 214 99 118 214 99 118 214 99 118 214 99 118 214 99 118 214 99 118 214 99 118 214 99 118 214 99 118 214 99 118 214 100 118 214 100 118 214 100 118 214 100 118 214 100 118 214 100 118 214 100 119 214 100 119 214 100 119 214 100 119 214 100 119 214 100 119 214 100 119 214 100 119 214 100 119 214 100 119 214 101 119 214 101 119 214 101 119 214 101 119 214 101 119 214 101 119 214 101 119 214 101 119 214 101 120 214 101 120 214 102 120 214 102 120 214 102 120 214 102 120 214 102 120 214 102 120 214 102 120 214 102 120 214 102 120 214 102 120 214 102 120 214 102 120 214 102 120 214 102 120 214 102 120 214 103 121 214 103 121 214 103 121 214 103 121 214 103 121 214 103 121 215 103 121 215 103 121 215 103 121 215 103 121 215 103 121 215 103 121 215 104 121 215 104 121 215 104 121 215 104 122 215 104 122 215 104 122 215 104 122 215 
104 122 215 104 122 215 104 122 215 104 122 215 104 122 215 104 122 215 104 122 215 104 122 215 104 122 215 104 122 215 104 122 215 104 121 215 104 121 215 103 121 215 103 121 215 103 121 215 103 121 215 103 121 215 103 121 215 103 121 215 103 121 215 103 121 214 103 121 214 103 121 214 103 121 214 103 121 214 102 120 214 102 120 214 102 120 214 102 120 214 102 120 214 102 120 214 102 120 214 102 120 214 102 120 214 102 120 214 102 120 214 102 120 214 102 120 214 102 120 214 102 120 214 101 120 214 101 120 214 101 119 214 101 119 214 101 119 214 101 119 214 101 119 214 101 119 214 101 119 214 101 119 214 100 119 214 100 119 214 100 119 214 100 119 214 100 119 214 100 119 214 100 119 214 100 119 214 100 119 214 100 119 214 100 119 214 100 118 214 100 118 214 100 118 214 100 118 214 100 118 214 100 118 214 99 118 214 99 118 214 99 118 214 99 118 214 99 118 214 99 118 214 99 118 214 99 118 214 99 118 214 99 118 214 99 118 214 99 118 214 99 117 214 99 117 214 99 117 214 98 117 214 98 117 214 98 117 214 99 117 214 99 117 214 99 117 214 98 117 213 98 117 213 98 117 213 98 117 213 98 117 213 98 117 213 98 117 213 98 117 213 98 117 213 98 117 213 98 117 213 98 117 213 98 117 213 98 117 213 98 117 213 98 116 213 98 116 213 98 116 213 98 116 213 97 116 213 97 116 213 97 116 213 97 116 213 97 116 213 97 116 213 97 116 213 97 116 213 97 116 213 97 116 213 97 116 213 97 116 213 97 116 213 97 116 213 97 116 213 97 116 213 97 116 213 97 116 213 97 116 213 97 116 213 97 116 213 97 116 213 97 116 213 97 116 213 97 116 213 97 116 213 97 116 213 97 116 213 97 116 213 97 116 213 97 116 213 97 116 213 97 116 213 97 116 213 97 116 213 97 116 213 97 116 213 97 116 213 97 116 213 97 116 213 97 116 213 97 116 213 97 116 213 97 116 213 96 115 213 96 115 213 96 115 213 96 115 213 96 115 213 96 115 213 96 115 213 96 115 213 96 115 213 96 115 213 96 115 213 96 115 213 96 115 213 96 115 213 96 115 213 96 115 213 96 115 213 97 116 213 97 116 213 97 116 213 97 116 213 97 116 213 97 116 213 97 116 213 97 116 213 97 116 213 97 116 213 97 116 213 97 116 213 97 116 213 97 116 213 97 116 213 97 116 213 97 116 213 97 116 213 97 116 213 97 116 213 97 116 213 97 116 213 97 116 213 97 116 213 97 116 213 97 116 213 97 116 213 97 116 213 97 116 213 97 116 213 97 116 213 97 116 213 97 116 213 97 116 213 97 116 213 97 116 213 97 116 213 97 116 213 97 116 213 97 116 213 97 116 213 97 116 213 97 116 213 97 116 213 98 116 213 98 116 213 98 116 213 98 116 213 98 117 213 98 117 213 98 117 213 98 117 213 98 117 213 98 117 213 98 117 213 98 117 213 98 117 213 98 117 213 98 117 213 98 117 213 98 117 213 98 117 213 98 117 213 99 117 214 99 117 214 99 117 214 98 117 214 98 117 214 98 117 214 99 117 214 99 117 214 99 117 214 99 118 214 99 118 214 99 118 214 99 118 214 99 118 214 99 118 214 99 118 214 99 118 214 99 118 214 99 118 214 99 118 214 99 118 214 100 118 214 100 118 214 100 118 214 100 118 214 100 118 214 100 118 214 100 119 214 100 119 214 100 119 214 100 119 214 100 119 214 100 119 214 100 119 214 100 119 214 100 119 214 100 119 214 100 119 214 101 119 214 101 119 214 101 119 214 101 119 214 101 119 214 101 119 214 101 119 214 101 119 214 101 120 214 101 120 214 102 120 214 102 120 214 102 120 214 102 120 214 102 120 214 102 120 214 102 120 214 102 120 214 102 120 214 102 120 214 102 120 214 102 120 214 102 120 214 102 120 214 102 120 214 103 121 214 103 121 214 103 121 214 103 121 214 103 121 214 103 121 215 103 121 215 103 121 215 103 121 215 103 121 215 103 121 215 103 121 215 103 121 215 104 121 215 104 121 215 104 122 215 104 122 215 104 122 215 104 122 215 104 122 215 104 122 215 104 122 215 104 122 215 104 122 215 104 122 215 
105 122 215 105 122 215 105 122 215 105 122 215 105 122 215 104 122 215 104 122 215 104 122 215 104 122 215 104 122 215 104 122 215 104 122 215 104 122 215 104 122 215 104 122 215 104 122 215 104 122 215 104 121 215 104 121 215 103 121 215 103 121 215 103 121 215 103 121 215 103 121 215 103 121 215 103 121 215 103 121 215 103 121 214 103 121 214 103 121 214 103 121 214 103 121 214 102 120 214 102 120 214 102 120 214 102 120 214 102 120 214 102 120 214 102 120 214 102 120 214 102 120 214 102 120 214 102 120 214 102 120 214 102 120 214 102 120 214 102 120 214 101 120 214 101 120 214 101 120 214 101 119 214 101 119 214 101 119 214 101 119 214 101 119 214 101 119 214 101 119 214 101 119 214 100 119 214 100 119 214 100 119 214 100 119 214 100 119 214 100 119 214 100 119 214 100 119 214 100 119 214 100 119 214 100 119 214 100 118 214 100 118 214 100 118 214 100 118 214 100 118 214 100 118 214 99 118 214 99 118 214 99 118 214 99 118 214 99 118 214 99 118 214 99 118 214 99 118 214 99 118 214 99 118 214 99 118 214 99 118 214 99 118 214 99 117 214 99 117 214 99 117 214 98 117 214 98 117 214 98 117 214 98 117 214 99 117 214 99 117 214 99 117 214 99 117 214 98 117 213 98 117 213 98 117 213 98 117 213 98 117 213 98 117 213 98 117 213 98 117 213 98 117 213 98 117 213 98 117 213 98 117 213 98 117 213 98 117 213 98 117 213 98 117 213 98 116 213 98 116 213 98 116 213 98 116 213 98 116 213 98 116 213 98 116 213 97 116 213 97 116 213 97 116 213 97 116 213 97 116 213 97 116 213 97 116 213 97 116 213 97 116 213 97 116 213 97 116 213 97 116 213 97 116 213 97 116 213 97 116 213 97 116 213 97 116 213 97 116 213 97 116 213 97 116 213 97 116 213 97 116 213 97 116 213 97 116 213 97 116 213 97 116 213 97 116 213 97 116 213 97 116 213 97 116 213 97 116 213 97 116 213 97 116 213 97 116 213 97 116 213 97 116 213 97 116 213 97 116 213 97 116 213 97 116 213 97 116 213 97 116 213 97 116 213 97 116 213 97 116 213 97 116 213 97 116 213 97 116 213 97 116 213 97 116 213 97 116 213 97 116 213 97 116 213 97 116 213 97 116 213 97 116 213 97 116 213 97 116 213 97 116 213 97 116 213 97 116 213 97 116 213 97 116 213 97 116 213 97 116 213 97 116 213 97 116 213 97 116 213 97 116 213 97 116 213 97 116 213 97 116 213 97 116 213 97 116 213 97 116 213 97 116 213 97 116 213 98 116 213 98 116 213 98 116 213 98 116 213 98 116 213 98 116 213 98 116 213 98 117 213 98 117 213 98 117 213 98 117 213 98 117 213 98 117 213 98 117 213 98 117 213 98 117 213 98 117 213 98 117 213 98 117 213 98 117 213 98 117 213 98 117 213 98 117 213 99 117 214 99 117 214 99 117 214 99 117 214 98 117 214 98 117 214 98 117 214 98 117 214 99 117 214 99 117 214 99 117 214 99 118 214 99 118 214 99 118 214 99 118 214 99 118 214 99 118 214 99 118 214 99 118 214 99 118 214 99 118 214 99 118 214 99 118 214 99 118 214 100 118 214 100 118 214 100 118 214 100 118 214 100 118 214 100 118 214 100 119 214 100 119 214 100 119 214 100 119 214 100 119 214 100 119 214 100 119 214 100 119 214 100 119 214 100 119 214 100 119 214 101 119 214 101 119 214 101 119 214 101 119 214 101 119 214 101 119 214 101 119 214 101 119 214 101 120 214 101 120 214 101 120 214 102 120 214 102 120 214 102 120 214 102 120 214 102 120 214 102 120 214 102 120 214 102 120 214 102 120 214 102 120 214 102 120 214 102 120 214 102 120 214 102 120 214 102 120 214 103 121 214 103 121 214 103 121 214 103 121 214 103 121 214 103 121 215 103 121 215 103 121 215 103 121 215 103 121 215 103 121 215 103 121 215 103 121 215 104 121 215 104 121 215 104 122 215 104 122 215 104 122 215 104 122 215 104 122 215 104 122 215 104 122 215 104 122 215 104 122 215 104 122 215 104 122 215 104 122 215 105 122 215 105 122 215 105 122 215 105 122 215 
105 123 215 105 123 215 105 123 215 105 123 215 105 123 215 105 123 215 105 122 215 105 122 215 105 122 215 105 122 215 105 122 215 104 122 215 104 122 215 104 122 215 104 122 215 104 122 215 104 122 215 104 122 215 104 122 215 104 122 215 104 122 215 104 122 215 104 122 215 104 121 215 104 121 215 104 121 215 103 121 215 103 121 215 103 121 215 103 121 215 103 121 215 103 121 215 103 121 215 103 121 214 103 121 214 103 121 214 103 121 214 103 121 214 102 120 214 102 120 214 102 120 214 102 120 214 102 120 214 102 120 214 102 120 214 102 120 214 102 120 214 102 120 214 102 120 214 102 120 214 102 120 214 102 120 214 102 120 214 102 120 214 101 120 214 101 120 214 101 120 214 101 119 214 101 119 214 101 119 214 101 119 214 101 119 214 101 119 214 101 119 214 101 119 214 100 119 214 100 119 214 100 119 214 100 119 214 100 119 214 100 119 214 100 119 214 100 119 214 100 119 214 100 119 214 100 119 214 100 119 214 100 118 214 100 118 214 100 118 214 100 118 214 100 118 214 100 118 214 99 118 214 99 118 214 99 118 214 99 118 214 99 118 214 99 118 214 99 118 214 99 118 214 99 118 214 99 118 214 99 118 214 99 118 214 99 118 214 99 118 214 99 117 214 99 117 214 99 117 214 99 117 214 98 117 214 98 117 214 98 117 214 98 117 214 99 117 214 99 117 214 99 117 214 99 117 214 99 117 214 98 117 213 98 117 213 98 117 213 98 117 213 98 117 213 98 117 213 98 117 213 98 117 213 98 117 213 98 117 213 98 117 213 98 117 213 98 117 213 98 117 213 98 117 213 98 117 213 98 117 213 98 117 213 98 117 213 98 117 213 98 117 213 98 117 213 98 117 213 98 116 213 98 116 213 98 116 213 98 116 213 98 116 213 98 116 213 98 116 213 98 116 213 98 116 213 97 116 213 97 116 213 97 116 213 97 116 213 97 116 213 97 116 213 97 116 213 97 116 213 97 116 213 97 116 213 97 116 213 97 116 213 97 116 213 97 116 213 97 116 213 97 116 213 97 116 213 97 116 213 97 116 213 97 116 213 97 116 213 97 116 213 97 116 213 97 116 213 97 116 213 97 116 213 97 116 213 97 116 213 97 116 213 97 116 213 97 116 213 97 116 213 97 116 213 97 116 213 97 116 213 97 116 213 97 116 213 98 116 213 98 116 213 98 116 213 98 116 213 98 116 213 98 116 213 98 116 213 98 116 213 98 116 213 98 117 213 98 117 213 98 117 213 98 117 213 98 117 213 98 117 213 98 117 213 98 117 213 98 117 213 98 117 213 98 117 213 98 117 213 98 117 213 98 117 213 98 117 213 98 117 213 98 117 213 98 117 213 98 117 213 98 117 213 98 117 213 98 117 213 98 117 213 99 117 214 99 117 214 99 117 214 99 117 214 99 117 214 98 117 214 98 117 214 98 117 214 98 117 214 99 117 214 99 117 214 99 117 214 99 117 214 99 118 214 99 118 214 99 118 214 99 118 214 99 118 214 99 118 214 99 118 214 99 118 214 99 118 214 99 118 214 99 118 214 99 118 214 99 118 214 99 118 214 100 118 214 100 118 214 100 118 214 100 118 214 100 118 214 100 118 214 100 119 214 100 119 214 100 119 214 100 119 214 100 119 214 100 119 214 100 119 214 100 119 214 100 119 214 100 119 214 100 119 214 100 119 214 101 119 214 101 119 214 101 119 214 101 119 214 101 119 214 101 119 214 101 119 214 101 119 214 101 120 214 101 120 214 101 120 214 102 120 214 102 120 214 102 120 214 102 120 214 102 120 214 102 120 214 102 120 214 102 120 214 102 120 214 102 120 214 102 120 214 102 120 214 102 120 214 102 120 214 102 120 214 102 120 214 103 121 214 103 121 214 103 121 214 103 121 214 103 121 214 103 121 215 103 121 215 103 121 215 103 121 215 103 121 215 103 121 215 103 121 215 104 121 215 104 121 215 104 121 215 104 122 215 104 122 215 104 122 215 104 122 215 104 122 215 104 122 215 104 122 215 104 122 215 104 122 215 104 122 215 104 122 215 104 122 215 105 122 215 105 122 215 105 122 215 105 122 215 105 122 215 105 123 215 105 123 215 105 123 215 105 123 215 105 123 215 
106 123 215 106 123 215 106 123 215 106 123 215 105 123 215 105 123 215 105 123 215 105 123 215 105 123 215 105 123 215 105 123 215 105 123 215 105 122 215 105 122 215 105 122 215 105 122 215 105 122 215 104 122 215 104 122 215 104 122 215 104 122 215 104 122 215 104 122 215 104 122 215 104 122 215 104 122 215 104 122 215 104 122 215 104 122 215 104 121 215 104 121 215 104 121 215 103 121 215 103 121 215 103 121 215 103 121 215 103 121 215 103 121 215 103 121 215 103 121 215 103 121 214 103 121 214 103 121 214 103 121 214 103 121 214 102 120 214 102 120 214 102 120 214 102 120 214 102 120 214 102 120 214 102 120 214 102 120 214 102 120 214 102 120 214 102 120 214 102 120 214 102 120 214 102 120 214 102 120 214 102 120 214 101 120 214 101 120 214 101 120 214 101 119 214 101 119 214 101 119 214 101 119 214 101 119 214 101 119 214 101 119 214 101 119 214 101 119 214 100 119 214 100 119 214 100 119 214 100 119 214 100 119 214 100 119 214 100 119 214 100 119 214 100 119 214 100 119 214 100 119 214 100 119 214 100 119 214 100 118 214 100 118 214 100 118 214 100 118 214 100 118 214 100 118 214 100 118 214 99 118 214 99 118 214 99 118 214 99 118 214 99 118 214 99 118 214 99 118 214 99 118 214 99 118 214 99 118 214 99 118 214 99 118 214 99 118 214 99 118 214 99 118 214 99 117 214 99 117 214 99 117 214 99 117 214 99 117 214 98 117 214 98 117 214 98 117 214 98 117 214 98 117 214 99 117 214 99 117 214 99 117 214 99 117 214 99 117 214 98 117 213 98 117 213 98 117 213 98 117 213 98 117 213 98 117 213 98 117 213 98 117 213 98 117 213 98 117 213 98 117 213 98 117 213 98 117 213 98 117 213 98 117 213 98 117 213 98 117 213 98 117 213 98 117 213 98 117 213 98 117 213 98 117 213 98 117 213 98 117 213 98 117 213 98 117 213 98 117 213 98 117 213 98 117 213 98 117 213 98 117 213 98 117 213 98 117 213 98 117 213 98 117 213 98 117 213 98 117 213 98 117 213 98 117 213 98 117 213 98 117 213 98 117 213 98 117 213 98 117 213 98 117 213 98 117 213 98 117 213 98 117 213 98 117 213 98 117 213 98 117 213 98 117 213 98 117 213 98 117 213 98 117 213 98 117 213 98 117 213 98 117 213 98 117 213 98 117 213 98 117 213 98 117 213 98 117 213 98 117 213 98 117 213 98 117 213 98 117 213 98 117 213 98 117 213 98 117 213 98 117 213 98 117 213 98 117 213 98 117 213 98 117 213 99 117 214 99 117 214 99 117 214 99 117 214 99 117 214 98 117 214 98 117 214 98 117 214 98 117 214 98 117 214 99 117 214 99 117 214 99 117 214 99 117 214 99 117 214 99 118 214 99 118 214 99 118 214 99 118 214 99 118 214 99 118 214 99 118 214 99 118 214 99 118 214 99 118 214 99 118 214 99 118 214 99 118 214 99 118 214 99 118 214 100 118 214 100 118 214 100 118 214 100 118 214 100 118 214 100 118 214 100 118 214 100 119 214 100 119 214 100 119 214 100 119 214 100 119 214 100 119 214 100 119 214 100 119 214 100 119 214 100 119 214 100 119 214 100 119 214 100 119 214 101 119 214 101 119 214 101 119 214 101 119 214 101 119 214 101 119 214 101 119 214 101 119 214 101 119 214 101 120 214 101 120 214 101 120 214 102 120 214 102 120 214 102 120 214 102 120 214 102 120 214 102 120 214 102 120 214 102 120 214 102 120 214 102 120 214 102 120 214 102 120 214 102 120 214 102 120 214 102 120 214 102 120 214 103 121 214 103 121 214 103 121 214 103 121 214 103 121 214 103 121 215 103 121 215 103 121 215 103 121 215 103 121 215 103 121 215 103 121 215 103 121 215 104 121 215 104 121 215 104 121 215 104 122 215 104 122 215 104 122 215 104 122 215 104 122 215 104 122 215 104 122 215 104 122 215 104 122 215 104 122 215 104 122 215 104 122 215 105 122 215 105 122 215 105 122 215 105 122 215 105 122 215 105 123 215 105 123 215 105 123 215 105 123 215 105 123 215 105 123 215 105 123 215 105 123 215 106 123 215 106 123 215 106 123 215 
106 124 215 106 123 215 106 123 215 106 123 215 106 123 215 106 123 215 106 123 215 106 123 215 106 123 215 106 123 215 106 123 215 105 123 215 105 123 215 105 123 215 105 123 215 105 123 215 105 123 215 105 123 215 105 122 215 105 122 215 105 122 215 105 122 215 105 122 215 104 122 215 104 122 215 104 122 215 104 122 215 104 122 215 104 122 215 104 122 215 104 122 215 104 122 215 104 122 215 104 122 215 104 122 215 104 122 215 104 121 215 104 121 215 104 121 215 103 121 215 103 121 215 103 121 215 103 121 215 103 121 215 103 121 215 103 121 215 103 121 214 103 121 214 103 121 214 103 121 214 103 121 214 103 121 214 102 120 214 102 120 214 102 120 214 102 120 214 102 120 214 102 120 214 102 120 214 102 120 214 102 120 214 102 120 214 102 120 214 102 120 214 102 120 214 102 120 214 102 120 214 102 120 214 102 120 214 101 120 214 101 120 214 101 120 214 101 119 214 101 119 214 101 119 214 101 119 214 101 119 214 101 119 214 101 119 214 101 119 214 101 119 214 100 119 214 100 119 214 100 119 214 100 119 214 100 119 214 100 119 214 100 119 214 100 119 214 100 119 214 100 119 214 100 119 214 100 119 214 100 119 214 100 119 214 100 118 214 100 118 214 100 118 214 100 118 214 100 118 214 100 118 214 100 118 214 100 118 214 99 118 214 99 118 214 99 118 214 99 118 214 99 118 214 99 118 214 99 118 214 99 118 214 99 118 214 99 118 214 99 118 214 99 118 214 99 118 214 99 118 214 99 118 214 99 118 214 99 118 214 99 118 214 99 118 214 99 117 214 99 117 214 99 117 214 99 117 214 99 117 214 99 117 214 98 117 214 98 117 214 98 117 214 98 117 214 98 117 214 98 117 214 98 117 214 98 117 214 99 117 214 99 117 214 99 117 214 99 117 214 99 117 214 99 117 214 99 117 214 99 117 214 99 117 214 99 117 214 99 117 214 99 117 214 99 117 214 98 117 213 98 117 213 98 117 213 98 117 213 98 117 213 98 117 213 98 117 213 98 117 213 98 117 213 98 117 213 98 117 213 98 117 213 98 117 213 98 117 213 98 117 213 98 117 213 98 117 213 98 117 213 98 117 213 98 117 213 98 117 213 98 117 213 98 117 213 99 117 214 99 117 214 99 117 214 99 117 214 99 117 214 99 117 214 99 117 214 99 117 214 99 117 214 99 117 214 99 117 214 99 117 214 99 117 214 98 117 214 98 117 214 98 117 214 98 117 214 98 117 214 98 117 214 98 117 214 98 117 214 99 117 214 99 117 214 99 117 214 99 117 214 99 117 214 99 117 214 99 118 214 99 118 214 99 118 214 99 118 214 99 118 214 99 118 214 99 118 214 99 118 214 99 118 214 99 118 214 99 118 214 99 118 214 99 118 214 99 118 214 99 118 214 99 118 214 99 118 214 99 118 214 99 118 214 100 118 214 100 118 214 100 118 214 100 118 214 100 118 214 100 118 214 100 118 214 100 118 214 100 119 214 100 119 214 100 119 214 100 119 214 100 119 214 100 119 214 100 119 214 100 119 214 100 119 214 100 119 214 100 119 214 100 119 214 100 119 214 100 119 214 101 119 214 101 119 214 101 119 214 101 119 214 101 119 214 101 119 214 101 119 214 101 119 214 101 119 214 101 120 214 101 120 214 101 120 214 102 120 214 102 120 214 102 120 214 102 120 214 102 120 214 102 120 214 102 120 214 102 120 214 102 120 214 102 120 214 102 120 214 102 120 214 102 120 214 102 120 214 102 120 214 102 120 214 102 120 214 103 121 214 103 121 214 103 121 214 103 121 214 103 121 214 103 121 214 103 121 215 103 121 215 103 121 215 103 121 215 103 121 215 103 121 215 103 121 215 104 121 215 104 121 215 104 121 215 104 122 215 104 122 215 104 122 215 104 122 215 104 122 215 104 122 215 104 122 215 104 122 215 104 122 215 104 122 215 104 122 215 104 122 215 104 122 215 105 122 215 105 122 215 105 122 215 105 122 215 105 122 215 105 123 215 105 123 215 105 123 215 105 123 215 105 123 215 105 123 215 105 123 215 106 123 215 106 123 215 106 123 215 106 123 215 106 123 215 106 123 215 106 123 215 106 123 215 106 123 215 106 123 215 
107 124 215 107 124 215 106 124 215 106 124 215 106 124 215 106 124 215 106 124 215 106 123 215 106 123 215 106 123 215 106 123 215 106 123 215 106 123 215 106 123 215 106 123 215 106 123 215 106 123 215 105 123 215 105 123 215 105 123 215 105 123 215 105 123 215 105 123 215 105 123 215 105 123 215 105 122 215 105 122 215 105 122 215 105 122 215 104 122 215 104 122 215 104 122 215 104 122 215 104 122 215 104 122 215 104 122 215 104 122 215 104 122 215 104 122 215 104 122 215 104 122 215 104 122 215 104 122 215 104 121 215 104 121 215 103 121 215 103 121 215 103 121 215 103 121 215 103 121 215 103 121 215 103 121 215 103 121 215 103 121 215 103 121 214 103 121 214 103 121 214 103 121 214 103 121 214 102 120 214 102 120 214 102 120 214 102 120 214 102 120 214 102 120 214 102 120 214 102 120 214 102 120 214 102 120 214 102 120 214 102 120 214 102 120 214 102 120 214 102 120 214 102 120 214 102 120 214 102 120 214 101 120 214 101 120 214 101 120 214 101 119 214 101 119 214 101 119 214 101 119 214 101 119 214 101 119 214 101 119 214 101 119 214 101 119 214 101 119 214 100 119 214 100 119 214 100 119 214 100 119 214 100 119 214 100 119 214 100 119 214 100 119 214 100 119 214 100 119 214 100 119 214 100 119 214 100 119 214 100 119 214 100 119 214 100 119 214 100 118 214 100 118 214 100 118 214 100 118 214 100 118 214 100 118 214 100 118 214 100 118 214 99 118 214 99 118 214 99 118 214 99 118 214 99 118 214 99 118 214 99 118 214 99 118 214 99 118 214 99 118 214 99 118 214 99 118 214 99 118 214 99 118 214 99 118 214 99 118 214 99 118 214 99 118 214 99 118 214 99 118 214 99 118 214 99 118 214 99 118 214 99 118 214 99 118 214 99 118 214 99 118 214 99 118 214 99 118 214 99 117 214 99 117 214 99 117 214 99 117 214 99 117 214 99 117 214 99 117 214 99 117 214 99 117 214 99 117 214 99 117 214 99 117 214 99 117 214 99 117 214 99 117 214 99 117 214 99 117 214 99 117 214 99 117 214 99 117 214 99 117 214 99 117 214 99 117 214 99 117 214 99 117 214 99 117 214 99 117 214 99 117 214 99 117 214 99 117 214 99 117 214 99 117 214 99 117 214 99 117 214 99 117 214 99 118 214 99 118 214 99 118 214 99 118 214 99 118 214 99 118 214 99 118 214 99 118 214 99 118 214 99 118 214 99 118 214 99 118 214 99 118 214 99 118 214 99 118 214 99 118 214 99 118 214 99 118 214 99 118 214 99 118 214 99 118 214 99 118 214 99 118 214 99 118 214 99 118 214 99 118 214 99 118 214 99 118 214 99 118 214 100 118 214 100 118 214 100 118 214 100 118 214 100 118 214 100 118 214 100 118 214 100 118 214 100 119 214 100 119 214 100 119 214 100 119 214 100 119 214 100 119 214 100 119 214 100 119 214 100 119 214 100 119 214 100 119 214 100 119 214 100 119 214 100 119 214 100 119 214 100 119 214 101 119 214 101 119 214 101 119 214 101 119 214 101 119 214 101 119 214 101 119 214 101 119 214 101 119 214 101 119 214 101 120 214 101 120 214 101 120 214 102 120 214 102 120 214 102 120 214 102 120 214 102 120 214 102 120 214 102 120 214 102 120 214 102 120 214 102 120 214 102 120 214 102 120 214 102 120 214 102 120 214 102 120 214 102 120 214 102 120 214 102 120 214 103 121 214 103 121 214 103 121 214 103 121 214 103 121 214 103 121 215 103 121 215 103 121 215 103 121 215 103 121 215 103 121 215 103 121 215 103 121 215 103 121 215 104 121 215 104 121 215 104 122 215 104 122 215 104 122 215 104 122 215 104 122 215 104 122 215 104 122 215 104 122 215 104 122 215 104 122 215 104 122 215 104 122 215 104 122 215 104 122 215 105 122 215 105 122 215 105 122 215 105 122 215 105 123 215 105 123 215 105 123 215 105 123 215 105 123 215 105 123 215 105 123 215 105 123 215 106 123 215 106 123 215 106 123 215 106 123 215 106 123 215 106 123 215 106 123 215 106 123 215 106 123 215 106 123 215 106 124 215 106 124 215 106 124 215 106 124 215 106 124 215 107 124 215 
107 124 215 107 124 215 107 124 215 107 124 215 107 124 215 107 124 215 107 124 215 107 124 215 106 124 215 106 124 215 106 124 215 106 124 215 106 124 215 106 123 215 106 123 215 106 123 215 106 123 215 106 123 215 106 123 215 106 123 215 106 123 215 106 123 215 106 123 215 105 123 215 105 123 215 105 123 215 105 123 215 105 123 215 105 123 215 105 123 215 105 123 215 105 122 215 105 122 215 105 122 215 105 122 215 105 122 215 105 122 215 104 122 215 104 122 215 104 122 215 104 122 215 104 122 215 104 122 215 104 122 215 104 122 215 104 122 215 104 122 215 104 122 215 104 122 215 104 122 215 104 121 215 104 121 215 104 121 215 103 121 215 103 121 215 103 121 215 103 121 215 103 121 215 103 121 215 103 121 215 103 121 215 103 121 214 103 121 214 103 121 214 103 121 214 103 121 214 103 121 214 102 120 214 102 120 214 102 120 214 102 120 214 102 120 214 102 120 214 102 120 214 102 120 214 102 120 214 102 120 214 102 120 214 102 120 214 102 120 214 102 120 214 102 120 214 102 120 214 102 120 214 102 120 214 102 120 214 101 120 214 101 120 214 101 120 214 101 119 214 101 119 214 101 119 214 101 119 214 101 119 214 101 119 214 101 119 214 101 119 214 101 119 214 101 119 214 101 119 214 101 119 214 100 119 214 100 119 214 100 119 214 100 119 214 100 119 214 100 119 214 100 119 214 100 119 214 100 119 214 100 119 214 100 119 214 100 119 214 100 119 214 100 119 214 100 119 214 100 119 214 100 119 214 100 119 214 100 118 214 100 118 214 100 118 214 100 118 214 100 118 214 100 118 214 100 118 214 100 118 214 100 118 214 100 118 214 100 118 214 100 118 214 100 118 214 100 118 214 99 118 214 99 118 214 99 118 214 99 118 214 99 118 214 99 118 214 99 118 214 99 118 214 99 118 214 99 118 214 99 118 214 99 118 214 99 118 214 99 118 214 99 118 214 99 118 214 99 118 214 99 118 214 99 118 214 99 118 214 99 118 214 99 118 214 99 118 214 99 118 214 99 118 214 99 118 214 99 118 214 99 118 214 99 118 214 99 118 214 99 118 214 99 118 214 99 118 214 99 118 214 99 118 214 99 118 214 99 118 214 99 118 214 99 118 214 99 118 214 99 118 214 99 118 214 99 118 214 99 118 214 99 118 214 99 118 214 99 118 214 99 118 214 99 118 214 99 118 214 99 118 214 99 118 214 99 118 214 99 118 214 99 118 214 100 118 214 100 118 214 100 118 214 100 118 214 100 118 214 100 118 214 100 118 214 100 118 214 100 118 214 100 118 214 100 118 214 100 118 214 100 118 214 100 118 214 100 119 214 100 119 214 100 119 214 100 119 214 100 119 214 100 119 214 100 119 214 100 119 214 100 119 214 100 119 214 100 119 214 100 119 214 100 119 214 100 119 214 100 119 214 100 119 214 100 119 214 100 119 214 101 119 214 101 119 214 101 119 214 101 119 214 101 119 214 101 119 214 101 119 214 101 119 214 101 119 214 101 119 214 101 119 214 101 119 214 101 120 214 101 120 214 101 120 214 102 120 214 102 120 214 102 120 214 102 120 214 102 120 214 102 120 214 102 120 214 102 120 214 102 120 214 102 120 214 102 120 214 102 120 214 102 120 214 102 120 214 102 120 214 102 120 214 102 120 214 102 120 214 102 120 214 103 121 214 103 121 214 103 121 214 103 121 214 103 121 214 103 121 214 103 121 215 103 121 215 103 121 215 103 121 215 103 121 215 103 121 215 103 121 215 103 121 215 104 121 215 104 121 215 104 121 215 104 122 215 104 122 215 104 122 215 104 122 215 104 122 215 104 122 215 104 122 215 104 122 215 104 122 215 104 122 215 104 122 215 104 122 215 104 122 215 105 122 215 105 122 215 105 122 215 105 122 215 105 122 215 105 122 215 105 123 215 105 123 215 105 123 215 105 123 215 105 123 215 105 123 215 105 123 215 105 123 215 106 123 215 106 123 215 106 123 215 106 123 215 106 123 215 106 123 215 106 123 215 106 123 215 106 123 215 106 123 215 106 124 215 106 124 215 106 124 215 106 124 215 106 124 215 107 124 215 107 124 215 107 124 215 107 124 215 107 124 215 107 124 215 107 124 215 
108 125 216 108 125 216 107 125 215 107 125 215 107 125 215 107 124 215 107 124 215 107 124 215 107 124 215 107 124 215 107 124 215 107 124 215 107 124 215 107 124 215 107 124 215 106 124 215 106 124 215 106 124 215 106 124 215 106 124 215 106 123 215 106 123 215 106 123 215 106 123 215 106 123 215 106 123 215 106 123 215 106 123 215 106 123 215 106 123 215 105 123 215 105 123 215 105 123 215 105 123 215 105 123 215 105 123 215 105 123 215 105 123 215 105 122 215 105 122 215 105 122 215 105 122 215 105 122 215 104 122 215 104 122 215 104 122 215 104 122 215 104 122 215 104 122 215 104 122 215 104 122 215 104 122 215 104 122 215 104 122 215 104 122 215 104 122 215 104 122 215 104 121 215 104 121 215 104 121 215 103 121 215 103 121 215 103 121 215 103 121 215 103 121 215 103 121 215 103 121 215 103 121 215 103 121 215 103 121 214 103 121 214 103 121 214 103 121 214 103 121 214 103 121 214 102 120 214 102 120 214 102 120 214 102 120 214 102 120 214 102 120 214 102 120 214 102 120 214 102 120 214 102 120 214 102 120 214 102 120 214 102 120 214 102 120 214 102 120 214 102 120 214 102 120 214 102 120 214 102 120 214 102 120 214 102 120 214 101 120 214 101 120 214 101 120 214 101 120 214 101 119 214 101 119 214 101 119 214 101 119 214 101 119 214 101 119 214 101 119 214 101 119 214 101 119 214 101 119 214 101 119 214 101 119 214 101 119 214 100 119 214 100 119 214 100 119 214 100 119 214 100 119 214 100 119 214 100 119 214 100 119 214 100 119 214 100 119 214 100 119 214 100 119 214 100 119 214 100 119 214 100 119 214 100 119 214 100 119 214 100 119 214 100 119 214 100 119 214 100 119 214 100 119 214 100 119 214 100 119 214 100 119 214 100 119 214 100 119 214 100 118 214 100 118 214 100 118 214 100 118 214 100 118 214 100 118 214 100 118 214 100 118 214 100 118 214 100 118 214 100 118 214 100 118 214 100 118 214 100 118 214 100 118 214 100 118 214 100 118 214 100 118 214 100 118 214 100 118 214 100 118 214 100 118 214 100 118 214 100 118 214 100 118 214 100 118 214 100 118 214 100 118 214 100 118 214 100 118 214 100 118 214 100 118 214 100 118 214 100 118 214 100 118 214 100 118 214 100 118 214 100 118 214 100 118 214 100 118 214 100 118 214 100 119 214 100 119 214 100 119 214 100 119 214 100 119 214 100 119 214 100 119 214 100 119 214 100 119 214 100 119 214 100 119 214 100 119 214 100 119 214 100 119 214 100 119 214 100 119 214 100 119 214 100 119 214 100 119 214 100 119 214 100 119 214 100 119 214 100 119 214 100 119 214 100 119 214 100 119 214 100 119 214 101 119 214 101 119 214 101 119 214 101 119 214 101 119 214 101 119 214 101 119 214 101 119 214 101 119 214 101 119 214 101 119 214 101 119 214 101 119 214 101 120 214 101 120 214 101 120 214 101 120 214 102 120 214 102 120 214 102 120 214 102 120 214 102 120 214 102 120 214 102 120 214 102 120 214 102 120 214 102 120 214 102 120 214 102 120 214 102 120 214 102 120 214 102 120 214 102 120 214 102 120 214 102 120 214 102 120 214 102 120 214 102 120 214 103 121 214 103 121 214 103 121 214 103 121 214 103 121 214 103 121 214 103 121 215 103 121 215 103 121 215 103 121 215 103 121 215 103 121 215 103 121 215 103 121 215 103 121 215 104 121 215 104 121 215 104 121 215 104 122 215 104 122 215 104 122 215 104 122 215 104 122 215 104 122 215 104 122 215 104 122 215 104 122 215 104 122 215 104 122 215 104 122 215 104 122 215 104 122 215 105 122 215 105 122 215 105 122 215 105 122 215 105 122 215 105 123 215 105 123 215 105 123 215 105 123 215 105 123 215 105 123 215 105 123 215 105 123 215 106 123 215 106 123 215 106 123 215 106 123 215 106 123 215 106 123 215 106 123 215 106 123 215 106 123 215 106 123 215 106 124 215 106 124 215 106 124 215 106 124 215 106 124 215 107 124 215 107 124 215 107 124 215 107 124 215 107 124 215 107 124 215 107 124 215 107 124 215 107 124 215 107 124 215 107 125 215 107 125 215 107 125 215 108 125 216 
108 125 215 108 125 215 108 125 215 107 125 215 107 125 215 107 125 215 108 125 216 108 125 216 108 125 216 107 125 215 107 125 215 107 124 215 107 124 215 107 124 215 107 124 215 107 124 215 107 124 215 107 124 215 107 124 215 107 124 215 107 124 215 106 124 215 106 124 215 106 124 215 106 124 215 106 124 215 106 124 215 106 123 215 106 123 215 106 123 215 106 123 215 106 123 215 106 123 215 106 123 215 106 123 215 106 123 215 106 123 215 105 123 215 105 123 215 105 123 215 105 123 215 105 123 215 105 123 215 105 123 215 105 123 215 105 122 215 105 122 215 105 122 215 105 122 215 105 122 215 105 122 215 104 122 215 104 122 215 104 122 215 104 122 215 104 122 215 104 122 215 104 122 215 104 122 215 104 122 215 104 122 215 104 122 215 104 122 215 104 122 215 104 122 215 104 121 215 104 121 215 104 121 215 103 121 215 103 121 215 103 121 215 103 121 215 103 121 215 103 121 215 103 121 215 103 121 215 103 121 215 103 121 214 103 121 214 103 121 214 103 121 214 103 121 214 103 121 214 103 121 214 103 121 214 102 120 214 102 120 214 102 120 214 102 120 214 102 120 214 102 120 214 102 120 214 102 120 214 102 120 214 102 120 214 102 120 214 102 120 214 102 120 214 102 120 214 102 120 214 102 120 214 102 120 214 102 120 214 102 120 214 102 120 214 102 120 214 102 120 214 101 120 214 101 120 214 101 120 214 101 120 214 101 120 214 101 119 214 101 119 214 101 119 214 101 119 214 101 119 214 101 119 214 101 119 214 101 119 214 101 119 214 101 119 214 101 119 214 101 119 214 101 119 214 101 119 214 101 119 214 101 119 214 101 119 214 101 119 214 100 119 214 100 119 214 100 119 214 100 119 214 100 119 214 100 119 214 100 119 214 100 119 214 100 119 214 100 119 214 100 119 214 100 119 214 100 119 214 100 119 214 100 119 214 100 119 214 100 119 214 100 119 214 100 119 214 100 119 214 100 119 214 100 119 214 100 119 214 100 119 214 100 119 214 100 119 214 100 119 214 100 119 214 100 119 214 100 119 214 100 119 214 100 119 214 100 119 214 100 119 214 100 119 214 100 119 214 100 119 214 100 119 214 100 119 214 100 119 214 100 119 214 100 119 214 100 119 214 100 119 214 100 119 214 100 119 214 100 119 214 100 119 214 100 119 214 100 119 214 100 119 214 100 119 214 100 119 214 100 119 214 100 119 214 100 119 214 100 119 214 100 119 214 100 119 214 100 119 214 100 119 214 101 119 214 101 119 214 101 119 214 101 119 214 101 119 214 101 119 214 101 119 214 101 119 214 101 119 214 101 119 214 101 119 214 101 119 214 101 119 214 101 119 214 101 119 214 101 119 214 101 119 214 101 119 214 101 120 214 101 120 214 101 120 214 101 120 214 101 120 214 102 120 214 102 120 214 102 120 214 102 120 214 102 120 214 102 120 214 102 120 214 102 120 214 102 120 214 102 120 214 102 120 214 102 120 214 102 120 214 102 120 214 102 120 214 102 120 214 102 120 214 102 120 214 102 120 214 102 120 214 102 120 214 102 120 214 103 121 214 103 121 214 103 121 214 103 121 214 103 121 214 103 121 214 103 121 214 103 121 214 103 121 215 103 121 215 103 121 215 103 121 215 103 121 215 103 121 215 103 121 215 103 121 215 103 121 215 104 121 215 104 121 215 104 121 215 104 122 215 104 122 215 104 122 215 104 122 215 104 122 215 104 122 215 104 122 215 104 122 215 104 122 215 104 122 215 104 122 215 104 122 215 104 122 215 104 122 215 105 122 215 105 122 215 105 122 215 105 122 215 105 122 215 105 122 215 105 123 215 105 123 215 105 123 215 105 123 215 105 123 215 105 123 215 105 123 215 105 123 215 106 123 215 106 123 215 106 123 215 106 123 215 106 123 215 106 123 215 106 123 215 106 123 215 106 123 215 106 123 215 106 124 215 106 124 215 106 124 215 106 124 215 106 124 215 106 124 215 107 124 215 107 124 215 107 124 215 107 124 215 107 124 215 107 124 215 107 124 215 107 124 215 107 124 215 107 124 215 107 125 215 107 125 215 108 125 216 108 125 216 108 125 216 107 125 215 107 125 215 107 125 215 108 125 215 108 125 215 
108 125 216 108 125 216 108 125 215 108 125 215 108 125 215 108 125 215 108 125 215 108 125 215 108 125 215 108 125 215 107 125 215 107 125 215 108 125 216 108 125 216 108 125 216 107 125 215 107 125 215 107 125 215 107 124 215 107 124 215 107 124 215 107 124 215 107 124 215 107 124 215 107 124 215 107 124 215 107 124 215 107 124 215 106 124 215 106 124 215 106 124 215 106 124 215 106 124 215 106 124 215 106 123 215 106 123 215 106 123 215 106 123 215 106 123 215 106 123 215 106 123 215 106 123 215 106 123 215 106 123 215 106 123 215 105 123 215 105 123 215 105 123 215 105 123 215 105 123 215 105 123 215 105 123 215 105 123 215 105 122 215 105 122 215 105 122 215 105 122 215 105 122 215 104 122 215 104 122 215 104 122 215 104 122 215 104 122 215 104 122 215 104 122 215 104 122 215 104 122 215 104 122 215 104 122 215 104 122 215 104 122 215 104 122 215 104 122 215 104 121 215 104 121 215 104 121 215 104 121 215 103 121 215 103 121 215 103 121 215 103 121 215 103 121 215 103 121 215 103 121 215 103 121 215 103 121 215 103 121 215 103 121 214 103 121 214 103 121 214 103 121 214 103 121 214 103 121 214 103 121 214 102 120 214 102 120 214 102 120 214 102 120 214 102 120 214 102 120 214 102 120 214 102 120 214 102 120 214 102 120 214 102 120 214 102 120 214 102 120 214 102 120 214 102 120 214 102 120 214 102 120 214 102 120 214 102 120 214 102 120 214 102 120 214 102 120 214 102 120 214 102 120 214 102 120 214 102 120 214 102 120 214 102 120 214 101 120 214 101 120 214 101 120 214 101 120 214 101 120 214 101 120 214 101 119 214 101 119 214 101 119 214 101 119 214 101 119 214 101 119 214 101 119 214 101 119 214 101 119 214 101 119 214 101 119 214 101 119 214 101 119 214 101 119 214 101 119 214 101 119 214 101 119 214 101 119 214 101 119 214 101 119 214 101 119 214 101 119 214 101 119 214 101 119 214 101 119 214 101 119 214 101 119 214 101 119 214 101 119 214 101 119 214 101 119 214 101 119 214 101 119 214 101 119 214 101 119 214 101 119 214 101 119 214 101 119 214 101 119 214 101 119 214 101 119 214 101 119 214 101 119 214 101 119 214 101 119 214 101 119 214 101 119 214 101 119 214 101 119 214 101 119 214 101 119 214 101 119 214 101 119 214 101 119 214 101 119 214 101 119 214 101 119 214 101 119 214 101 119 214 101 119 214 101 119 214 101 119 214 101 119 214 101 119 214 101 119 214 101 120 214 101 120 214 101 120 214 101 120 214 101 120 214 101 120 214 102 120 214 102 120 214 102 120 214 102 120 214 102 120 214 102 120 214 102 120 214 102 120 214 102 120 214 102 120 214 102 120 214 102 120 214 102 120 214 102 120 214 102 120 214 102 120 214 102 120 214 102 120 214 102 120 214 102 120 214 102 120 214 102 120 214 102 120 214 102 120 214 102 120 214 102 120 214 102 120 214 102 120 214 103 121 214 103 121 214 103 121 214 103 121 214 103 121 214 103 121 214 103 121 214 103 121 215 103 121 215 103 121 215 103 121 215 103 121 215 103 121 215 103 121 215 103 121 215 103 121 215 103 121 215 104 121 215 104 121 215 104 121 215 104 121 215 104 122 215 104 122 215 104 122 215 104 122 215 104 122 215 104 122 215 104 122 215 104 122 215 104 122 215 104 122 215 104 122 215 104 122 215 104 122 215 104 122 215 104 122 215 105 122 215 105 122 215 105 122 215 105 122 215 105 122 215 105 123 215 105 123 215 105 123 215 105 123 215 105 123 215 105 123 215 105 123 215 105 123 215 106 123 215 106 123 215 106 123 215 106 123 215 106 123 215 106 123 215 106 123 215 106 123 215 106 123 215 106 123 215 106 123 215 106 124 215 106 124 215 106 124 215 106 124 215 106 124 215 106 124 215 107 124 215 107 124 215 107 124 215 107 124 215 107 124 215 107 124 215 107 124 215 107 124 215 107 124 215 107 124 215 107 125 215 107 125 215 107 125 215 108 125 216 108 125 216 108 125 216 107 125 215 107 125 215 108 125 215 108 125 215 108 125 215 108 125 215 108 125 215 108 125 215 108 125 215 108 125 215 108 125 216 
109 126 216 109 126 216 109 126 216 109 126 216 108 126 216 108 126 216 108 125 216 108 125 216 108 125 216 108 125 215 108 125 215 108 125 215 108 125 215 108 125 215 108 125 215 108 125 215 108 125 215 107 125 215 107 125 215 108 125 216 108 125 216 108 125 216 107 125 215 107 125 215 107 125 215 107 124 215 107 124 215 107 124 215 107 124 215 107 124 215 107 124 215 107 124 215 107 124 215 107 124 215 107 124 215 107 124 215 106 124 215 106 124 215 106 124 215 106 124 215 106 124 215 106 123 215 106 123 215 106 123 215 106 123 215 106 123 215 106 123 215 106 123 215 106 123 215 106 123 215 106 123 215 106 123 215 105 123 215 105 123 215 105 123 215 105 123 215 105 123 215 105 123 215 105 123 215 105 123 215 105 123 215 105 122 215 105 122 215 105 122 215 105 122 215 105 122 215 105 122 215 104 122 215 104 122 215 104 122 215 104 122 215 104 122 215 104 122 215 104 122 215 104 122 215 104 122 215 104 122 215 104 122 215 104 122 215 104 122 215 104 122 215 104 122 215 104 122 215 104 121 215 104 121 215 104 121 215 104 121 215 103 121 215 103 121 215 103 121 215 103 121 215 103 121 215 103 121 215 103 121 215 103 121 215 103 121 215 103 121 215 103 121 215 103 121 214 103 121 214 103 121 214 103 121 214 103 121 214 103 121 214 103 121 214 103 121 214 102 120 214 102 120 214 102 120 214 102 120 214 102 120 214 102 120 214 102 120 214 102 120 214 102 120 214 102 120 214 102 120 214 102 120 214 102 120 214 102 120 214 102 120 214 102 120 214 102 120 214 102 120 214 102 120 214 102 120 214 102 120 214 102 120 214 102 120 214 102 120 214 102 120 214 102 120 214 102 120 214 102 120 214 102 120 214 102 120 214 102 120 214 102 120 214 102 120 214 102 120 214 102 120 214 102 120 214 102 120 214 102 120 214 102 120 214 102 120 214 102 120 214 102 120 214 101 120 214 101 120 214 101 120 214 101 120 214 101 120 214 101 120 214 101 120 214 101 120 214 101 120 214 101 120 214 101 120 214 101 120 214 101 120 214 101 120 214 101 120 214 101 120 214 101 120 214 101 120 214 101 120 214 101 120 214 101 120 214 101 120 214 101 120 214 101 120 214 101 120 214 102 120 214 102 120 214 102 120 214 102 120 214 102 120 214 102 120 214 102 120 214 102 120 214 102 120 214 102 120 214 102 120 214 102 120 214 102 120 214 102 120 214 102 120 214 102 120 214 102 120 214 102 120 214 102 120 214 102 120 214 102 120 214 102 120 214 102 120 214 102 120 214 102 120 214 102 120 214 102 120 214 102 120 214 102 120 214 102 120 214 102 120 214 102 120 214 102 120 214 102 120 214 102 120 214 102 120 214 102 120 214 102 120 214 102 120 214 102 120 214 102 120 214 102 120 214 103 121 214 103 121 214 103 121 214 103 121 214 103 121 214 103 121 214 103 121 214 103 121 214 103 121 215 103 121 215 103 121 215 103 121 215 103 121 215 103 121 215 103 121 215 103 121 215 103 121 215 103 121 215 103 121 215 104 121 215 104 121 215 104 121 215 104 121 215 104 122 215 104 122 215 104 122 215 104 122 215 104 122 215 104 122 215 104 122 215 104 122 215 104 122 215 104 122 215 104 122 215 104 122 215 104 122 215 104 122 215 104 122 215 104 122 215 105 122 215 105 122 215 105 122 215 105 122 215 105 122 215 105 122 215 105 123 215 105 123 215 105 123 215 105 123 215 105 123 215 105 123 215 105 123 215 105 123 215 105 123 215 106 123 215 106 123 215 106 123 215 106 123 215 106 123 215 106 123 215 106 123 215 106 123 215 106 123 215 106 123 215 106 123 215 106 124 215 106 124 215 106 124 215 106 124 215 106 124 215 107 124 215 107 124 215 107 124 215 107 124 215 107 124 215 107 124 215 107 124 215 107 124 215 107 124 215 107 124 215 107 124 215 107 125 215 107 125 215 107 125 215 108 125 216 108 125 216 108 125 216 107 125 215 107 125 215 108 125 215 108 125 215 108 125 215 108 125 215 108 125 215 108 125 215 108 125 215 108 125 215 108 125 216 108 125 216 108 125 216 108 126 216 108 126 216 109 126 216 109 126 216 109 126 216 
109 126 216 109 126 216 109 126 216 109 126 216 109 126 216 109 126 216 109 126 216 109 126 216 109 126 216 109 126 216 108 126 216 108 126 216 108 126 216 108 125 216 108 125 216 108 125 216 108 125 215 108 125 215 108 125 215 108 125 215 108 125 215 108 125 215 108 125 215 108 125 215 107 125 215 107 125 215 108 125 216 108 125 216 108 125 216 107 125 215 107 125 215 107 125 215 107 124 215 107 124 215 107 124 215 107 124 215 107 124 215 107 124 215 107 124 215 107 124 215 107 124 215 107 124 215 107 124 215 106 124 215 106 124 215 106 124 215 106 124 215 106 124 215 106 124 215 106 123 215 106 123 215 106 123 215 106 123 215 106 123 215 106 123 215 106 123 215 106 123 215 106 123 215 106 123 215 106 123 215 105 123 215 105 123 215 105 123 215 105 123 215 105 123 215 105 123 215 105 123 215 105 123 215 105 123 215 105 122 215 105 122 215 105 122 215 105 122 215 105 122 215 105 122 215 105 122 215 104 122 215 104 122 215 104 122 215 104 122 215 104 122 215 104 122 215 104 122 215 104 122 215 104 122 215 104 122 215 104 122 215 104 122 215 104 122 215 104 122 215 104 122 215 104 122 215 104 122 215 104 121 215 104 121 215 104 121 215 104 121 215 103 121 215 103 121 215 103 121 215 103 121 215 103 121 215 103 121 215 103 121 215 103 121 215 103 121 215 103 121 215 103 121 215 103 121 215 103 121 215 103 121 214 103 121 214 103 121 214 103 121 214 103 121 214 103 121 214 103 121 214 103 121 214 103 121 214 103 121 214 103 121 214 102 120 214 102 120 214 102 120 214 102 120 214 102 120 214 102 120 214 102 120 214 102 120 214 102 120 214 102 120 214 102 120 214 102 120 214 102 120 214 102 120 214 102 120 214 102 120 214 102 120 214 102 120 214 102 120 214 102 120 214 102 120 214 102 120 214 102 120 214 102 120 214 102 120 214 102 120 214 102 120 214 102 120 214 102 120 214 102 120 214 102 120 214 102 120 214 102 120 214 102 120 214 102 120 214 102 120 214 102 120 214 102 120 214 102 120 214 102 120 214 102 120 214 102 120 214 102 120 214 102 120 214 102 120 214 102 120 214 102 120 214 102 120 214 102 120 214 102 120 214 102 120 214 102 120 214 102 120 214 102 120 214 102 120 214 102 120 214 102 120 214 102 120 214 102 120 214 102 120 214 102 120 214 102 120 214 102 120 214 102 120 214 102 120 214 102 120 214 102 120 214 102 120 214 102 120 214 102 120 214 102 120 214 102 120 214 102 120 214 102 120 214 102 120 214 102 120 214 102 120 214 102 120 214 102 120 214 103 121 214 103 121 214 103 121 214 103 121 214 103 121 214 103 121 214 103 121 214 103 121 214 103 121 214 103 121 214 103 121 214 103 121 215 103 121 215 103 121 215 103 121 215 103 121 215 103 121 215 103 121 215 103 121 215 103 121 215 103 121 215 103 121 215 103 121 215 103 121 215 104 121 215 104 121 215 104 121 215 104 121 215 104 122 215 104 122 215 104 122 215 104 122 215 104 122 215 104 122 215 104 122 215 104 122 215 104 122 215 104 122 215 104 122 215 104 122 215 104 122 215 104 122 215 104 122 215 104 122 215 104 122 215 105 122 215 105 122 215 105 122 215 105 122 215 105 122 215 105 122 215 105 122 215 105 123 215 105 123 215 105 123 215 105 123 215 105 123 215 105 123 215 105 123 215 105 123 215 105 123 215 106 123 215 106 123 215 106 123 215 106 123 215 106 123 215 106 123 215 106 123 215 106 123 215 106 123 215 106 123 215 106 123 215 106 124 215 106 124 215 106 124 215 106 124 215 106 124 215 106 124 215 107 124 215 107 124 215 107 124 215 107 124 215 107 124 215 107 124 215 107 124 215 107 124 215 107 124 215 107 124 215 107 124 215 107 125 215 107 125 215 107 125 215 108 125 216 108 125 216 108 125 216 107 125 215 107 125 215 108 125 215 108 125 215 108 125 215 108 125 215 108 125 215 108 125 215 108 125 215 108 125 215 108 125 216 108 125 216 108 125 216 108 126 216 108 126 216 108 126 216 109 126 216 109 126 216 109 126 216 109 126 216 109 126 216 109 126 216 109 126 216 109 126 216 109 126 216 
110 127 216 109 126 216 109 126 216 109 126 216 109 126 216 109 126 216 109 126 216 109 126 216 109 126 216 109 126 216 109 126 216 109 126 216 109 126 216 109 126 216 109 126 216 109 126 216 109 126 216 109 126 216 108 126 216 108 126 216 108 125 216 108 125 216 108 125 216 108 125 215 108 125 215 108 125 215 108 125 215 108 125 215 108 125 215 108 125 215 108 125 215 107 125 215 107 125 215 107 125 215 108 125 216 108 125 216 108 125 216 107 125 215 107 125 215 107 125 215 107 124 215 107 124 215 107 124 215 107 124 215 107 124 215 107 124 215 107 124 215 107 124 215 107 124 215 107 124 215 107 124 215 106 124 215 106 124 215 106 124 215 106 124 215 106 124 215 106 124 215 106 123 215 106 123 215 106 123 215 106 123 215 106 123 215 106 123 215 106 123 215 106 123 215 106 123 215 106 123 215 106 123 215 106 123 215 105 123 215 105 123 215 105 123 215 105 123 215 105 123 215 105 123 215 105 123 215 105 123 215 105 123 215 105 123 215 105 122 215 105 122 215 105 122 215 105 122 215 105 122 215 105 122 215 105 122 215 104 122 215 104 122 215 104 122 215 104 122 215 104 122 215 104 122 215 104 122 215 104 122 215 104 122 215 104 122 215 104 122 215 104 122 215 104 122 215 104 122 215 104 122 215 104 122 215 104 122 215 104 122 215 104 122 215 104 121 215 104 121 215 104 121 215 104 121 215 104 121 215 103 121 215 103 121 215 103 121 215 103 121 215 103 121 215 103 121 215 103 121 215 103 121 215 103 121 215 103 121 215 103 121 215 103 121 215 103 121 215 103 121 215 103 121 215 103 121 215 103 121 215 103 121 215 103 121 214 103 121 214 103 121 214 103 121 214 103 121 214 103 121 214 103 121 214 103 121 214 103 121 214 103 121 214 103 121 214 103 121 214 103 121 214 103 121 214 103 121 214 103 121 214 103 121 214 103 121 214 103 121 214 103 121 214 102 120 214 102 120 214 102 120 214 102 120 214 102 120 214 102 120 214 102 120 214 102 120 214 102 120 214 102 120 214 102 120 214 102 120 214 102 120 214 102 120 214 102 120 214 102 120 214 102 120 214 102 120 214 102 120 214 102 120 214 102 120 214 102 120 214 102 120 214 102 120 214 102 120 214 103 121 214 103 121 214 103 121 214 103 121 214 103 121 214 103 121 214 103 121 214 103 121 214 103 121 214 103 121 214 103 121 214 103 121 214 103 121 214 103 121 214 103 121 214 103 121 214 103 121 214 103 121 214 103 121 214 103 121 214 103 121 215 103 121 215 103 121 215 103 121 215 103 121 215 103 121 215 103 121 215 103 121 215 103 121 215 103 121 215 103 121 215 103 121 215 103 121 215 103 121 215 103 121 215 103 121 215 103 121 215 103 121 215 104 121 215 104 121 215 104 121 215 104 121 215 104 121 215 104 122 215 104 122 215 104 122 215 104 122 215 104 122 215 104 122 215 104 122 215 104 122 215 104 122 215 104 122 215 104 122 215 104 122 215 104 122 215 104 122 215 104 122 215 104 122 215 104 122 215 104 122 215 104 122 215 105 122 215 105 122 215 105 122 215 105 122 215 105 122 215 105 122 215 105 122 215 105 123 215 105 123 215 105 123 215 105 123 215 105 123 215 105 123 215 105 123 215 105 123 215 105 123 215 105 123 215 106 123 215 106 123 215 106 123 215 106 123 215 106 123 215 106 123 215 106 123 215 106 123 215 106 123 215 106 123 215 106 123 215 106 123 215 106 124 215 106 124 215 106 124 215 106 124 215 106 124 215 106 124 215 107 124 215 107 124 215 107 124 215 107 124 215 107 124 215 107 124 215 107 124 215 107 124 215 107 124 215 107 124 215 107 124 215 107 125 215 107 125 215 107 125 215 108 125 216 108 125 216 108 125 216 107 125 215 107 125 215 107 125 215 108 125 215 108 125 215 108 125 215 108 125 215 108 125 215 108 125 215 108 125 215 108 125 215 108 125 216 108 125 216 108 125 216 108 126 216 108 126 216 109 126 216 109 126 216 109 126 216 109 126 216 109 126 216 109 126 216 109 126 216 109 126 216 109 126 216 109 126 216 109 126 216 109 126 216 109 126 216 109 126 216 109 126 216 109 126 216 109 126 216 
110 127 216 110 127 216 110 127 216 110 127 216 110 127 216 110 127 216 110 127 216 110 127 216 110 127 216 109 126 216 109 126 216 109 126 216 109 126 216 109 126 216 109 126 216 109 126 216 109 126 216 109 126 216 109 126 216 109 126 216 109 126 216 109 126 216 109 126 216 109 126 216 109 126 216 108 126 216 108 126 216 108 126 216 108 125 216 108 125 216 108 125 215 108 125 215 108 125 215 108 125 215 108 125 215 108 125 215 108 125 215 108 125 215 108 125 215 107 125 215 107 125 215 107 125 215 108 125 216 108 125 216 107 125 215 107 125 215 107 125 215 107 124 215 107 124 215 107 124 215 107 124 215 107 124 215 107 124 215 107 124 215 107 124 215 107 124 215 107 124 215 107 124 215 107 124 215 106 124 215 106 124 215 106 124 215 106 124 215 106 124 215 106 124 215 106 123 215 106 123 215 106 123 215 106 123 215 106 123 215 106 123 215 106 123 215 106 123 215 106 123 215 106 123 215 106 123 215 106 123 215 106 123 215 105 123 215 105 123 215 105 123 215 105 123 215 105 123 215 105 123 215 105 123 215 105 123 215 105 123 215 105 123 215 105 123 215 105 122 215 105 122 215 105 122 215 105 122 215 105 122 215 105 122 215 105 122 215 104 122 215 104 122 215 104 122 215 104 122 215 104 122 215 104 122 215 104 122 215 104 122 215 104 122 215 104 122 215 104 122 215 104 122 215 104 122 215 104 122 215 104 122 215 104 122 215 104 122 215 104 122 215 104 122 215 104 122 215 104 122 215 104 122 215 104 122 215 104 122 215 104 121 215 104 121 215 104 121 215 104 121 215 104 121 215 104 121 215 103 121 215 103 121 215 103 121 215 103 121 215 103 121 215 103 121 215 103 121 215 103 121 215 103 121 215 103 121 215 103 121 215 103 121 215 103 121 215 103 121 215 103 121 215 103 121 215 103 121 215 103 121 215 103 121 215 103 121 215 103 121 215 103 121 215 103 121 215 103 121 215 103 121 215 103 121 215 103 121 215 103 121 215 103 121 215 103 121 215 103 121 215 103 121 215 103 121 215 103 121 215 103 121 215 103 121 215 103 121 215 103 121 215 103 121 215 103 121 215 103 121 215 103 121 215 103 121 215 103 121 215 103 121 215 103 121 215 103 121 215 103 121 215 103 121 215 103 121 215 103 121 215 103 121 215 103 121 215 103 121 215 103 121 215 103 121 215 103 121 215 103 121 215 103 121 215 103 121 215 103 121 215 103 121 215 103 121 215 103 121 215 103 121 215 103 121 215 103 121 215 103 121 215 103 121 215 104 121 215 104 121 215 104 121 215 104 121 215 104 121 215 104 121 215 104 122 215 104 122 215 104 122 215 104 122 215 104 122 215 104 122 215 104 122 215 104 122 215 104 122 215 104 122 215 104 122 215 104 122 215 104 122 215 104 122 215 104 122 215 104 122 215 104 122 215 104 122 215 104 122 215 104 122 215 104 122 215 104 122 215 104 122 215 104 122 215 105 122 215 105 122 215 105 122 215 105 122 215 105 122 215 105 122 215 105 122 215 105 123 215 105 123 215 105 123 215 105 123 215 105 123 215 105 123 215 105 123 215 105 123 215 105 123 215 105 123 215 105 123 215 106 123 215 106 123 215 106 123 215 106 123 215 106 123 215 106 123 215 106 123 215 106 123 215 106 123 215 106 123 215 106 123 215 106 123 215 106 123 215 106 124 215 106 124 215 106 124 215 106 124 215 106 124 215 106 124 215 107 124 215 107 124 215 107 124 215 107 124 215 107 124 215 107 124 215 107 124 215 107 124 215 107 124 215 107 124 215 107 124 215 107 124 215 107 125 215 107 125 215 107 125 215 108 125 216 108 125 216 107 125 215 107 125 215 107 125 215 108 125 215 108 125 215 108 125 215 108 125 215 108 125 215 108 125 215 108 125 215 108 125 215 108 125 215 108 125 216 108 125 216 108 126 216 108 126 216 108 126 216 109 126 216 109 126 216 109 126 216 109 126 216 109 126 216 109 126 216 109 126 216 109 126 216 109 126 216 109 126 216 109 126 216 109 126 216 109 126 216 109 126 216 109 126 216 109 126 216 110 127 216 110 127 216 110 127 216 110 127 216 110 127 216 110 127 216 110 127 216 110 127 216 
111 128 216 111 128 216 110 127 216 110 127 216 110 127 216 110 127 216 110 127 216 110 127 216 110 127 216 110 127 216 110 127 216 110 127 216 110 127 216 110 127 216 110 127 216 110 127 216 109 126 216 109 126 216 109 126 216 109 126 216 109 126 216 109 126 216 109 126 216 109 126 216 109 126 216 109 126 216 109 126 216 109 126 216 109 126 216 109 126 216 109 126 216 109 126 216 108 126 216 108 126 216 108 126 216 108 125 216 108 125 216 108 125 216 108 125 215 108 125 215 108 125 215 108 125 215 108 125 215 108 125 215 108 125 215 108 125 215 108 125 215 107 125 215 107 125 215 108 125 216 108 125 216 108 125 216 108 125 216 107 125 215 107 125 215 107 124 215 107 124 215 107 124 215 107 124 215 107 124 215 107 124 215 107 124 215 107 124 215 107 124 215 107 124 215 107 124 215 107 124 215 107 124 215 106 124 215 106 124 215 106 124 215 106 124 215 106 124 215 106 124 215 106 123 215 106 123 215 106 123 215 106 123 215 106 123 215 106 123 215 106 123 215 106 123 215 106 123 215 106 123 215 106 123 215 106 123 215 106 123 215 106 123 215 105 123 215 105 123 215 105 123 215 105 123 215 105 123 215 105 123 215 105 123 215 105 123 215 105 123 215 105 123 215 105 123 215 105 123 215 105 122 215 105 122 215 105 122 215 105 122 215 105 122 215 105 122 215 105 122 215 105 122 215 105 122 215 104 122 215 104 122 215 104 122 215 104 122 215 104 122 215 104 122 215 104 122 215 104 122 215 104 122 215 104 122 215 104 122 215 104 122 215 104 122 215 104 122 215 104 122 215 104 122 215 104 122 215 104 122 215 104 122 215 104 122 215 104 122 215 104 122 215 104 122 215 104 122 215 104 122 215 104 122 215 104 122 215 104 122 215 104 122 215 104 122 215 104 122 215 104 122 215 104 122 215 104 122 215 104 122 215 104 122 215 104 121 215 104 121 215 104 121 215 104 121 215 104 121 215 104 121 215 104 121 215 104 121 215 104 121 215 104 121 215 104 121 215 104 121 215 104 121 215 104 121 215 104 121 215 104 121 215 104 121 215 104 121 215 104 121 215 104 121 215 104 121 215 104 121 215 104 121 215 104 121 215 104 121 215 104 121 215 104 121 215 104 121 215 104 121 215 104 121 215 104 121 215 104 122 215 104 122 215 104 122 215 104 122 215 104 122 215 104 122 215 104 122 215 104 122 215 104 122 215 104 122 215 104 122 215 104 122 215 104 122 215 104 122 215 104 122 215 104 122 215 104 122 215 104 122 215 104 122 215 104 122 215 104 122 215 104 122 215 104 122 215 104 122 215 104 122 215 104 122 215 104 122 215 104 122 215 104 122 215 104 122 215 104 122 215 104 122 215 104 122 215 104 122 215 104 122 215 104 122 215 105 122 215 105 122 215 105 122 215 105 122 215 105 122 215 105 122 215 105 122 215 105 122 215 105 122 215 105 123 215 105 123 215 105 123 215 105 123 215 105 123 215 105 123 215 105 123 215 105 123 215 105 123 215 105 123 215 105 123 215 105 123 215 106 123 215 106 123 215 106 123 215 106 123 215 106 123 215 106 123 215 106 123 215 106 123 215 106 123 215 106 123 215 106 123 215 106 123 215 106 123 215 106 123 215 106 124 215 106 124 215 106 124 215 106 124 215 106 124 215 106 124 215 107 124 215 107 124 215 107 124 215 107 124 215 107 124 215 107 124 215 107 124 215 107 124 215 107 124 215 107 124 215 107 124 215 107 124 215 107 124 215 107 125 215 107 125 215 108 125 216 108 125 216 108 125 216 108 125 216 107 125 215 107 125 215 108 125 215 108 125 215 108 125 215 108 125 215 108 125 215 108 125 215 108 125 215 108 125 215 108 125 215 108 125 216 108 125 216 108 125 216 108 126 216 108 126 216 108 126 216 109 126 216 109 126 216 109 126 216 109 126 216 109 126 216 109 126 216 109 126 216 109 126 216 109 126 216 109 126 216 109 126 216 109 126 216 109 126 216 109 126 216 109 126 216 109 126 216 110 127 216 110 127 216 110 127 216 110 127 216 110 127 216 110 127 216 110 127 216 110 127 216 110 127 216 110 127 216 110 127 216 110 127 216 110 127 216 110 127 216 111 128 216 
111 128 216 111 128 217 111 128 217 111 128 217 111 128 216 111 128 216 111 128 216 111 128 216 111 128 216 110 127 216 110 127 216 110 127 216 110 127 216 110 127 216 110 127 216 110 127 216 110 127 216 110 127 216 110 127 216 110 127 216 110 127 216 110 127 216 110 127 216 109 126 216 109 126 216 109 126 216 109 126 216 109 126 216 109 126 216 109 126 216 109 126 216 109 126 216 109 126 216 109 126 216 109 126 216 109 126 216 109 126 216 109 126 216 109 126 216 109 126 216 109 126 216 108 126 216 108 126 216 108 126 216 108 125 216 108 125 216 108 125 215 108 125 215 108 125 215 108 125 215 108 125 215 108 125 215 108 125 215 108 125 215 108 125 215 107 125 215 107 125 215 107 125 215 108 125 216 108 125 216 108 125 216 107 125 215 107 125 215 107 125 215 107 124 215 107 124 215 107 124 215 107 124 215 107 124 215 107 124 215 107 124 215 107 124 215 107 124 215 107 124 215 107 124 215 107 124 215 107 124 215 107 124 215 106 124 215 106 124 215 106 124 215 106 124 215 106 124 215 106 124 215 106 124 215 106 123 215 106 123 215 106 123 215 106 123 215 106 123 215 106 123 215 106 123 215 106 123 215 106 123 215 106 123 215 106 123 215 106 123 215 106 123 215 106 123 215 106 123 215 106 123 215 105 123 215 105 123 215 105 123 215 105 123 215 105 123 215 105 123 215 105 123 215 105 123 215 105 123 215 105 123 215 105 123 215 105 123 215 105 123 215 105 123 215 105 122 215 105 122 215 105 122 215 105 122 215 105 122 215 105 122 215 105 122 215 105 122 215 105 122 215 105 122 215 105 122 215 105 122 215 104 122 215 104 122 215 104 122 215 104 122 215 104 122 215 104 122 215 104 122 215 104 122 215 104 122 215 104 122 215 104 122 215 104 122 215 104 122 215 104 122 215 104 122 215 104 122 215 104 122 215 104 122 215 104 122 215 104 122 215 104 122 215 104 122 215 104 122 215 104 122 215 104 122 215 104 122 215 104 122 215 104 122 215 104 122 215 104 122 215 104 122 215 104 122 215 104 122 215 104 122 215 104 122 215 104 122 215 104 122 215 104 122 215 104 122 215 104 122 215 104 122 215 104 122 215 104 122 215 104 122 215 104 122 215 104 122 215 104 122 215 104 122 215 104 122 215 104 122 215 104 122 215 104 122 215 104 122 215 104 122 215 104 122 215 104 122 215 104 122 215 104 122 215 104 122 215 104 122 215 104 122 215 104 122 215 104 122 215 104 122 215 104 122 215 104 122 215 104 122 215 105 122 215 105 122 215 105 122 215 105 122 215 105 122 215 105 122 215 105 122 215 105 122 215 105 122 215 105 122 215 105 122 215 105 122 215 105 123 215 105 123 215 105 123 215 105 123 215 105 123 215 105 123 215 105 123 215 105 123 215 105 123 215 105 123 215 105 123 215 105 123 215 105 123 215 105 123 215 106 123 215 106 123 215 106 123 215 106 123 215 106 123 215 106 123 215 106 123 215 106 123 215 106 123 215 106 123 215 106 123 215 106 123 215 106 123 215 106 123 215 106 123 215 106 123 215 106 124 215 106 124 215 106 124 215 106 124 215 106 124 215 106 124 215 106 124 215 107 124 215 107 124 215 107 124 215 107 124 215 107 124 215 107 124 215 107 124 215 107 124 215 107 124 215 107 124 215 107 124 215 107 124 215 107 124 215 107 124 215 107 125 215 107 125 215 107 125 215 108 125 216 108 125 216 108 125 216 107 125 215 107 125 215 107 125 215 108 125 215 108 125 215 108 125 215 108 125 215 108 125 215 108 125 215 108 125 215 108 125 215 108 125 215 108 125 216 108 125 216 108 126 216 108 126 216 108 126 216 109 126 216 109 126 216 109 126 216 109 126 216 109 126 216 109 126 216 109 126 216 109 126 216 109 126 216 109 126 216 109 126 216 109 126 216 109 126 216 109 126 216 109 126 216 109 126 216 109 126 216 109 126 216 110 127 216 110 127 216 110 127 216 110 127 216 110 127 216 110 127 216 110 127 216 110 127 216 110 127 216 110 127 216 110 127 216 110 127 216 110 127 216 110 127 216 111 128 216 111 128 216 111 128 216 111 128 216 111 128 216 111 128 217 111 128 217 111 128 217 
111 128 216 111 128 216 111 128 216 111 128 216 111 128 216 111 128 216 111 128 216 111 128 216 111 128 217 111 128 217 111 128 217 111 128 216 111 128 216 111 128 216 111 128 216 111 128 216 111 128 216 110 127 216 110 127 216 110 127 216 110 127 216 110 127 216 110 127 216 110 127 216 110 127 216 110 127 216 110 127 216 110 127 216 110 127 216 110 127 216 110 127 216 109 126 216 109 126 216 109 126 216 109 126 216 109 126 216 109 126 216 109 126 216 109 126 216 109 126 216 109 126 216 109 126 216 109 126 216 109 126 216 109 126 216 109 126 216 109 126 216 109 126 216 109 126 216 108 126 216 108 126 216 108 125 216 108 125 216 108 125 216 108 125 216 108 125 215 108 125 215 108 125 215 108 125 215 108 125 215 108 125 215 108 125 215 108 125 215 108 125 215 107 125 215 107 125 215 107 125 215 108 125 216 108 125 216 108 125 216 107 125 215 107 125 215 107 125 215 107 125 215 107 124 215 107 124 215 107 124 215 107 124 215 107 124 215 107 124 215 107 124 215 107 124 215 107 124 215 107 124 215 107 124 215 107 124 215 107 124 215 107 124 215 106 124 215 106 124 215 106 124 215 106 124 215 106 124 215 106 124 215 106 124 215 106 124 215 106 123 215 106 123 215 106 123 215 106 123 215 106 123 215 106 123 215 106 123 215 106 123 215 106 123 215 106 123 215 106 123 215 106 123 215 106 123 215 106 123 215 106 123 215 106 123 215 106 123 215 106 123 215 105 123 215 105 123 215 105 123 215 105 123 215 105 123 215 105 123 215 105 123 215 105 123 215 105 123 215 105 123 215 105 123 215 105 123 215 105 123 215 105 123 215 105 123 215 105 123 215 105 123 215 105 123 215 105 123 215 105 123 215 105 123 215 105 122 215 105 122 215 105 122 215 105 122 215 105 122 215 105 122 215 105 122 215 105 122 215 105 122 215 105 122 215 105 122 215 105 122 215 105 122 215 105 122 215 105 122 215 105 122 215 105 122 215 105 122 215 105 122 215 105 122 215 105 122 215 105 122 215 105 122 215 105 122 215 105 122 215 105 122 215 105 122 215 105 122 215 105 122 215 105 122 215 105 122 215 105 122 215 105 122 215 105 122 215 105 122 215 105 122 215 105 122 215 105 122 215 105 122 215 105 122 215 105 122 215 105 122 215 105 122 215 105 122 215 105 122 215 105 122 215 105 122 215 105 122 215 105 122 215 105 122 215 105 122 215 105 123 215 105 123 215 105 123 215 105 123 215 105 123 215 105 123 215 105 123 215 105 123 215 105 123 215 105 123 215 105 123 215 105 123 215 105 123 215 105 123 215 105 123 215 105 123 215 105 123 215 105 123 215 105 123 215 105 123 215 105 123 215 106 123 215 106 123 215 106 123 215 106 123 215 106 123 215 106 123 215 106 123 215 106 123 215 106 123 215 106 123 215 106 123 215 106 123 215 106 123 215 106 123 215 106 123 215 106 123 215 106 123 215 106 123 215 106 124 215 106 124 215 106 124 215 106 124 215 106 124 215 106 124 215 106 124 215 106 124 215 107 124 215 107 124 215 107 124 215 107 124 215 107 124 215 107 124 215 107 124 215 107 124 215 107 124 215 107 124 215 107 124 215 107 124 215 107 124 215 107 124 215 107 125 215 107 125 215 107 125 215 107 125 215 108 125 216 108 125 216 108 125 216 107 125 215 107 125 215 107 125 215 108 125 215 108 125 215 108 125 215 108 125 215 108 125 215 108 125 215 108 125 215 108 125 215 108 125 215 108 125 216 108 125 216 108 125 216 108 125 216 108 126 216 108 126 216 109 126 216 109 126 216 109 126 216 109 126 216 109 126 216 109 126 216 109 126 216 109 126 216 109 126 216 109 126 216 109 126 216 109 126 216 109 126 216 109 126 216 109 126 216 109 126 216 109 126 216 109 126 216 110 127 216 110 127 216 110 127 216 110 127 216 110 127 216 110 127 216 110 127 216 110 127 216 110 127 216 110 127 216 110 127 216 110 127 216 110 127 216 110 127 216 111 128 216 111 128 216 111 128 216 111 128 216 111 128 216 111 128 216 111 128 217 111 128 217 111 128 217 111 128 216 111 128 216 111 128 216 111 128 216 111 128 216 111 128 216 111 128 216 
112 129 217 112 129 217 112 129 217 112 129 217 112 129 217 112 128 216 112 128 216 112 128 216 111 128 216 111 128 216 111 128 216 111 128 216 111 128 216 111 128 216 111 128 216 111 128 216 111 128 217 111 128 217 111 128 217 111 128 216 111 128 216 111 128 216 111 128 216 111 128 216 111 128 216 110 127 216 110 127 216 110 127 216 110 127 216 110 127 216 110 127 216 110 127 216 110 127 216 110 127 216 110 127 216 110 127 216 110 127 216 110 127 216 110 127 216 110 127 216 109 126 216 109 126 216 109 126 216 109 126 216 109 126 216 109 126 216 109 126 216 109 126 216 109 126 216 109 126 216 109 126 216 109 126 216 109 126 216 109 126 216 109 126 216 109 126 216 109 126 216 108 126 216 108 126 216 108 126 216 108 126 216 108 125 216 108 125 216 108 125 216 108 125 215 108 125 215 108 125 215 108 125 215 108 125 215 108 125 215 108 125 215 108 125 215 108 125 215 108 125 215 107 125 215 107 125 215 107 125 215 108 125 216 108 125 216 108 125 216 108 125 216 107 125 215 107 125 215 107 125 215 107 124 215 107 124 215 107 124 215 107 124 215 107 124 215 107 124 215 107 124 215 107 124 215 107 124 215 107 124 215 107 124 215 107 124 215 107 124 215 107 124 215 107 124 215 107 124 215 107 124 215 106 124 215 106 124 215 106 124 215 106 124 215 106 124 215 106 124 215 106 124 215 106 124 215 106 124 215 106 123 215 106 123 215 106 123 215 106 123 215 106 123 215 106 123 215 106 123 215 106 123 215 106 123 215 106 123 215 106 123 215 106 123 215 106 123 215 106 123 215 106 123 215 106 123 215 106 123 215 106 123 215 106 123 215 106 123 215 106 123 215 106 123 215 106 123 215 106 123 215 106 123 215 106 123 215 106 123 215 105 123 215 105 123 215 105 123 215 105 123 215 105 123 215 105 123 215 105 123 215 105 123 215 105 123 215 105 123 215 105 123 215 105 123 215 105 123 215 105 123 215 105 123 215 105 123 215 105 123 215 105 123 215 105 123 215 105 123 215 105 123 215 105 123 215 105 123 215 105 123 215 105 123 215 105 123 215 105 123 215 105 123 215 105 123 215 105 123 215 105 123 215 105 123 215 105 123 215 105 123 215 105 123 215 105 123 215 105 123 215 105 123 215 105 123 215 105 123 215 105 123 215 105 123 215 105 123 215 105 123 215 105 123 215 105 123 215 105 123 215 106 123 215 106 123 215 106 123 215 106 123 215 106 123 215 106 123 215 106 123 215 106 123 215 106 123 215 106 123 215 106 123 215 106 123 215 106 123 215 106 123 215 106 123 215 106 123 215 106 123 215 106 123 215 106 123 215 106 123 215 106 123 215 106 123 215 106 123 215 106 123 215 106 123 215 106 123 215 106 123 215 106 124 215 106 124 215 106 124 215 106 124 215 106 124 215 106 124 215 106 124 215 106 124 215 106 124 215 107 124 215 107 124 215 107 124 215 107 124 215 107 124 215 107 124 215 107 124 215 107 124 215 107 124 215 107 124 215 107 124 215 107 124 215 107 124 215 107 124 215 107 124 215 107 124 215 107 124 215 107 125 215 107 125 215 107 125 215 108 125 216 108 125 216 108 125 216 108 125 216 107 125 215 107 125 215 107 125 215 108 125 215 108 125 215 108 125 215 108 125 215 108 125 215 108 125 215 108 125 215 108 125 215 108 125 215 108 125 215 108 125 216 108 125 216 108 125 216 108 126 216 108 126 216 108 126 216 108 126 216 109 126 216 109 126 216 109 126 216 109 126 216 109 126 216 109 126 216 109 126 216 109 126 216 109 126 216 109 126 216 109 126 216 109 126 216 109 126 216 109 126 216 109 126 216 109 126 216 109 126 216 110 127 216 110 127 216 110 127 216 110 127 216 110 127 216 110 127 216 110 127 216 110 127 216 110 127 216 110 127 216 110 127 216 110 127 216 110 127 216 110 127 216 110 127 216 111 128 216 111 128 216 111 128 216 111 128 216 111 128 216 111 128 216 111 128 217 111 128 217 111 128 217 111 128 216 111 128 216 111 128 216 111 128 216 111 128 216 111 128 216 111 128 216 111 128 216 112 128 216 112 128 216 112 128 216 112 129 217 112 129 217 112 129 217 112 129 217 
113 129 217 112 129 217 112 129 217 112 129 217 112 129 217 112 129 217 112 129 217 112 129 217 112 129 217 112 129 217 112 129 217 112 129 217 112 129 217 112 128 216 112 128 216 111 128 216 111 128 216 111 128 216 111 128 216 111 128 216 111 128 216 111 128 216 111 128 216 111 128 216 111 128 217 111 128 217 111 128 217 111 128 216 111 128 216 111 128 216 111 128 216 111 128 216 111 128 216 110 127 216 110 127 216 110 127 216 110 127 216 110 127 216 110 127 216 110 127 216 110 127 216 110 127 216 110 127 216 110 127 216 110 127 216 110 127 216 110 127 216 110 127 216 109 126 216 109 126 216 109 126 216 109 126 216 109 126 216 109 126 216 109 126 216 109 126 216 109 126 216 109 126 216 109 126 216 109 126 216 109 126 216 109 126 216 109 126 216 109 126 216 109 126 216 109 126 216 109 126 216 108 126 216 108 126 216 108 126 216 108 125 216 108 125 216 108 125 216 108 125 216 108 125 215 108 125 215 108 125 215 108 125 215 108 125 215 108 125 215 108 125 215 108 125 215 108 125 215 108 125 215 108 125 215 107 125 215 107 125 215 107 125 215 108 125 216 108 125 216 108 125 216 108 125 216 107 125 215 107 125 215 107 125 215 107 125 215 107 125 215 107 124 215 107 124 215 107 124 215 107 124 215 107 124 215 107 124 215 107 124 215 107 124 215 107 124 215 107 124 215 107 124 215 107 124 215 107 124 215 107 124 215 107 124 215 107 124 215 107 124 215 107 124 215 107 124 215 106 124 215 106 124 215 106 124 215 106 124 215 106 124 215 106 124 215 106 124 215 106 124 215 106 124 215 106 124 215 106 124 215 106 124 215 106 124 215 106 123 215 106 123 215 106 123 215 106 123 215 106 123 215 106 123 215 106 123 215 106 123 215 106 123 215 106 123 215 106 123 215 106 123 215 106 123 215 106 123 215 106 123 215 106 123 215 106 123 215 106 123 215 106 123 215 106 123 215 106 123 215 106 123 215 106 123 215 106 123 215 106 123 215 106 123 215 106 123 215 106 123 215 106 123 215 106 123 215 106 123 215 106 123 215 106 123 215 106 123 215 106 123 215 106 123 215 106 123 215 106 123 215 106 123 215 106 123 215 106 123 215 106 123 215 106 123 215 106 123 215 106 123 215 106 123 215 106 123 215 106 123 215 106 123 215 106 123 215 106 123 215 106 123 215 106 123 215 106 123 215 106 123 215 106 123 215 106 123 215 106 123 215 106 123 215 106 123 215 106 123 215 106 123 215 106 123 215 106 124 215 106 124 215 106 124 215 106 124 215 106 124 215 106 124 215 106 124 215 106 124 215 106 124 215 106 124 215 106 124 215 106 124 215 106 124 215 107 124 215 107 124 215 107 124 215 107 124 215 107 124 215 107 124 215 107 124 215 107 124 215 107 124 215 107 124 215 107 124 215 107 124 215 107 124 215 107 124 215 107 124 215 107 124 215 107 124 215 107 124 215 107 124 215 107 125 215 107 125 215 107 125 215 107 125 215 107 125 215 108 125 216 108 125 216 108 125 216 108 125 216 107 125 215 107 125 215 107 125 215 108 125 215 108 125 215 108 125 215 108 125 215 108 125 215 108 125 215 108 125 215 108 125 215 108 125 215 108 125 215 108 125 215 108 125 216 108 125 216 108 125 216 108 125 216 108 126 216 108 126 216 108 126 216 109 126 216 109 126 216 109 126 216 109 126 216 109 126 216 109 126 216 109 126 216 109 126 216 109 126 216 109 126 216 109 126 216 109 126 216 109 126 216 109 126 216 109 126 216 109 126 216 109 126 216 109 126 216 109 126 216 110 127 216 110 127 216 110 127 216 110 127 216 110 127 216 110 127 216 110 127 216 110 127 216 110 127 216 110 127 216 110 127 216 110 127 216 110 127 216 110 127 216 110 127 216 111 128 216 111 128 216 111 128 216 111 128 216 111 128 216 111 128 216 111 128 217 111 128 217 111 128 217 111 128 216 111 128 216 111 128 216 111 128 216 111 128 216 111 128 216 111 128 216 111 128 216 111 128 216 112 128 216 112 128 216 112 129 217 112 129 217 112 129 217 112 129 217 112 129 217 112 129 217 112 129 217 112 129 217 112 129 217 112 129 217 112 129 217 112 129 217 
113 130 217 113 129 217 113 129 217 113 130 217 113 130 217 113 130 217 113 129 217 113 129 217 113 129 217 112 129 217 112 129 217 112 129 217 112 129 217 112 129 217 112 129 217 112 129 217 112 129 217 112 129 217 112 129 217 112 129 217 112 129 217 112 128 216 112 128 216 112 128 216 111 128 216 111 128 216 111 128 216 111 128 216 111 128 216 111 128 216 111 128 216 111 128 216 111 128 216 111 128 217 111 128 217 111 128 217 111 128 216 111 128 216 111 128 216 111 128 216 111 128 216 111 128 216 110 127 216 110 127 216 110 127 216 110 127 216 110 127 216 110 127 216 110 127 216 110 127 216 110 127 216 110 127 216 110 127 216 110 127 216 110 127 216 110 127 216 110 127 216 109 126 216 109 126 216 109 126 216 109 126 216 109 126 216 109 126 216 109 126 216 109 126 216 109 126 216 109 126 216 109 126 216 109 126 216 109 126 216 109 126 216 109 126 216 109 126 216 109 126 216 109 126 216 109 126 216 109 126 216 109 126 216 108 126 216 108 126 216 108 126 216 108 125 216 108 125 216 108 125 216 108 125 216 108 125 215 108 125 215 108 125 215 108 125 215 108 125 215 108 125 215 108 125 215 108 125 215 108 125 215 108 125 215 108 125 215 108 125 215 107 125 215 107 125 215 107 125 215 107 125 215 108 125 216 108 125 216 108 125 216 108 125 216 108 125 216 107 125 215 107 125 215 107 125 215 107 125 215 107 125 215 107 124 215 107 124 215 107 124 215 107 124 215 107 124 215 107 124 215 107 124 215 107 124 215 107 124 215 107 124 215 107 124 215 107 124 215 107 124 215 107 124 215 107 124 215 107 124 215 107 124 215 107 124 215 107 124 215 107 124 215 107 124 215 107 124 215 107 124 215 107 124 215 107 124 215 107 124 215 107 124 215 107 124 215 107 124 215 107 124 215 106 124 215 106 124 215 106 124 215 106 124 215 106 124 215 106 124 215 106 124 215 106 124 215 106 124 215 106 124 215 106 124 215 106 124 215 106 124 215 106 124 215 106 124 215 106 124 215 106 124 215 106 124 215 106 124 215 106 124 215 106 124 215 106 124 215 106 124 215 106 124 215 106 124 215 106 124 215 106 124 215 106 124 215 106 124 215 106 124 215 106 124 215 106 124 215 106 124 215 106 124 215 106 124 215 106 124 215 106 124 215 106 124 215 106 124 215 107 124 215 107 124 215 107 124 215 107 124 215 107 124 215 107 124 215 107 124 215 107 124 215 107 124 215 107 124 215 107 124 215 107 124 215 107 124 215 107 124 215 107 124 215 107 124 215 107 124 215 107 124 215 107 124 215 107 124 215 107 124 215 107 124 215 107 124 215 107 124 215 107 124 215 107 124 215 107 124 215 107 124 215 107 124 215 107 124 215 107 125 215 107 125 215 107 125 215 107 125 215 107 125 215 108 125 216 108 125 216 108 125 216 108 125 216 108 125 216 107 125 215 107 125 215 107 125 215 107 125 215 108 125 215 108 125 215 108 125 215 108 125 215 108 125 215 108 125 215 108 125 215 108 125 215 108 125 215 108 125 215 108 125 215 108 125 215 108 125 216 108 125 216 108 125 216 108 125 216 108 126 216 108 126 216 108 126 216 109 126 216 109 126 216 109 126 216 109 126 216 109 126 216 109 126 216 109 126 216 109 126 216 109 126 216 109 126 216 109 126 216 109 126 216 109 126 216 109 126 216 109 126 216 109 126 216 109 126 216 109 126 216 109 126 216 109 126 216 109 126 216 110 127 216 110 127 216 110 127 216 110 127 216 110 127 216 110 127 216 110 127 216 110 127 216 110 127 216 110 127 216 110 127 216 110 127 216 110 127 216 110 127 216 110 127 216 111 128 216 111 128 216 111 128 216 111 128 216 111 128 216 111 128 216 111 128 217 111 128 217 111 128 217 111 128 216 111 128 216 111 128 216 111 128 216 111 128 216 111 128 216 111 128 216 111 128 216 111 128 216 112 128 216 112 128 216 112 128 216 112 129 217 112 129 217 112 129 217 112 129 217 112 129 217 112 129 217 112 129 217 112 129 217 112 129 217 112 129 217 112 129 217 112 129 217 113 129 217 113 129 217 113 129 217 113 130 217 113 130 217 113 130 217 113 129 217 113 129 217 
113 130 217 113 130 217 113 130 217 113 130 217 113 130 217 113 130 217 113 130 217 113 130 217 113 129 217 113 129 217 113 129 217 113 130 217 113 130 217 113 130 217 113 129 217 113 129 217 113 129 217 112 129 217 112 129 217 112 129 217 112 129 217 112 129 217 112 129 217 112 129 217 112 129 217 112 129 217 112 129 217 112 129 217 112 129 217 112 128 216 112 128 216 112 128 216 111 128 216 111 128 216 111 128 216 111 128 216 111 128 216 111 128 216 111 128 216 111 128 216 111 128 216 111 128 217 111 128 217 111 128 217 111 128 216 111 128 216 111 128 216 111 128 216 111 128 216 111 128 216 111 128 216 110 127 216 110 127 216 110 127 216 110 127 216 110 127 216 110 127 216 110 127 216 110 127 216 110 127 216 110 127 216 110 127 216 110 127 216 110 127 216 110 127 216 110 127 216 110 127 216 109 126 216 109 126 216 109 126 216 109 126 216 109 126 216 109 126 216 109 126 216 109 126 216 109 126 216 109 126 216 109 126 216 109 126 216 109 126 216 109 126 216 109 126 216 109 126 216 109 126 216 109 126 216 109 126 216 109 126 216 109 126 216 109 126 216 108 126 216 108 126 216 108 126 216 108 126 216 108 125 216 108 125 216 108 125 216 108 125 216 108 125 215 108 125 215 108 125 215 108 125 215 108 125 215 108 125 215 108 125 215 108 125 215 108 125 215 108 125 215 108 125 215 108 125 215 108 125 215 108 125 215 108 125 215 107 125 215 107 125 215 107 125 215 107 125 215 107 125 215 108 125 216 108 125 216 108 125 216 108 125 216 108 125 216 108 125 216 107 125 215 107 125 215 107 125 215 107 125 215 107 125 215 107 125 215 107 125 215 107 125 215 107 125 215 107 124 215 107 124 215 107 124 215 107 124 215 107 124 215 107 124 215 107 124 215 107 124 215 107 124 215 107 124 215 107 124 215 107 124 215 107 124 215 107 124 215 107 124 215 107 124 215 107 124 215 107 124 215 107 124 215 107 124 215 107 124 215 107 124 215 107 124 215 107 124 215 107 124 215 107 124 215 107 124 215 107 124 215 107 124 215 107 124 215 107 124 215 107 124 215 107 124 215 107 124 215 107 124 215 107 124 215 107 124 215 107 124 215 107 124 215 107 124 215 107 124 215 107 124 215 107 124 215 107 124 215 107 124 215 107 124 215 107 124 215 107 124 215 107 124 215 107 124 215 107 124 215 107 124 215 107 124 215 107 124 215 107 124 215 107 124 215 107 124 215 107 125 215 107 125 215 107 125 215 107 125 215 107 125 215 107 125 215 107 125 215 107 125 215 107 125 215 108 125 216 108 125 216 108 125 216 108 125 216 108 125 216 108 125 216 107 125 215 107 125 215 107 125 215 107 125 215 107 125 215 108 125 215 108 125 215 108 125 215 108 125 215 108 125 215 108 125 215 108 125 215 108 125 215 108 125 215 108 125 215 108 125 215 108 125 215 108 125 215 108 125 215 108 125 215 108 125 216 108 125 216 108 125 216 108 125 216 108 126 216 108 126 216 108 126 216 108 126 216 109 126 216 109 126 216 109 126 216 109 126 216 109 126 216 109 126 216 109 126 216 109 126 216 109 126 216 109 126 216 109 126 216 109 126 216 109 126 216 109 126 216 109 126 216 109 126 216 109 126 216 109 126 216 109 126 216 109 126 216 109 126 216 109 126 216 110 127 216 110 127 216 110 127 216 110 127 216 110 127 216 110 127 216 110 127 216 110 127 216 110 127 216 110 127 216 110 127 216 110 127 216 110 127 216 110 127 216 110 127 216 110 127 216 111 128 216 111 128 216 111 128 216 111 128 216 111 128 216 111 128 216 111 128 216 111 128 217 111 128 217 111 128 217 111 128 216 111 128 216 111 128 216 111 128 216 111 128 216 111 128 216 111 128 216 111 128 216 111 128 216 112 128 216 112 128 216 112 128 216 112 129 217 112 129 217 112 129 217 112 129 217 112 129 217 112 129 217 112 129 217 112 129 217 112 129 217 112 129 217 112 129 217 112 129 217 113 129 217 113 129 217 113 129 217 113 130 217 113 130 217 113 130 217 113 129 217 113 129 217 113 129 217 113 130 217 113 130 217 113 130 217 113 130 217 113 130 217 113 130 217 113 130 217 
114 130 217 114 130 217 114 130 217 114 130 217 114 130 217 114 130 217 114 130 217 114 130 217 113 130 217 113 130 217 113 130 217 113 130 217 113 130 217 113 130 217 113 130 217 113 130 217 113 130 217 113 129 217 113 129 217 113 129 217 113 130 217 113 130 217 113 130 217 113 129 217 113 129 217 113 129 217 112 129 217 112 129 217 112 129 217 112 129 217 112 129 217 112 129 217 112 129 217 112 129 217 112 129 217 112 129 217 112 129 217 112 129 217 112 128 216 112 128 216 112 128 216 111 128 216 111 128 216 111 128 216 111 128 216 111 128 216 111 128 216 111 128 216 111 128 216 111 128 216 111 128 216 111 128 217 111 128 217 111 128 217 111 128 216 111 128 216 111 128 216 111 128 216 111 128 216 111 128 216 111 128 216 110 127 216 110 127 216 110 127 216 110 127 216 110 127 216 110 127 216 110 127 216 110 127 216 110 127 216 110 127 216 110 127 216 110 127 216 110 127 216 110 127 216 110 127 216 110 127 216 110 127 216 109 126 216 109 126 216 109 126 216 109 126 216 109 126 216 109 126 216 109 126 216 109 126 216 109 126 216 109 126 216 109 126 216 109 126 216 109 126 216 109 126 216 109 126 216 109 126 216 109 126 216 109 126 216 109 126 216 109 126 216 109 126 216 109 126 216 109 126 216 109 126 216 109 126 216 108 126 216 108 126 216 108 126 216 108 126 216 108 125 216 108 125 216 108 125 216 108 125 216 108 125 216 108 125 216 108 125 215 108 125 215 108 125 215 108 125 215 108 125 215 108 125 215 108 125 215 108 125 215 108 125 215 108 125 215 108 125 215 108 125 215 108 125 215 108 125 215 108 125 215 108 125 215 108 125 215 108 125 215 108 125 215 108 125 215 107 125 215 107 125 215 107 125 215 107 125 215 107 125 215 107 125 215 107 125 215 107 125 215 107 125 215 107 125 215 107 125 215 107 125 215 107 125 215 108 125 216 108 125 216 108 125 216 108 125 216 108 125 216 108 125 216 108 125 216 108 125 216 108 125 216 108 125 216 108 125 216 108 125 216 108 125 216 108 125 216 108 125 216 108 125 216 108 125 216 108 125 216 108 125 216 108 125 216 108 125 216 108 125 216 108 125 216 108 125 216 108 125 216 108 125 216 108 125 216 108 125 216 108 125 216 107 125 215 107 125 215 107 125 215 107 125 215 107 125 215 107 125 215 107 125 215 107 125 215 107 125 215 107 125 215 107 125 215 107 125 215 107 125 215 108 125 215 108 125 215 108 125 215 108 125 215 108 125 215 108 125 215 108 125 215 108 125 215 108 125 215 108 125 215 108 125 215 108 125 215 108 125 215 108 125 215 108 125 215 108 125 215 108 125 215 108 125 215 108 125 215 108 125 215 108 125 216 108 125 216 108 125 216 108 125 216 108 125 216 108 125 216 108 126 216 108 126 216 108 126 216 108 126 216 109 126 216 109 126 216 109 126 216 109 126 216 109 126 216 109 126 216 109 126 216 109 126 216 109 126 216 109 126 216 109 126 216 109 126 216 109 126 216 109 126 216 109 126 216 109 126 216 109 126 216 109 126 216 109 126 216 109 126 216 109 126 216 109 126 216 109 126 216 109 126 216 109 126 216 110 127 216 110 127 216 110 127 216 110 127 216 110 127 216 110 127 216 110 127 216 110 127 216 110 127 216 110 127 216 110 127 216 110 127 216 110 127 216 110 127 216 110 127 216 110 127 216 110 127 216 111 128 216 111 128 216 111 128 216 111 128 216 111 128 216 111 128 216 111 128 216 111 128 217 111 128 217 111 128 217 111 128 216 111 128 216 111 128 216 111 128 216 111 128 216 111 128 216 111 128 216 111 128 216 111 128 216 111 128 216 112 128 216 112 128 216 112 128 216 112 129 217 112 129 217 112 129 217 112 129 217 112 129 217 112 129 217 112 129 217 112 129 217 112 129 217 112 129 217 112 129 217 112 129 217 113 129 217 113 129 217 113 129 217 113 130 217 113 130 217 113 130 217 113 129 217 113 129 217 113 129 217 113 130 217 113 130 217 113 130 217 113 130 217 113 130 217 113 130 217 113 130 217 113 130 217 113 130 217 114 130 217 114 130 217 114 130 217 114 130 217 114 130 217 114 130 217 114 130 217 
115 131 217 115 131 217 115 131 217 115 131 217 114 131 217 114 131 217 114 131 217 114 130 217 114 130 217 114 130 217 114 130 217 114 130 217 114 130 217 114 130 217 114 130 217 114 130 217 113 130 217 113 130 217 113 130 217 113 130 217 113 130 217 113 130 217 113 130 217 113 130 217 113 130 217 113 129 217 113 129 217 113 129 217 113 129 217 113 130 217 113 130 217 113 130 217 113 129 217 113 129 217 113 129 217 112 129 217 112 129 217 112 129 217 112 129 217 112 129 217 112 129 217 112 129 217 112 129 217 112 129 217 112 129 217 112 129 217 112 129 217 112 128 216 112 128 216 112 128 216 112 128 216 111 128 216 111 128 216 111 128 216 111 128 216 111 128 216 111 128 216 111 128 216 111 128 216 111 128 216 111 128 217 111 128 217 111 128 217 111 128 217 111 128 216 111 128 216 111 128 216 111 128 216 111 128 216 111 128 216 111 128 216 110 127 216 110 127 216 110 127 216 110 127 216 110 127 216 110 127 216 110 127 216 110 127 216 110 127 216 110 127 216 110 127 216 110 127 216 110 127 216 110 127 216 110 127 216 110 127 216 110 127 216 110 127 216 110 127 216 109 126 216 109 126 216 109 126 216 109 126 216 109 126 216 109 126 216 109 126 216 109 126 216 109 126 216 109 126 216 109 126 216 109 126 216 109 126 216 109 126 216 109 126 216 109 126 216 109 126 216 109 126 216 109 126 216 109 126 216 109 126 216 109 126 216 109 126 216 109 126 216 109 126 216 109 126 216 109 126 216 109 126 216 109 126 216 109 126 216 108 126 216 108 126 216 108 126 216 108 126 216 108 126 216 108 126 216 108 126 216 108 125 216 108 125 216 108 125 216 108 125 216 108 125 216 108 125 216 108 125 216 108 125 216 108 125 215 108 125 215 108 125 215 108 125 215 108 125 215 108 125 215 108 125 215 108 125 215 108 125 215 108 125 215 108 125 215 108 125 215 108 125 215 108 125 215 108 125 215 108 125 215 108 125 215 108 125 215 108 125 215 108 125 215 108 125 215 108 125 215 108 125 215 108 125 215 108 125 215 108 125 215 108 125 215 108 125 215 108 125 215 108 125 215 108 125 215 108 125 215 108 125 215 108 125 215 108 125 215 108 125 215 108 125 215 108 125 215 108 125 215 108 125 215 108 125 215 108 125 215 108 125 215 108 125 215 108 125 215 108 125 215 108 125 215 108 125 215 108 125 215 108 125 215 108 125 215 108 125 216 108 125 216 108 125 216 108 125 216 108 125 216 108 125 216 108 125 216 108 125 216 108 126 216 108 126 216 108 126 216 108 126 216 108 126 216 108 126 216 108 126 216 109 126 216 109 126 216 109 126 216 109 126 216 109 126 216 109 126 216 109 126 216 109 126 216 109 126 216 109 126 216 109 126 216 109 126 216 109 126 216 109 126 216 109 126 216 109 126 216 109 126 216 109 126 216 109 126 216 109 126 216 109 126 216 109 126 216 109 126 216 109 126 216 109 126 216 109 126 216 109 126 216 109 126 216 109 126 216 109 126 216 110 127 216 110 127 216 110 127 216 110 127 216 110 127 216 110 127 216 110 127 216 110 127 216 110 127 216 110 127 216 110 127 216 110 127 216 110 127 216 110 127 216 110 127 216 110 127 216 110 127 216 110 127 216 110 127 216 111 128 216 111 128 216 111 128 216 111 128 216 111 128 216 111 128 216 111 128 216 111 128 217 111 128 217 111 128 217 111 128 217 111 128 216 111 128 216 111 128 216 111 128 216 111 128 216 111 128 216 111 128 216 111 128 216 111 128 216 112 128 216 112 128 216 112 128 216 112 128 216 112 129 217 112 129 217 112 129 217 112 129 217 112 129 217 112 129 217 112 129 217 112 129 217 112 129 217 112 129 217 112 129 217 112 129 217 113 129 217 113 129 217 113 129 217 113 130 217 113 130 217 113 130 217 113 129 217 113 129 217 113 129 217 113 129 217 113 130 217 113 130 217 113 130 217 113 130 217 113 130 217 113 130 217 113 130 217 113 130 217 113 130 217 114 130 217 114 130 217 114 130 217 114 130 217 114 130 217 114 130 217 114 130 217 114 130 217 114 130 217 114 131 217 114 131 217 114 131 217 115 131 217 115 131 217 115 131 217 
115 131 217 115 131 217 115 131 217 115 131 217 115 131 217 115 131 217 115 131 217 115 131 217 115 131 217 115 131 217 115 131 217 115 131 217 115 131 217 114 131 217 114 131 217 114 131 217 114 130 217 114 130 217 114 130 217 114 130 217 114 130 217 114 130 217 114 130 217 114 130 217 114 130 217 113 130 217 113 130 217 113 130 217 113 130 217 113 130 217 113 130 217 113 130 217 113 130 217 113 130 217 113 130 217 113 129 217 113 129 217 113 129 217 113 130 217 113 130 217 113 130 217 113 129 217 113 129 217 113 129 217 112 129 217 112 129 217 112 129 217 112 129 217 112 129 217 112 129 217 112 129 217 112 129 217 112 129 217 112 129 217 112 129 217 112 129 217 112 129 217 112 128 216 112 128 216 112 128 216 112 128 216 111 128 216 111 128 216 111 128 216 111 128 216 111 128 216 111 128 216 111 128 216 111 128 216 111 128 216 111 128 216 111 128 216 111 128 217 111 128 217 111 128 217 111 128 216 111 128 216 111 128 216 111 128 216 111 128 216 111 128 216 111 128 216 111 128 216 110 127 216 110 127 216 110 127 216 110 127 216 110 127 216 110 127 216 110 127 216 110 127 216 110 127 216 110 127 216 110 127 216 110 127 216 110 127 216 110 127 216 110 127 216 110 127 216 110 127 216 110 127 216 110 127 216 110 127 216 110 127 216 110 127 216 109 126 216 109 126 216 109 126 216 109 126 216 109 126 216 109 126 216 109 126 216 109 126 216 109 126 216 109 126 216 109 126 216 109 126 216 109 126 216 109 126 216 109 126 216 109 126 216 109 126 216 109 126 216 109 126 216 109 126 216 109 126 216 109 126 216 109 126 216 109 126 216 109 126 216 109 126 216 109 126 216 109 126 216 109 126 216 109 126 216 109 126 216 109 126 216 109 126 216 109 126 216 109 126 216 109 126 216 109 126 216 109 126 216 109 126 216 109 126 216 109 126 216 109 126 216 109 126 216 109 126 216 109 126 216 109 126 216 109 126 216 109 126 216 109 126 216 109 126 216 109 126 216 109 126 216 109 126 216 109 126 216 109 126 216 109 126 216 109 126 216 109 126 216 109 126 216 109 126 216 109 126 216 109 126 216 109 126 216 109 126 216 109 126 216 109 126 216 109 126 216 109 126 216 109 126 216 109 126 216 109 126 216 109 126 216 109 126 216 109 126 216 109 126 216 109 126 216 109 126 216 109 126 216 109 126 216 109 126 216 109 126 216 109 126 216 109 126 216 109 126 216 109 126 216 109 126 216 109 126 216 109 126 216 109 126 216 109 126 216 109 126 216 109 126 216 109 126 216 109 126 216 109 126 216 109 126 216 109 126 216 109 126 216 109 126 216 109 126 216 109 126 216 109 126 216 109 126 216 109 126 216 109 126 216 109 126 216 109 126 216 109 126 216 109 126 216 109 126 216 109 126 216 110 127 216 110 127 216 110 127 216 110 127 216 110 127 216 110 127 216 110 127 216 110 127 216 110 127 216 110 127 216 110 127 216 110 127 216 110 127 216 110 127 216 110 127 216 110 127 216 110 127 216 110 127 216 110 127 216 110 127 216 110 127 216 110 127 216 111 128 216 111 128 216 111 128 216 111 128 216 111 128 216 111 128 216 111 128 216 111 128 216 111 128 217 111 128 217 111 128 217 111 128 216 111 128 216 111 128 216 111 128 216 111 128 216 111 128 216 111 128 216 111 128 216 111 128 216 111 128 216 111 128 216 112 128 216 112 128 216 112 128 216 112 128 216 112 129 217 112 129 217 112 129 217 112 129 217 112 129 217 112 129 217 112 129 217 112 129 217 112 129 217 112 129 217 112 129 217 112 129 217 112 129 217 113 129 217 113 129 217 113 129 217 113 130 217 113 130 217 113 130 217 113 129 217 113 129 217 113 129 217 113 130 217 113 130 217 113 130 217 113 130 217 113 130 217 113 130 217 113 130 217 113 130 217 113 130 217 113 130 217 114 130 217 114 130 217 114 130 217 114 130 217 114 130 217 114 130 217 114 130 217 114 130 217 114 130 217 114 131 217 114 131 217 114 131 217 115 131 217 115 131 217 115 131 217 115 131 217 115 131 217 115 131 217 115 131 217 115 131 217 115 131 217 115 131 217 115 131 217 115 131 217 
116 132 217 116 132 217 116 132 217 115 131 217 115 131 217 115 131 217 115 131 217 115 131 217 115 131 217 115 131 217 115 131 217 115 131 217 115 131 217 115 131 217 115 131 217 115 131 217 115 131 217 115 131 217 115 131 217 115 131 217 115 131 217 115 131 217 114 131 217 114 131 217 114 131 217 114 130 217 114 130 217 114 130 217 114 130 217 114 130 217 114 130 217 114 130 217 114 130 217 114 130 217 114 130 217 113 130 217 113 130 217 113 130 217 113 130 217 113 130 217 113 130 217 113 130 217 113 130 217 113 130 217 113 129 217 113 129 217 113 129 217 113 130 217 113 130 217 113 130 217 113 130 217 113 129 217 113 129 217 113 129 217 112 129 217 112 129 217 112 129 217 112 129 217 112 129 217 112 129 217 112 129 217 112 129 217 112 129 217 112 129 217 112 129 217 112 129 217 112 129 217 112 129 217 112 128 216 112 128 216 112 128 216 112 128 216 111 128 216 111 128 216 111 128 216 111 128 216 111 128 216 111 128 216 111 128 216 111 128 216 111 128 216 111 128 216 111 128 216 111 128 217 111 128 217 111 128 217 111 128 217 111 128 217 111 128 216 111 128 216 111 128 216 111 128 216 111 128 216 111 128 216 111 128 216 111 128 216 110 127 216 110 127 216 110 127 216 110 127 216 110 127 216 110 127 216 110 127 216 110 127 216 110 127 216 110 127 216 110 127 216 110 127 216 110 127 216 110 127 216 110 127 216 110 127 216 110 127 216 110 127 216 110 127 216 110 127 216 110 127 216 110 127 216 110 127 216 110 127 216 110 127 216 110 127 216 110 127 216 110 127 216 109 126 216 109 126 216 109 126 216 109 126 216 109 126 216 109 126 216 109 126 216 109 126 216 109 126 216 109 126 216 109 126 216 109 126 216 109 126 216 109 126 216 109 126 216 109 126 216 109 126 216 109 126 216 109 126 216 109 126 216 109 126 216 109 126 216 109 126 216 109 126 216 109 126 216 109 126 216 109 126 216 109 126 216 109 126 216 109 126 216 109 126 216 109 126 216 109 126 216 109 126 216 109 126 216 109 126 216 109 126 216 109 126 216 109 126 216 109 126 216 109 126 216 109 126 216 109 126 216 109 126 216 109 126 216 109 126 216 109 126 216 109 126 216 109 126 216 109 126 216 109 126 216 109 126 216 109 126 216 109 126 216 109 126 216 109 126 216 109 126 216 109 126 216 109 126 216 109 126 216 109 126 216 109 126 216 109 126 216 109 126 216 109 126 216 109 126 216 109 126 216 109 126 216 109 126 216 109 126 216 109 126 216 109 126 216 109 126 216 110 127 216 110 127 216 110 127 216 110 127 216 110 127 216 110 127 216 110 127 216 110 127 216 110 127 216 110 127 216 110 127 216 110 127 216 110 127 216 110 127 216 110 127 216 110 127 216 110 127 216 110 127 216 110 127 216 110 127 216 110 127 216 110 127 216 110 127 216 110 127 216 110 127 216 110 127 216 110 127 216 110 127 216 111 128 216 111 128 216 111 128 216 111 128 216 111 128 216 111 128 216 111 128 216 111 128 216 111 128 217 111 128 217 111 128 217 111 128 217 111 128 217 111 128 216 111 128 216 111 128 216 111 128 216 111 128 216 111 128 216 111 128 216 111 128 216 111 128 216 111 128 216 111 128 216 112 128 216 112 128 216 112 128 216 112 128 216 112 129 217 112 129 217 112 129 217 112 129 217 112 129 217 112 129 217 112 129 217 112 129 217 112 129 217 112 129 217 112 129 217 112 129 217 112 129 217 112 129 217 113 129 217 113 129 217 113 129 217 113 130 217 113 130 217 113 130 217 113 130 217 113 129 217 113 129 217 113 129 217 113 130 217 113 130 217 113 130 217 113 130 217 113 130 217 113 130 217 113 130 217 113 130 217 113 130 217 114 130 217 114 130 217 114 130 217 114 130 217 114 130 217 114 130 217 114 130 217 114 130 217 114 130 217 114 130 217 114 131 217 114 131 217 114 131 217 115 131 217 115 131 217 115 131 217 115 131 217 115 131 217 115 131 217 115 131 217 115 131 217 115 131 217 115 131 217 115 131 217 115 131 217 115 131 217 115 131 217 115 131 217 115 131 217 115 131 217 115 131 217 115 131 217 116 132 217 116 132 217 
116 132 217 116 132 217 116 132 217 116 132 217 116 132 217 116 132 217 116 132 217 116 132 217 116 132 217 116 132 217 116 132 217 115 131 217 115 131 217 115 131 217 115 131 217 115 131 217 115 131 217 115 131 217 115 131 217 115 131 217 115 131 217 115 131 217 115 131 217 115 131 217 115 131 217 115 131 217 115 131 217 115 131 217 115 131 217 115 131 217 114 131 217 114 131 217 114 131 217 114 131 217 114 130 217 114 130 217 114 130 217 114 130 217 114 130 217 114 130 217 114 130 217 114 130 217 114 130 217 114 130 217 113 130 217 113 130 217 113 130 217 113 130 217 113 130 217 113 130 217 113 130 217 113 130 217 113 130 217 113 130 217 113 129 217 113 129 217 113 129 217 113 130 217 113 130 217 113 130 217 113 130 217 113 129 217 113 129 217 113 129 217 112 129 217 112 129 217 112 129 217 112 129 217 112 129 217 112 129 217 112 129 217 112 129 217 112 129 217 112 129 217 112 129 217 112 129 217 112 129 217 112 129 217 112 129 217 112 128 216 112 128 216 112 128 216 112 128 216 111 128 216 111 128 216 111 128 216 111 128 216 111 128 216 111 128 216 111 128 216 111 128 216 111 128 216 111 128 216 111 128 216 111 128 216 111 128 216 111 128 217 111 128 217 111 128 217 111 128 217 111 128 217 111 128 216 111 128 216 111 128 216 111 128 216 111 128 216 111 128 216 111 128 216 111 128 216 111 128 216 111 128 216 110 127 216 110 127 216 110 127 216 110 127 216 110 127 216 110 127 216 110 127 216 110 127 216 110 127 216 110 127 216 110 127 216 110 127 216 110 127 216 110 127 216 110 127 216 110 127 216 110 127 216 110 127 216 110 127 216 110 127 216 110 127 216 110 127 216 110 127 216 110 127 216 110 127 216 110 127 216 110 127 216 110 127 216 110 127 216 110 127 216 110 127 216 110 127 216 110 127 216 110 127 216 110 127 216 110 127 216 110 127 216 110 127 216 110 127 216 110 127 216 110 127 216 110 127 216 110 127 216 110 127 216 110 127 216 110 127 216 110 127 216 110 127 216 110 127 216 110 127 216 110 127 216 110 127 216 110 127 216 110 127 216 110 127 216 110 127 216 110 127 216 110 127 216 110 127 216 110 127 216 110 127 216 110 127 216 110 127 216 110 127 216 110 127 216 110 127 216 110 127 216 110 127 216 110 127 216 110 127 216 110 127 216 110 127 216 110 127 216 110 127 216 110 127 216 110 127 216 110 127 216 110 127 216 110 127 216 110 127 216 110 127 216 110 127 216 110 127 216 110 127 216 110 127 216 110 127 216 110 127 216 110 127 216 110 127 216 110 127 216 110 127 216 110 127 216 110 127 216 110 127 216 110 127 216 110 127 216 110 127 216 110 127 216 110 127 216 111 128 216 111 128 216 111 128 216 111 128 216 111 128 216 111 128 216 111 128 216 111 128 216 111 128 216 111 128 216 111 128 217 111 128 217 111 128 217 111 128 217 111 128 217 111 128 216 111 128 216 111 128 216 111 128 216 111 128 216 111 128 216 111 128 216 111 128 216 111 128 216 111 128 216 111 128 216 111 128 216 111 128 216 112 128 216 112 128 216 112 128 216 112 128 216 112 129 217 112 129 217 112 129 217 112 129 217 112 129 217 112 129 217 112 129 217 112 129 217 112 129 217 112 129 217 112 129 217 112 129 217 112 129 217 112 129 217 112 129 217 113 129 217 113 129 217 113 129 217 113 130 217 113 130 217 113 130 217 113 130 217 113 129 217 113 129 217 113 129 217 113 130 217 113 130 217 113 130 217 113 130 217 113 130 217 113 130 217 113 130 217 113 130 217 113 130 217 113 130 217 114 130 217 114 130 217 114 130 217 114 130 217 114 130 217 114 130 217 114 130 217 114 130 217 114 130 217 114 130 217 114 131 217 114 131 217 114 131 217 114 131 217 115 131 217 115 131 217 115 131 217 115 131 217 115 131 217 115 131 217 115 131 217 115 131 217 115 131 217 115 131 217 115 131 217 115 131 217 115 131 217 115 131 217 115 131 217 115 131 217 115 131 217 115 131 217 115 131 217 116 132 217 116 132 217 116 132 217 116 132 217 116 132 217 116 132 217 116 132 217 116 132 217 116 132 217 116 132 217 
116 132 218 117 133 218 117 133 218 117 133 218 116 132 217 116 132 217 116 132 217 116 132 217 116 132 217 116 132 217 116 132 217 116 132 217 116 132 217 116 132 217 116 132 217 116 132 217 116 132 217 116 132 217 116 132 217 116 132 217 115 131 217 115 131 217 115 131 217 115 131 217 115 131 217 115 131 217 115 131 217 115 131 217 115 131 217 115 131 217 115 131 217 115 131 217 115 131 217 115 131 217 115 131 217 115 131 217 115 131 217 115 131 217 115 131 217 115 131 217 114 131 217 114 131 217 114 131 217 114 130 217 114 130 217 114 130 217 114 130 217 114 130 217 114 130 217 114 130 217 114 130 217 114 130 217 114 130 217 114 130 217 113 130 217 113 130 217 113 130 217 113 130 217 113 130 217 113 130 217 113 130 217 113 130 217 113 130 217 113 130 217 113 129 217 113 129 217 113 129 217 113 129 217 113 130 217 113 130 217 113 130 217 113 130 217 113 129 217 113 129 217 113 129 217 112 129 217 112 129 217 112 129 217 112 129 217 112 129 217 112 129 217 112 129 217 112 129 217 112 129 217 112 129 217 112 129 217 112 129 217 112 129 217 112 129 217 112 129 217 112 129 217 112 129 217 112 128 216 112 128 216 112 128 216 112 128 216 112 128 216 111 128 216 111 128 216 111 128 216 111 128 216 111 128 216 111 128 216 111 128 216 111 128 216 111 128 216 111 128 216 111 128 216 111 128 216 111 128 216 111 128 216 111 128 216 111 128 217 111 128 217 111 128 217 111 128 217 111 128 217 111 128 217 111 128 217 111 128 216 111 128 216 111 128 216 111 128 216 111 128 216 111 128 216 111 128 216 111 128 216 111 128 216 111 128 216 111 128 216 111 128 216 111 128 216 111 128 216 111 128 216 111 128 216 110 127 216 110 127 216 110 127 216 110 127 216 110 127 216 110 127 216 110 127 216 110 127 216 110 127 216 110 127 216 110 127 216 110 127 216 110 127 216 110 127 216 110 127 216 110 127 216 110 127 216 110 127 216 110 127 216 110 127 216 110 127 216 110 127 216 110 127 216 110 127 216 110 127 216 110 127 216 110 127 216 110 127 216 110 127 216 110 127 216 110 127 216 110 127 216 110 127 216 110 127 216 110 127 216 110 127 216 110 127 216 110 127 216 110 127 216 110 127 216 110 127 216 110 127 216 110 127 216 110 127 216 110 127 216 110 127 216 110 127 216 110 127 216 110 127 216 110 127 216 110 127 216 111 128 216 111 128 216 111 128 216 111 128 216 111 128 216 111 128 216 111 128 216 111 128 216 111 128 216 111 128 216 111 128 216 111 128 216 111 128 216 111 128 216 111 128 216 111 128 216 111 128 217 111 128 217 111 128 217 111 128 217 111 128 217 111 128 217 111 128 217 111 128 216 111 128 216 111 128 216 111 128 216 111 128 216 111 128 216 111 128 216 111 128 216 111 128 216 111 128 216 111 128 216 111 128 216 111 128 216 111 128 216 111 128 216 112 128 216 112 128 216 112 128 216 112 128 216 112 128 216 112 129 217 112 129 217 112 129 217 112 129 217 112 129 217 112 129 217 112 129 217 112 129 217 112 129 217 112 129 217 112 129 217 112 129 217 112 129 217 112 129 217 112 129 217 112 129 217 112 129 217 113 129 217 113 129 217 113 129 217 113 130 217 113 130 217 113 130 217 113 130 217 113 129 217 113 129 217 113 129 217 113 129 217 113 130 217 113 130 217 113 130 217 113 130 217 113 130 217 113 130 217 113 130 217 113 130 217 113 130 217 113 130 217 114 130 217 114 130 217 114 130 217 114 130 217 114 130 217 114 130 217 114 130 217 114 130 217 114 130 217 114 130 217 114 130 217 114 131 217 114 131 217 114 131 217 115 131 217 115 131 217 115 131 217 115 131 217 115 131 217 115 131 217 115 131 217 115 131 217 115 131 217 115 131 217 115 131 217 115 131 217 115 131 217 115 131 217 115 131 217 115 131 217 115 131 217 115 131 217 115 131 217 115 131 217 116 132 217 116 132 217 116 132 217 116 132 217 116 132 217 116 132 217 116 132 217 116 132 217 116 132 217 116 132 217 116 132 217 116 132 217 116 132 217 116 132 217 116 132 217 116 132 217 117 133 218 117 133 218 117 133 218 
117 133 218 117 133 218 117 133 218 117 133 218 117 133 218 117 133 218 117 133 218 116 132 218 116 132 218 116 132 218 117 133 218 117 133 218 117 133 218 116 132 217 116 132 217 116 132 217 116 132 217 116 132 217 116 132 217 116 132 217 116 132 217 116 132 217 116 132 217 116 132 217 116 132 217 116 132 217 116 132 217 116 132 217 116 132 217 116 132 217 115 131 217 115 131 217 115 131 217 115 131 217 115 131 217 115 131 217 115 131 217 115 131 217 115 131 217 115 131 217 115 131 217 115 131 217 115 131 217 115 131 217 115 131 217 115 131 217 115 131 217 115 131 217 115 131 217 115 131 217 114 131 217 114 131 217 114 131 217 114 131 217 114 130 217 114 130 217 114 130 217 114 130 217 114 130 217 114 130 217 114 130 217 114 130 217 114 130 217 114 130 217 114 130 217 113 130 217 113 130 217 113 130 217 113 130 217 113 130 217 113 130 217 113 130 217 113 130 217 113 130 217 113 130 217 113 130 217 113 129 217 113 129 217 113 129 217 113 129 217 113 130 217 113 130 217 113 130 217 113 130 217 113 129 217 113 129 217 113 129 217 113 129 217 113 129 217 112 129 217 112 129 217 112 129 217 112 129 217 112 129 217 112 129 217 112 129 217 112 129 217 112 129 217 112 129 217 112 129 217 112 129 217 112 129 217 112 129 217 112 129 217 112 129 217 112 129 217 112 129 217 112 129 217 112 128 216 112 128 216 112 128 216 112 128 216 112 128 216 112 128 216 111 128 216 111 128 216 111 128 216 111 128 216 111 128 216 111 128 216 111 128 216 111 128 216 111 128 216 111 128 216 111 128 216 111 128 216 111 128 216 111 128 216 111 128 216 111 128 216 111 128 216 111 128 216 111 128 216 111 128 216 111 128 216 111 128 216 111 128 216 111 128 216 111 128 216 111 128 217 111 128 217 111 128 217 111 128 217 111 128 217 111 128 217 111 128 217 111 128 217 111 128 217 111 128 217 111 128 217 111 128 217 111 128 217 111 128 217 111 128 217 111 128 217 111 128 217 111 128 217 111 128 217 111 128 217 111 128 217 111 128 217 111 128 217 111 128 217 111 128 217 111 128 217 111 128 217 111 128 217 111 128 217 111 128 217 111 128 217 111 128 217 111 128 217 111 128 217 111 128 217 111 128 217 111 128 217 111 128 217 111 128 217 111 128 217 111 128 217 111 128 217 111 128 217 111 128 216 111 128 216 111 128 216 111 128 216 111 128 216 111 128 216 111 128 216 111 128 216 111 128 216 111 128 216 111 128 216 111 128 216 111 128 216 111 128 216 111 128 216 111 128 216 111 128 216 111 128 216 111 128 216 111 128 216 111 128 216 111 128 216 111 128 216 111 128 216 111 128 216 112 128 216 112 128 216 112 128 216 112 128 216 112 128 216 112 128 216 112 129 217 112 129 217 112 129 217 112 129 217 112 129 217 112 129 217 112 129 217 112 129 217 112 129 217 112 129 217 112 129 217 112 129 217 112 129 217 112 129 217 112 129 217 112 129 217 112 129 217 112 129 217 112 129 217 113 129 217 113 129 217 113 129 217 113 129 217 113 129 217 113 130 217 113 130 217 113 130 217 113 130 217 113 129 217 113 129 217 113 129 217 113 129 217 113 130 217 113 130 217 113 130 217 113 130 217 113 130 217 113 130 217 113 130 217 113 130 217 113 130 217 113 130 217 113 130 217 114 130 217 114 130 217 114 130 217 114 130 217 114 130 217 114 130 217 114 130 217 114 130 217 114 130 217 114 130 217 114 130 217 114 131 217 114 131 217 114 131 217 114 131 217 115 131 217 115 131 217 115 131 217 115 131 217 115 131 217 115 131 217 115 131 217 115 131 217 115 131 217 115 131 217 115 131 217 115 131 217 115 131 217 115 131 217 115 131 217 115 131 217 115 131 217 115 131 217 115 131 217 115 131 217 116 132 217 116 132 217 116 132 217 116 132 217 116 132 217 116 132 217 116 132 217 116 132 217 116 132 217 116 132 217 116 132 217 116 132 217 116 132 217 116 132 217 116 132 217 116 132 217 116 132 217 117 133 218 117 133 218 117 133 218 116 132 218 116 132 218 116 132 218 117 133 218 117 133 218 117 133 218 117 133 218 117 133 218 117 133 218 
117 133 218 117 133 218 117 133 218 117 133 218 117 133 218 117 133 218 117 133 218 117 133 218 117 133 218 117 133 218 117 133 218 117 133 218 117 133 218 117 133 218 117 133 218 117 133 218 117 133 218 116 132 218 116 132 218 116 132 218 117 133 218 117 133 218 117 133 218 116 132 217 116 132 217 116 132 217 116 132 217 116 132 217 116 132 217 116 132 217 116 132 217 116 132 217 116 132 217 116 132 217 116 132 217 116 132 217 116 132 217 116 132 217 116 132 217 116 132 217 116 132 217 115 131 217 115 131 217 115 131 217 115 131 217 115 131 217 115 131 217 115 131 217 115 131 217 115 131 217 115 131 217 115 131 217 115 131 217 115 131 217 115 131 217 115 131 217 115 131 217 115 131 217 115 131 217 115 131 217 115 131 217 115 131 217 114 131 217 114 131 217 114 131 217 114 131 217 114 130 217 114 130 217 114 130 217 114 130 217 114 130 217 114 130 217 114 130 217 114 130 217 114 130 217 114 130 217 114 130 217 114 130 217 113 130 217 113 130 217 113 130 217 113 130 217 113 130 217 113 130 217 113 130 217 113 130 217 113 130 217 113 130 217 113 130 217 113 130 217 113 129 217 113 129 217 113 129 217 113 129 217 113 129 217 113 130 217 113 130 217 113 130 217 113 130 217 113 130 217 113 129 217 113 129 217 113 129 217 113 129 217 113 129 217 112 129 217 112 129 217 112 129 217 112 129 217 112 129 217 112 129 217 112 129 217 112 129 217 112 129 217 112 129 217 112 129 217 112 129 217 112 129 217 112 129 217 112 129 217 112 129 217 112 129 217 112 129 217 112 129 217 112 129 217 112 129 217 112 129 217 112 129 217 112 129 217 112 129 217 112 129 217 112 129 217 112 128 216 112 128 216 112 128 216 112 128 216 112 128 216 112 128 216 112 128 216 112 128 216 112 128 216 112 128 216 112 128 216 112 128 216 112 128 216 112 128 216 111 128 216 111 128 216 111 128 216 111 128 216 111 128 216 111 128 216 111 128 216 111 128 216 111 128 216 111 128 216 111 128 216 111 128 216 111 128 216 111 128 216 111 128 216 111 128 216 111 128 216 111 128 216 111 128 216 111 128 216 111 128 216 111 128 216 111 128 216 111 128 216 111 128 216 111 128 216 111 128 216 111 128 216 111 128 216 112 128 216 112 128 216 112 128 216 112 128 216 112 128 216 112 128 216 112 128 216 112 128 216 112 128 216 112 128 216 112 128 216 112 128 216 112 128 216 112 128 216 112 129 217 112 129 217 112 129 217 112 129 217 112 129 217 112 129 217 112 129 217 112 129 217 112 129 217 112 129 217 112 129 217 112 129 217 112 129 217 112 129 217 112 129 217 112 129 217 112 129 217 112 129 217 112 129 217 112 129 217 112 129 217 112 129 217 112 129 217 112 129 217 112 129 217 112 129 217 112 129 217 113 129 217 113 129 217 113 129 217 113 129 217 113 129 217 113 130 217 113 130 217 113 130 217 113 130 217 113 130 217 113 129 217 113 129 217 113 129 217 113 129 217 113 129 217 113 130 217 113 130 217 113 130 217 113 130 217 113 130 217 113 130 217 113 130 217 113 130 217 113 130 217 113 130 217 113 130 217 113 130 217 114 130 217 114 130 217 114 130 217 114 130 217 114 130 217 114 130 217 114 130 217 114 130 217 114 130 217 114 130 217 114 130 217 114 130 217 114 131 217 114 131 217 114 131 217 114 131 217 115 131 217 115 131 217 115 131 217 115 131 217 115 131 217 115 131 217 115 131 217 115 131 217 115 131 217 115 131 217 115 131 217 115 131 217 115 131 217 115 131 217 115 131 217 115 131 217 115 131 217 115 131 217 115 131 217 115 131 217 115 131 217 116 132 217 116 132 217 116 132 217 116 132 217 116 132 217 116 132 217 116 132 217 116 132 217 116 132 217 116 132 217 116 132 217 116 132 217 116 132 217 116 132 217 116 132 217 116 132 217 116 132 217 116 132 217 117 133 218 117 133 218 117 133 218 116 132 218 116 132 218 116 132 218 117 133 218 117 133 218 117 133 218 117 133 218 117 133 218 117 133 218 117 133 218 117 133 218 117 133 218 117 133 218 117 133 218 117 133 218 117 133 218 117 133 218 117 133 218 117 133 218 
118 134 218 118 134 218 118 134 218 118 134 218 118 134 218 118 134 218 118 133 218 118 133 218 118 133 218 117 133 218 117 133 218 117 133 218 117 133 218 117 133 218 117 133 218 117 133 218 117 133 218 117 133 218 117 133 218 117 133 218 117 133 218 117 133 218 117 133 218 117 133 218 117 133 218 117 133 218 116 132 218 116 132 218 116 132 218 116 132 218 117 133 218 117 133 218 117 133 218 116 132 217 116 132 217 116 132 217 116 132 217 116 132 217 116 132 217 116 132 217 116 132 217 116 132 217 116 132 217 116 132 217 116 132 217 116 132 217 116 132 217 116 132 217 116 132 217 116 132 217 116 132 217 115 131 217 115 131 217 115 131 217 115 131 217 115 131 217 115 131 217 115 131 217 115 131 217 115 131 217 115 131 217 115 131 217 115 131 217 115 131 217 115 131 217 115 131 217 115 131 217 115 131 217 115 131 217 115 131 217 115 131 217 115 131 217 115 131 217 115 131 217 114 131 217 114 131 217 114 131 217 114 131 217 114 130 217 114 130 217 114 130 217 114 130 217 114 130 217 114 130 217 114 130 217 114 130 217 114 130 217 114 130 217 114 130 217 114 130 217 114 130 217 114 130 217 113 130 217 113 130 217 113 130 217 113 130 217 113 130 217 113 130 217 113 130 217 113 130 217 113 130 217 113 130 217 113 130 217 113 130 217 113 130 217 113 130 217 113 130 217 113 129 217 113 129 217 113 129 217 113 129 217 113 129 217 113 129 217 113 130 217 113 130 217 113 130 217 113 130 217 113 130 217 113 130 217 113 130 217 113 129 217 113 129 217 113 129 217 113 129 217 113 129 217 113 129 217 113 129 217 112 129 217 112 129 217 112 129 217 112 129 217 112 129 217 112 129 217 112 129 217 112 129 217 112 129 217 112 129 217 112 129 217 112 129 217 112 129 217 112 129 217 112 129 217 112 129 217 112 129 217 112 129 217 112 129 217 112 129 217 112 129 217 112 129 217 112 129 217 112 129 217 112 129 217 112 129 217 112 129 217 112 129 217 112 129 217 112 129 217 112 129 217 112 129 217 112 129 217 112 129 217 112 129 217 112 129 217 112 129 217 112 129 217 112 129 217 112 129 217 112 129 217 112 129 217 112 129 217 112 129 217 112 129 217 112 129 217 112 129 217 112 129 217 112 129 217 112 129 217 112 129 217 112 129 217 112 129 217 112 129 217 112 129 217 112 129 217 112 129 217 112 129 217 112 129 217 112 129 217 112 129 217 112 129 217 112 129 217 112 129 217 112 129 217 112 129 217 112 129 217 113 129 217 113 129 217 113 129 217 113 129 217 113 129 217 113 129 217 113 129 217 113 130 217 113 130 217 113 130 217 113 130 217 113 130 217 113 130 217 113 130 217 113 129 217 113 129 217 113 129 217 113 129 217 113 129 217 113 129 217 113 130 217 113 130 217 113 130 217 113 130 217 113 130 217 113 130 217 113 130 217 113 130 217 113 130 217 113 130 217 113 130 217 113 130 217 113 130 217 113 130 217 113 130 217 114 130 217 114 130 217 114 130 217 114 130 217 114 130 217 114 130 217 114 130 217 114 130 217 114 130 217 114 130 217 114 130 217 114 130 217 114 130 217 114 130 217 114 131 217 114 131 217 114 131 217 114 131 217 115 131 217 115 131 217 115 131 217 115 131 217 115 131 217 115 131 217 115 131 217 115 131 217 115 131 217 115 131 217 115 131 217 115 131 217 115 131 217 115 131 217 115 131 217 115 131 217 115 131 217 115 131 217 115 131 217 115 131 217 115 131 217 115 131 217 115 131 217 116 132 217 116 132 217 116 132 217 116 132 217 116 132 217 116 132 217 116 132 217 116 132 217 116 132 217 116 132 217 116 132 217 116 132 217 116 132 217 116 132 217 116 132 217 116 132 217 116 132 217 116 132 217 117 133 218 117 133 218 117 133 218 116 132 218 116 132 218 116 132 218 116 132 218 117 133 218 117 133 218 117 133 218 117 133 218 117 133 218 117 133 218 117 133 218 117 133 218 117 133 218 117 133 218 117 133 218 117 133 218 117 133 218 117 133 218 117 133 218 117 133 218 117 133 218 118 133 218 118 133 218 118 133 218 118 134 218 118 134 218 118 134 218 118 134 218 118 134 218 
118 134 218 118 134 218 118 134 218 118 134 218 118 134 218 118 134 218 118 134 218 118 134 218 118 134 218 118 134 218 118 134 218 118 134 218 118 134 218 118 134 218 118 134 218 118 134 218 118 133 218 118 133 218 118 133 218 118 133 218 117 133 218 117 133 218 117 133 218 117 133 218 117 133 218 117 133 218 117 133 218 117 133 218 117 133 218 117 133 218 117 133 218 117 133 218 117 133 218 117 133 218 117 133 218 117 133 218 117 133 218 116 132 218 116 132 218 116 132 218 116 132 218 117 133 218 117 133 218 117 133 218 117 133 218 116 132 217 116 132 217 116 132 217 116 132 217 116 132 217 116 132 217 116 132 217 116 132 217 116 132 217 116 132 217 116 132 217 116 132 217 116 132 217 116 132 217 116 132 217 116 132 217 116 132 217 116 132 217 115 131 217 115 131 217 115 131 217 115 131 217 115 131 217 115 131 217 115 131 217 115 131 217 115 131 217 115 131 217 115 131 217 115 131 217 115 131 217 115 131 217 115 131 217 115 131 217 115 131 217 115 131 217 115 131 217 115 131 217 115 131 217 115 131 217 115 131 217 115 131 217 115 131 217 115 131 217 114 131 217 114 131 217 114 131 217 114 131 217 114 130 217 114 130 217 114 130 217 114 130 217 114 130 217 114 130 217 114 130 217 114 130 217 114 130 217 114 130 217 114 130 217 114 130 217 114 130 217 114 130 217 114 130 217 114 130 217 113 130 217 113 130 217 113 130 217 113 130 217 113 130 217 113 130 217 113 130 217 113 130 217 113 130 217 113 130 217 113 130 217 113 130 217 113 130 217 113 130 217 113 130 217 113 130 217 113 130 217 113 130 217 113 130 217 113 130 217 113 130 217 113 130 217 113 130 217 113 129 217 113 129 217 113 129 217 113 129 217 113 129 217 113 129 217 113 129 217 113 129 217 113 129 217 113 129 217 113 129 217 113 129 217 113 130 217 113 130 217 113 130 217 113 130 217 113 130 217 113 130 217 113 130 217 113 130 217 113 130 217 113 130 217 113 130 217 113 130 217 113 130 217 113 130 217 113 130 217 113 130 217 113 130 217 113 130 217 113 130 217 113 130 217 113 130 217 113 130 217 113 130 217 113 130 217 113 130 217 113 130 217 113 130 217 113 130 217 113 130 217 113 130 217 113 130 217 113 130 217 113 130 217 113 129 217 113 129 217 113 129 217 113 129 217 113 129 217 113 129 217 113 129 217 113 129 217 113 129 217 113 129 217 113 129 217 113 129 217 113 130 217 113 130 217 113 130 217 113 130 217 113 130 217 113 130 217 113 130 217 113 130 217 113 130 217 113 130 217 113 130 217 113 130 217 113 130 217 113 130 217 113 130 217 113 130 217 113 130 217 113 130 217 113 130 217 113 130 217 113 130 217 113 130 217 113 130 217 114 130 217 114 130 217 114 130 217 114 130 217 114 130 217 114 130 217 114 130 217 114 130 217 114 130 217 114 130 217 114 130 217 114 130 217 114 130 217 114 130 217 114 130 217 114 130 217 114 131 217 114 131 217 114 131 217 114 131 217 115 131 217 115 131 217 115 131 217 115 131 217 115 131 217 115 131 217 115 131 217 115 131 217 115 131 217 115 131 217 115 131 217 115 131 217 115 131 217 115 131 217 115 131 217 115 131 217 115 131 217 115 131 217 115 131 217 115 131 217 115 131 217 115 131 217 115 131 217 115 131 217 115 131 217 115 131 217 116 132 217 116 132 217 116 132 217 116 132 217 116 132 217 116 132 217 116 132 217 116 132 217 116 132 217 116 132 217 116 132 217 116 132 217 116 132 217 116 132 217 116 132 217 116 132 217 116 132 217 116 132 217 117 133 218 117 133 218 117 133 218 117 133 218 116 132 218 116 132 218 116 132 218 116 132 218 117 133 218 117 133 218 117 133 218 117 133 218 117 133 218 117 133 218 117 133 218 117 133 218 117 133 218 117 133 218 117 133 218 117 133 218 117 133 218 117 133 218 117 133 218 117 133 218 117 133 218 118 133 218 118 133 218 118 133 218 118 133 218 118 134 218 118 134 218 118 134 218 118 134 218 118 134 218 118 134 218 118 134 218 118 134 218 118 134 218 118 134 218 118 134 218 118 134 218 118 134 218 118 134 218 118 134 218 
119 135 218 119 134 218 119 134 218 119 134 218 119 134 218 119 134 218 119 134 218 119 134 218 119 134 218 118 134 218 118 134 218 118 134 218 118 134 218 118 134 218 118 134 218 118 134 218 118 134 218 118 134 218 118 134 218 118 134 218 118 134 218 118 134 218 118 134 218 118 134 218 118 134 218 118 134 218 118 134 218 118 133 218 118 133 218 118 133 218 117 133 218 117 133 218 117 133 218 117 133 218 117 133 218 117 133 218 117 133 218 117 133 218 117 133 218 117 133 218 117 133 218 117 133 218 117 133 218 117 133 218 117 133 218 117 133 218 117 133 218 117 133 218 117 133 218 116 132 218 116 132 218 116 132 218 116 132 218 117 133 218 117 133 218 117 133 218 116 132 217 116 132 217 116 132 217 116 132 217 116 132 217 116 132 217 116 132 217 116 132 217 116 132 217 116 132 217 116 132 217 116 132 217 116 132 217 116 132 217 116 132 217 116 132 217 116 132 217 116 132 217 116 132 217 116 132 217 116 132 217 115 131 217 115 131 217 115 131 217 115 131 217 115 131 217 115 131 217 115 131 217 115 131 217 115 131 217 115 131 217 115 131 217 115 131 217 115 131 217 115 131 217 115 131 217 115 131 217 115 131 217 115 131 217 115 131 217 115 131 217 115 131 217 115 131 217 115 131 217 115 131 217 115 131 217 115 131 217 115 131 217 115 131 217 114 131 217 114 131 217 114 131 217 114 131 217 114 131 217 114 131 217 114 130 217 114 130 217 114 130 217 114 130 217 114 130 217 114 130 217 114 130 217 114 130 217 114 130 217 114 130 217 114 130 217 114 130 217 114 130 217 114 130 217 114 130 217 114 130 217 114 130 217 114 130 217 114 130 217 114 130 217 114 130 217 114 130 217 114 130 217 114 130 217 114 130 217 113 130 217 113 130 217 113 130 217 113 130 217 113 130 217 113 130 217 113 130 217 113 130 217 113 130 217 113 130 217 113 130 217 113 130 217 113 130 217 113 130 217 113 130 217 113 130 217 113 130 217 113 130 217 113 130 217 113 130 217 113 130 217 113 130 217 113 130 217 113 130 217 113 130 217 113 130 217 113 130 217 113 130 217 113 130 217 113 130 217 113 130 217 113 130 217 113 130 217 113 130 217 113 130 217 113 130 217 113 130 217 113 130 217 113 130 217 113 130 217 113 130 217 113 130 217 113 130 217 113 130 217 113 130 217 113 130 217 113 130 217 113 130 217 113 130 217 114 130 217 114 130 217 114 130 217 114 130 217 114 130 217 114 130 217 114 130 217 114 130 217 114 130 217 114 130 217 114 130 217 114 130 217 114 130 217 114 130 217 114 130 217 114 130 217 114 130 217 114 130 217 114 130 217 114 130 217 114 130 217 114 130 217 114 130 217 114 130 217 114 130 217 114 131 217 114 131 217 114 131 217 114 131 217 114 131 217 114 131 217 115 131 217 115 131 217 115 131 217 115 131 217 115 131 217 115 131 217 115 131 217 115 131 217 115 131 217 115 131 217 115 131 217 115 131 217 115 131 217 115 131 217 115 131 217 115 131 217 115 131 217 115 131 217 115 131 217 115 131 217 115 131 217 115 131 217 115 131 217 115 131 217 115 131 217 115 131 217 115 131 217 115 131 217 116 132 217 116 132 217 116 132 217 116 132 217 116 132 217 116 132 217 116 132 217 116 132 217 116 132 217 116 132 217 116 132 217 116 132 217 116 132 217 116 132 217 116 132 217 116 132 217 116 132 217 116 132 217 116 132 217 116 132 217 116 132 217 117 133 218 117 133 218 117 133 218 116 132 218 116 132 218 116 132 218 116 132 218 117 133 218 117 133 218 117 133 218 117 133 218 117 133 218 117 133 218 117 133 218 117 133 218 117 133 218 117 133 218 117 133 218 117 133 218 117 133 218 117 133 218 117 133 218 117 133 218 117 133 218 117 133 218 117 133 218 118 133 218 118 133 218 118 133 218 118 134 218 118 134 218 118 134 218 118 134 218 118 134 218 118 134 218 118 134 218 118 134 218 118 134 218 118 134 218 118 134 218 118 134 218 118 134 218 118 134 218 118 134 218 118 134 218 118 134 218 118 134 218 119 134 218 119 134 218 119 134 218 119 134 218 119 134 218 119 134 218 119 134 218 119 134 218 
120 135 218 119 135 218 119 135 218 119 135 218 119 135 218 119 135 218 119 135 218 119 135 218 119 135 218 119 135 218 119 135 218 119 135 218 119 134 218 119 134 218 119 134 218 119 134 218 119 134 218 119 134 218 119 134 218 119 134 218 118 134 218 118 134 218 118 134 218 118 134 218 118 134 218 118 134 218 118 134 218 118 134 218 118 134 218 118 134 218 118 134 218 118 134 218 118 134 218 118 134 218 118 134 218 118 134 218 118 134 218 118 134 218 118 133 218 118 133 218 118 133 218 118 133 218 117 133 218 117 133 218 117 133 218 117 133 218 117 133 218 117 133 218 117 133 218 117 133 218 117 133 218 117 133 218 117 133 218 117 133 218 117 133 218 117 133 218 117 133 218 117 133 218 117 133 218 117 133 218 117 133 218 116 132 218 116 132 218 116 132 218 116 132 218 116 132 218 117 133 218 117 133 218 117 133 218 116 132 217 116 132 217 116 132 217 116 132 217 116 132 217 116 132 217 116 132 217 116 132 217 116 132 217 116 132 217 116 132 217 116 132 217 116 132 217 116 132 217 116 132 217 116 132 217 116 132 217 116 132 217 116 132 217 116 132 217 116 132 217 116 132 217 116 132 217 116 132 217 115 131 217 115 131 217 115 131 217 115 131 217 115 131 217 115 131 217 115 131 217 115 131 217 115 131 217 115 131 217 115 131 217 115 131 217 115 131 217 115 131 217 115 131 217 115 131 217 115 131 217 115 131 217 115 131 217 115 131 217 115 131 217 115 131 217 115 131 217 115 131 217 115 131 217 115 131 217 115 131 217 115 131 217 115 131 217 115 131 217 115 131 217 115 131 217 115 131 217 115 131 217 115 131 217 115 131 217 115 131 217 115 131 217 114 131 217 114 131 217 114 131 217 114 131 217 114 131 217 114 131 217 114 131 217 114 131 217 114 131 217 114 131 217 114 131 217 114 131 217 114 131 217 114 131 217 114 130 217 114 130 217 114 130 217 114 130 217 114 130 217 114 130 217 114 130 217 114 130 217 114 130 217 114 130 217 114 130 217 114 130 217 114 130 217 114 130 217 114 130 217 114 130 217 114 130 217 114 130 217 114 130 217 114 130 217 114 130 217 114 130 217 114 130 217 114 130 217 114 130 217 114 130 217 114 130 217 114 130 217 114 130 217 114 130 217 114 130 217 114 131 217 114 131 217 114 131 217 114 131 217 114 131 217 114 131 217 114 131 217 114 131 217 114 131 217 114 131 217 114 131 217 114 131 217 114 131 217 114 131 217 115 131 217 115 131 217 115 131 217 115 131 217 115 131 217 115 131 217 115 131 217 115 131 217 115 131 217 115 131 217 115 131 217 115 131 217 115 131 217 115 131 217 115 131 217 115 131 217 115 131 217 115 131 217 115 131 217 115 131 217 115 131 217 115 131 217 115 131 217 115 131 217 115 131 217 115 131 217 115 131 217 115 131 217 115 131 217 115 131 217 115 131 217 115 131 217 115 131 217 115 131 217 115 131 217 115 131 217 115 131 217 115 131 217 116 132 217 116 132 217 116 132 217 116 132 217 116 132 217 116 132 217 116 132 217 116 132 217 116 132 217 116 132 217 116 132 217 116 132 217 116 132 217 116 132 217 116 132 217 116 132 217 116 132 217 116 132 217 116 132 217 116 132 217 116 132 217 116 132 217 116 132 217 116 132 217 117 133 218 117 133 218 117 133 218 116 132 218 116 132 218 116 132 218 116 132 218 116 132 218 117 133 218 117 133 218 117 133 218 117 133 218 117 133 218 117 133 218 117 133 218 117 133 218 117 133 218 117 133 218 117 133 218 117 133 218 117 133 218 117 133 218 117 133 218 117 133 218 117 133 218 117 133 218 117 133 218 118 133 218 118 133 218 118 133 218 118 133 218 118 134 218 118 134 218 118 134 218 118 134 218 118 134 218 118 134 218 118 134 218 118 134 218 118 134 218 118 134 218 118 134 218 118 134 218 118 134 218 118 134 218 118 134 218 118 134 218 118 134 218 118 134 218 119 134 218 119 134 218 119 134 218 119 134 218 119 134 218 119 134 218 119 134 218 119 134 218 119 135 218 119 135 218 119 135 218 119 135 218 119 135 218 119 135 218 119 135 218 119 135 218 119 135 218 119 135 218 119 135 218 
120 135 218 120 136 218 120 136 218 120 136 218 120 136 218 120 135 218 120 135 218 120 135 218 120 135 218 120 135 218 120 135 218 120 135 218 119 135 218 119 135 218 119 135 218 119 135 218 119 135 218 119 135 218 119 135 218 119 135 218 119 135 218 119 135 218 119 135 218 119 134 218 119 134 218 119 134 218 119 134 218 119 134 218 119 134 218 119 134 218 119 134 218 118 134 218 118 134 218 118 134 218 118 134 218 118 134 218 118 134 218 118 134 218 118 134 218 118 134 218 118 134 218 118 134 218 118 134 218 118 134 218 118 134 218 118 134 218 118 134 218 118 134 218 118 134 218 118 134 218 118 133 218 118 133 218 118 133 218 118 133 218 117 133 218 117 133 218 117 133 218 117 133 218 117 133 218 117 133 218 117 133 218 117 133 218 117 133 218 117 133 218 117 133 218 117 133 218 117 133 218 117 133 218 117 133 218 117 133 218 117 133 218 117 133 218 117 133 218 117 133 218 117 133 218 116 132 218 116 132 218 116 132 218 116 132 218 116 132 218 117 133 218 117 133 218 117 133 218 117 133 218 116 132 217 116 132 217 116 132 217 116 132 217 116 132 217 116 132 217 116 132 217 116 132 217 116 132 217 116 132 217 116 132 217 116 132 217 116 132 217 116 132 217 116 132 217 116 132 217 116 132 217 116 132 217 116 132 217 116 132 217 116 132 217 116 132 217 116 132 217 116 132 217 116 132 217 116 132 217 116 132 217 115 131 217 115 131 217 115 131 217 115 131 217 115 131 217 115 131 217 115 131 217 115 131 217 115 131 217 115 131 217 115 131 217 115 131 217 115 131 217 115 131 217 115 131 217 115 131 217 115 131 217 115 131 217 115 131 217 115 131 217 115 131 217 115 131 217 115 131 217 115 131 217 115 131 217 115 131 217 115 131 217 115 131 217 115 131 217 115 131 217 115 131 217 115 131 217 115 131 217 115 131 217 115 131 217 115 131 217 115 131 217 115 131 217 115 131 217 115 131 217 115 131 217 115 131 217 115 131 217 115 131 217 115 131 217 115 131 217 115 131 217 115 131 217 115 131 217 115 131 217 115 131 217 115 131 217 115 131 217 115 131 217 115 131 217 115 131 217 115 131 217 115 131 217 115 131 217 115 131 217 115 131 217 115 131 217 115 131 217 115 131 217 115 131 217 115 131 217 115 131 217 115 131 217 115 131 217 115 131 217 115 131 217 115 131 217 115 131 217 115 131 217 115 131 217 115 131 217 115 131 217 115 131 217 115 131 217 115 131 217 115 131 217 115 131 217 115 131 217 115 131 217 115 131 217 115 131 217 115 131 217 115 131 217 115 131 217 115 131 217 115 131 217 115 131 217 115 131 217 115 131 217 115 131 217 115 131 217 115 131 217 115 131 217 115 131 217 116 132 217 116 132 217 116 132 217 116 132 217 116 132 217 116 132 217 116 132 217 116 132 217 116 132 217 116 132 217 116 132 217 116 132 217 116 132 217 116 132 217 116 132 217 116 132 217 116 132 217 116 132 217 116 132 217 116 132 217 116 132 217 116 132 217 116 132 217 116 132 217 116 132 217 116 132 217 116 132 217 117 133 218 117 133 218 117 133 218 117 133 218 116 132 218 116 132 218 116 132 218 116 132 218 116 132 218 117 133 218 117 133 218 117 133 218 117 133 218 117 133 218 117 133 218 117 133 218 117 133 218 117 133 218 117 133 218 117 133 218 117 133 218 117 133 218 117 133 218 117 133 218 117 133 218 117 133 218 117 133 218 117 133 218 117 133 218 117 133 218 118 133 218 118 133 218 118 133 218 118 133 218 118 134 218 118 134 218 118 134 218 118 134 218 118 134 218 118 134 218 118 134 218 118 134 218 118 134 218 118 134 218 118 134 218 118 134 218 118 134 218 118 134 218 118 134 218 118 134 218 118 134 218 118 134 218 118 134 218 119 134 218 119 134 218 119 134 218 119 134 218 119 134 218 119 134 218 119 134 218 119 134 218 119 135 218 119 135 218 119 135 218 119 135 218 119 135 218 119 135 218 119 135 218 119 135 218 119 135 218 119 135 218 119 135 218 120 135 218 120 135 218 120 135 218 120 135 218 120 135 218 120 135 218 120 135 218 120 136 218 120 136 218 120 136 218 120 136 218 
121 136 218 120 136 218 120 136 218 120 136 218 120 136 218 120 136 218 120 136 218 120 136 218 120 136 218 120 135 218 120 135 218 120 135 218 120 136 218 120 136 218 120 136 218 120 136 218 120 135 218 120 135 218 120 135 218 120 135 218 120 135 218 120 135 218 120 135 218 120 135 218 119 135 218 119 135 218 119 135 218 119 135 218 119 135 218 119 135 218 119 135 218 119 135 218 119 135 218 119 135 218 119 135 218 119 134 218 119 134 218 119 134 218 119 134 218 119 134 218 119 134 218 119 134 218 119 134 218 119 134 218 118 134 218 118 134 218 118 134 218 118 134 218 118 134 218 118 134 218 118 134 218 118 134 218 118 134 218 118 134 218 118 134 218 118 134 218 118 134 218 118 134 218 118 134 218 118 134 218 118 134 218 118 134 218 118 134 218 118 134 218 118 133 218 118 133 218 118 133 218 118 133 218 117 133 218 117 133 218 117 133 218 117 133 218 117 133 218 117 133 218 117 133 218 117 133 218 117 133 218 117 133 218 117 133 218 117 133 218 117 133 218 117 133 218 117 133 218 117 133 218 117 133 218 117 133 218 117 133 218 117 133 218 117 133 218 117 133 218 117 133 218 116 132 218 116 132 218 116 132 218 116 132 218 116 132 218 116 132 218 117 133 218 117 133 218 117 133 218 117 133 218 117 133 218 117 133 218 116 132 217 116 132 217 116 132 217 116 132 217 116 132 217 116 132 217 116 132 217 116 132 217 116 132 217 116 132 217 116 132 217 116 132 217 116 132 217 116 132 217 116 132 217 116 132 217 116 132 217 116 132 217 116 132 217 116 132 217 116 132 217 116 132 217 116 132 217 116 132 217 116 132 217 116 132 217 116 132 217 116 132 217 116 132 217 116 132 217 116 132 217 116 132 217 116 132 217 116 132 217 116 132 217 116 132 217 116 132 217 116 132 217 116 132 217 116 132 217 116 132 217 116 132 217 116 132 217 116 132 217 115 131 217 115 131 217 115 131 217 115 131 217 115 131 217 115 131 217 115 131 217 115 131 217 115 131 217 115 131 217 115 131 217 115 131 217 115 131 217 115 131 217 115 131 217 115 131 217 115 131 217 115 131 217 115 131 217 115 131 217 115 131 217 115 131 217 115 131 217 115 131 217 115 131 217 115 131 217 115 131 217 116 132 217 116 132 217 116 132 217 116 132 217 116 132 217 116 132 217 116 132 217 116 132 217 116 132 217 116 132 217 116 132 217 116 132 217 116 132 217 116 132 217 116 132 217 116 132 217 116 132 217 116 132 217 116 132 217 116 132 217 116 132 217 116 132 217 116 132 217 116 132 217 116 132 217 116 132 217 116 132 217 116 132 217 116 132 217 116 132 217 116 132 217 116 132 217 116 132 217 116 132 217 116 132 217 116 132 217 116 132 217 116 132 217 116 132 217 116 132 217 116 132 217 116 132 217 116 132 217 116 132 217 117 133 218 117 133 218 117 133 218 117 133 218 117 133 218 117 133 218 116 132 218 116 132 218 116 132 218 116 132 218 116 132 218 116 132 218 117 133 218 117 133 218 117 133 218 117 133 218 117 133 218 117 133 218 117 133 218 117 133 218 117 133 218 117 133 218 117 133 218 117 133 218 117 133 218 117 133 218 117 133 218 117 133 218 117 133 218 117 133 218 117 133 218 117 133 218 117 133 218 117 133 218 117 133 218 118 133 218 118 133 218 118 133 218 118 133 218 118 134 218 118 134 218 118 134 218 118 134 218 118 134 218 118 134 218 118 134 218 118 134 218 118 134 218 118 134 218 118 134 218 118 134 218 118 134 218 118 134 218 118 134 218 118 134 218 118 134 218 118 134 218 118 134 218 118 134 218 119 134 218 119 134 218 119 134 218 119 134 218 119 134 218 119 134 218 119 134 218 119 134 218 119 134 218 119 135 218 119 135 218 119 135 218 119 135 218 119 135 218 119 135 218 119 135 218 119 135 218 119 135 218 119 135 218 119 135 218 120 135 218 120 135 218 120 135 218 120 135 218 120 135 218 120 135 218 120 135 218 120 135 218 120 136 218 120 136 218 120 136 218 120 136 218 120 135 218 120 135 218 120 135 218 120 136 218 120 136 218 120 136 218 120 136 218 120 136 218 120 136 218 120 136 218 120 136 218 
121 136 219 121 136 219 121 136 219 121 136 219 121 136 219 121 136 219 121 136 219 121 136 219 121 136 218 121 136 218 121 136 218 121 136 218 120 136 218 120 136 218 120 136 218 120 136 218 120 136 218 120 136 218 120 136 218 120 136 218 120 135 218 120 135 218 120 135 218 120 135 218 120 136 218 120 136 218 120 136 218 120 136 218 120 135 218 120 135 218 120 135 218 120 135 218 120 135 218 120 135 218 120 135 218 120 135 218 119 135 218 119 135 218 119 135 218 119 135 218 119 135 218 119 135 218 119 135 218 119 135 218 119 135 218 119 135 218 119 135 218 119 135 218 119 134 218 119 134 218 119 134 218 119 134 218 119 134 218 119 134 218 119 134 218 119 134 218 119 134 218 118 134 218 118 134 218 118 134 218 118 134 218 118 134 218 118 134 218 118 134 218 118 134 218 118 134 218 118 134 218 118 134 218 118 134 218 118 134 218 118 134 218 118 134 218 118 134 218 118 134 218 118 134 218 118 134 218 118 134 218 118 134 218 118 134 218 118 133 218 118 133 218 118 133 218 118 133 218 118 133 218 117 133 218 117 133 218 117 133 218 117 133 218 117 133 218 117 133 218 117 133 218 117 133 218 117 133 218 117 133 218 117 133 218 117 133 218 117 133 218 117 133 218 117 133 218 117 133 218 117 133 218 117 133 218 117 133 218 117 133 218 117 133 218 117 133 218 117 133 218 117 133 218 117 133 218 117 133 218 117 133 218 117 133 218 116 132 218 116 132 218 116 132 218 116 132 218 116 132 218 116 132 218 116 132 218 117 133 218 117 133 218 117 133 218 117 133 218 117 133 218 117 133 218 117 133 218 117 133 218 117 133 218 116 132 217 116 132 217 116 132 217 116 132 217 116 132 217 116 132 217 116 132 217 116 132 217 116 132 217 116 132 217 116 132 217 116 132 217 116 132 217 116 132 217 116 132 217 116 132 217 116 132 217 116 132 217 116 132 217 116 132 217 116 132 217 116 132 217 116 132 217 116 132 217 116 132 217 116 132 217 116 132 217 116 132 217 116 132 217 116 132 217 116 132 217 116 132 217 116 132 217 116 132 217 116 132 217 116 132 217 116 132 217 116 132 217 116 132 217 116 132 217 116 132 217 116 132 217 116 132 217 116 132 217 116 132 217 116 132 217 116 132 217 116 132 217 116 132 217 116 132 217 116 132 217 116 132 217 116 132 217 116 132 217 116 132 217 116 132 217 116 132 217 116 132 217 116 132 217 116 132 217 116 132 217 116 132 217 116 132 217 116 132 217 116 132 217 117 133 218 117 133 218 117 133 218 117 133 218 117 133 218 117 133 218 117 133 218 117 133 218 117 133 218 116 132 218 116 132 218 116 132 218 116 132 218 116 132 218 116 132 218 116 132 218 117 133 218 117 133 218 117 133 218 117 133 218 117 133 218 117 133 218 117 133 218 117 133 218 117 133 218 117 133 218 117 133 218 117 133 218 117 133 218 117 133 218 117 133 218 117 133 218 117 133 218 117 133 218 117 133 218 117 133 218 117 133 218 117 133 218 117 133 218 117 133 218 117 133 218 117 133 218 117 133 218 117 133 218 118 133 218 118 133 218 118 133 218 118 133 218 118 133 218 118 134 218 118 134 218 118 134 218 118 134 218 118 134 218 118 134 218 118 134 218 118 134 218 118 134 218 118 134 218 118 134 218 118 134 218 118 134 218 118 134 218 118 134 218 118 134 218 118 134 218 118 134 218 118 134 218 118 134 218 118 134 218 118 134 218 119 134 218 119 134 218 119 134 218 119 134 218 119 134 218 119 134 218 119 134 218 119 134 218 119 134 218 119 135 218 119 135 218 119 135 218 119 135 218 119 135 218 119 135 218 119 135 218 119 135 218 119 135 218 119 135 218 119 135 218 119 135 218 120 135 218 120 135 218 120 135 218 120 135 218 120 135 218 120 135 218 120 135 218 120 135 218 120 136 218 120 136 218 120 136 218 120 136 218 120 135 218 120 135 218 120 135 218 120 135 218 120 136 218 120 136 218 120 136 218 120 136 218 120 136 218 120 136 218 120 136 218 120 136 218 121 136 218 121 136 218 121 136 218 121 136 218 121 136 219 121 136 219 121 136 219 121 136 219 121 136 219 121 136 219 121 136 219 
122 137 219 122 137 219 122 137 219 122 137 219 121 137 219 121 137 219 121 137 219 121 137 219 121 136 219 121 136 219 121 136 219 121 136 219 121 136 219 121 136 219 121 136 219 121 136 219 255 130 160 121 136 219 121 136 219 121 136 219 255 136 169 255 135 168 255 138 172 255 129 162 255 128 161 255 131 165 255 131 164 255 121 151 255 123 156 255 127 161 255 125 159 255 117 148 255 119 152 120 135 218 255 117 150 120 135 218 255 113 145 120 136 218 120 136 218 120 136 218 120 136 218 120 135 218 120 135 218 120 135 218 120 135 218 120 135 218 120 135 218 120 135 218 120 135 218 119 135 218 119 135 218 119 135 218 119 135 218 119 135 218 119 135 218 119 135 218 119 135 218 119 135 218 119 135 218 119 135 218 119 135 218 119 135 218 119 134 218 119 134 218 119 134 218 119 134 218 119 134 218 119 134 218 119 134 218 119 134 218 119 134 218 118 134 218 118 134 218 118 134 218 118 134 218 118 134 218 118 134 218 118 134 218 118 134 218 118 134 218 118 134 218 118 134 218 118 134 218 118 134 218 118 134 218 118 134 218 118 134 218 118 134 218 118 134 218 118 134 218 118 134 218 118 134 218 118 134 218 118 134 218 118 134 218 118 134 218 118 134 218 118 133 218 118 133 218 118 133 218 118 133 218 118 133 218 118 133 218 117 133 218 117 133 218 117 133 218 117 133 218 117 133 218 117 133 218 117 133 218 117 133 218 117 133 218 117 133 218 117 133 218 117 133 218 117 133 218 117 133 218 117 133 218 117 133 218 117 133 218 117 133 218 117 133 218 117 133 218 117 133 218 117 133 218 117 133 218 117 133 218 117 133 218 117 133 218 117 133 218 117 133 218 117 133 218 117 133 218 117 133 218 117 133 218 117 133 218 117 133 218 117 133 218 117 133 218 117 133 218 117 133 218 117 133 218 117 133 218 117 133 218 117 133 218 117 133 218 117 133 218 117 133 218 117 133 218 117 133 218 117 133 218 117 133 218 117 133 218 117 133 218 117 133 218 117 133 218 117 133 218 117 133 218 117 133 218 117 133 218 117 133 218 117 133 218 117 133 218 117 133 218 117 133 218 117 133 218 117 133 218 117 133 218 117 133 218 117 133 218 117 133 218 117 133 218 117 133 218 117 133 218 117 133 218 117 133 218 117 133 218 117 133 218 117 133 218 117 133 218 117 133 218 117 133 218 117 133 218 117 133 218 117 133 218 117 133 218 117 133 218 117 133 218 117 133 218 117 133 218 117 133 218 117 133 218 117 133 218 117 133 218 117 133 218 117 133 218 117 133 218 117 133 218 117 133 218 117 133 218 117 133 218 117 133 218 117 133 218 117 133 218 117 133 218 117 133 218 117 133 218 117 133 218 117 133 218 117 133 218 117 133 218 117 133 218 117 133 218 117 133 218 117 133 218 117 133 218 117 133 218 117 133 218 118 133 218 118 133 218 118 133 218 118 133 218 118 133 218 118 133 218 118 134 218 118 134 218 118 134 218 118 134 218 118 134 218 118 134 218 118 134 218 118 134 218 118 134 218 118 134 218 118 134 218 118 134 218 118 134 218 118 134 218 118 134 218 118 134 218 118 134 218 118 134 218 118 134 218 118 134 218 118 134 218 118 134 218 118 134 218 118 134 218 118 134 218 118 134 218 119 134 218 119 134 218 119 134 218 119 134 218 119 134 218 119 134 218 119 134 218 119 134 218 119 134 218 119 135 218 119 135 218 119 135 218 119 135 218 119 135 218 119 135 218 119 135 218 119 135 218 119 135 218 119 135 218 119 135 218 119 135 218 119 135 218 120 135 218 120 135 218 120 135 218 120 135 218 120 135 218 120 135 218 120 135 218 120 135 218 120 136 218 120 136 218 120 136 218 120 136 218 120 135 218 120 135 218 120 135 218 120 135 218 120 136 218 120 136 218 120 136 218 120 136 218 120 136 218 120 136 218 120 136 218 120 136 218 121 136 218 121 136 218 121 136 218 121 136 218 121 136 218 121 136 219 121 136 219 121 136 219 121 136 219 121 136 219 121 136 219 121 136 219 121 136 219 121 136 219 121 136 219 121 136 219 121 136 219 121 137 219 121 137 219 121 137 219 121 137 219 122 137 219 122 137 219 122 137 219 
122 137 219 122 137 219 122 137 219 122 137 219 122 137 219 122 137 219 122 137 219 122 137 219 122 137 219 122 137 219 122 137 219 122 137 219 255 145 179 255 157 191 255 161 196 255 141 173 255 156 190 255 156 191 255 169 204 255 160 195 255 154 189 255 166 202 255 163 200 255 165 201 255 167 204 255 155 192 255 165 202 255 163 200 255 156 193 255 142 179 255 150 188 255 142 179 255 139 177 255 138 176 255 136 174 255 138 177 255 130 168 255 122 159 255 122 159 255 120 157 255 111 146 255 110 144 120 136 218 255 107 138 120 136 218 120 136 218 120 135 218 120 135 218 120 135 218 120 135 218 120 135 218 120 136 218 120 136 218 120 136 218 120 136 218 120 135 218 120 135 218 120 135 218 120 135 218 120 135 218 120 135 218 120 135 218 120 135 218 120 135 218 119 135 218 119 135 218 119 135 218 119 135 218 119 135 218 119 135 218 119 135 218 119 135 218 119 135 218 119 135 218 119 135 218 119 135 218 119 135 218 119 135 218 119 134 218 119 134 218 119 134 218 119 134 218 119 134 218 119 134 218 119 134 218 119 134 218 119 134 218 119 134 218 118 134 218 118 134 218 118 134 218 118 134 218 118 134 218 118 134 218 118 134 218 118 134 218 118 134 218 118 134 218 118 134 218 118 134 218 118 134 218 118 134 218 118 134 218 118 134 218 118 134 218 118 134 218 118 134 218 118 134 218 118 134 218 118 134 218 118 134 218 118 134 218 118 134 218 118 134 218 118 134 218 118 134 218 118 134 218 118 134 218 118 134 218 118 134 218 118 134 218 118 133 218 118 133 218 118 133 218 118 133 218 118 133 218 118 133 218 118 133 218 118 133 218 118 133 218 117 133 218 117 133 218 117 133 218 117 133 218 117 133 218 117 133 218 117 133 218 117 133 218 117 133 218 117 133 218 117 133 218 117 133 218 117 133 218 117 133 218 117 133 218 117 133 218 117 133 218 117 133 218 117 133 218 117 133 218 117 133 218 117 133 218 117 133 218 117 133 218 117 133 218 117 133 218 117 133 218 117 133 218 117 133 218 117 133 218 117 133 218 117 133 218 117 133 218 117 133 218 117 133 218 117 133 218 117 133 218 117 133 218 117 133 218 117 133 218 117 133 218 117 133 218 117 133 218 117 133 218 117 133 218 117 133 218 117 133 218 117 133 218 117 133 218 117 133 218 117 133 218 117 133 218 117 133 218 117 133 218 117 133 218 117 133 218 117 133 218 117 133 218 117 133 218 117 133 218 117 133 218 118 133 218 118 133 218 118 133 218 118 133 218 118 133 218 118 133 218 118 133 218 118 133 218 118 133 218 118 134 218 118 134 218 118 134 218 118 134 218 118 134 218 118 134 218 118 134 218 118 134 218 118 134 218 118 134 218 118 134 218 118 134 218 118 134 218 118 134 218 118 134 218 118 134 218 118 134 218 118 134 218 118 134 218 118 134 218 118 134 218 118 134 218 118 134 218 118 134 218 118 134 218 118 134 218 118 134 218 118 134 218 118 134 218 118 134 218 118 134 218 118 134 218 118 134 218 119 134 218 119 134 218 119 134 218 119 134 218 119 134 218 119 134 218 119 134 218 119 134 218 119 134 218 119 134 218 119 135 218 119 135 218 119 135 218 119 135 218 119 135 218 119 135 218 119 135 218 119 135 218 119 135 218 119 135 218 119 135 218 119 135 218 119 135 218 119 135 218 120 135 218 120 135 218 120 135 218 120 135 218 120 135 218 120 135 218 120 135 218 120 135 218 120 135 218 120 136 218 120 136 218 120 136 218 120 136 218 120 135 218 120 135 218 120 135 218 120 135 218 120 135 218 120 136 218 120 136 218 120 136 218 120 136 218 120 136 218 120 136 218 120 136 218 120 136 218 121 136 218 121 136 218 121 136 218 121 136 218 121 136 218 121 136 219 121 136 219 121 136 219 121 136 219 121 136 219 121 136 219 121 136 219 121 136 219 121 136 219 121 136 219 121 136 219 121 136 219 121 137 219 121 137 219 121 137 219 121 137 219 122 137 219 122 137 219 122 137 219 122 137 219 122 137 219 122 137 219 122 137 219 122 137 219 122 137 219 122 137 219 122 137 219 122 137 219 122 137 219 122 137 219 122 137 219 122 137 219 
123 138 219 123 138 219 123 138 219 255 127 157 255 144 177 255 146 179 255 149 183 255 144 177 255 159 193 255 161 195 255 165 199 255 162 197 255 178 213 255 172 207 255 186 222 255 193 228 255 200 236 255 185 221 255 196 232 255 195 232 255 189 226 255 186 222 255 186 223 255 187 224 255 193 231 255 185 222 255 182 220 255 189 227 255 178 216 255 174 212 255 176 215 255 175 214 255 161 200 255 158 197 255 155 194 255 154 193 255 150 189 255 146 186 255 133 172 255 131 171 255 125 165 255 122 161 255 121 161 255 111 149 255 110 148 255 107 145 255 105 142 255 102 137 255 100 135 255 99 134 121 136 218 121 136 218 120 136 218 120 136 218 120 136 218 120 136 218 120 136 218 120 136 218 120 136 218 120 136 218 120 136 218 120 135 218 120 135 218 120 135 218 120 135 218 120 136 218 120 136 218 120 136 218 120 136 218 120 136 218 120 135 218 120 135 218 120 135 218 120 135 218 120 135 218 120 135 218 120 135 218 120 135 218 120 135 218 120 135 218 119 135 218 119 135 218 119 135 218 119 135 218 119 135 218 119 135 218 119 135 218 119 135 218 119 135 218 119 135 218 119 135 218 119 135 218 119 135 218 119 135 218 119 135 218 119 135 218 119 135 218 119 134 218 119 134 218 119 134 218 119 134 218 119 134 218 119 134 218 119 134 218 119 134 218 119 134 218 119 134 218 119 134 218 119 134 218 119 134 218 118 134 218 118 134 218 118 134 218 118 134 218 118 134 218 118 134 218 118 134 218 118 134 218 118 134 218 118 134 218 118 134 218 118 134 218 118 134 218 118 134 218 118 134 218 118 134 218 118 134 218 118 134 218 118 134 218 118 134 218 118 134 218 118 134 218 118 134 218 118 134 218 118 134 218 118 134 218 118 134 218 118 134 218 118 134 218 118 134 218 118 134 218 118 134 218 118 134 218 118 134 218 118 134 218 118 134 218 118 134 218 118 134 218 118 134 218 118 134 218 118 134 218 118 134 218 118 134 218 118 134 218 118 134 218 118 134 218 118 134 218 118 134 218 118 134 218 118 134 218 118 134 218 118 134 218 118 134 218 118 134 218 118 134 218 118 134 218 118 134 218 118 134 218 118 134 218 118 134 218 118 134 218 118 134 218 118 134 218 118 134 218 118 134 218 118 134 218 118 134 218 118 134 218 118 134 218 118 134 218 118 134 218 118 134 218 118 134 218 118 134 218 118 134 218 118 134 218 118 134 218 118 134 218 118 134 218 118 134 218 118 134 218 118 134 218 118 134 218 118 134 218 118 134 218 118 134 218 118 134 218 118 134 218 118 134 218 118 134 218 118 134 218 118 134 218 118 134 218 118 134 218 118 134 218 118 134 218 118 134 218 118 134 218 118 134 218 118 134 218 118 134 218 119 134 218 119 134 218 119 134 218 119 134 218 119 134 218 119 134 218 119 134 218 119 134 218 119 134 218 119 134 218 119 134 218 119 134 218 119 134 218 119 135 218 119 135 218 119 135 218 119 135 218 119 135 218 119 135 218 119 135 218 119 135 218 119 135 218 119 135 218 119 135 218 119 135 218 119 135 218 119 135 218 119 135 218 119 135 218 119 135 218 120 135 218 120 135 218 120 135 218 120 135 218 120 135 218 120 135 218 120 135 218 120 135 218 120 135 218 120 135 218 120 136 218 120 136 218 120 136 218 120 136 218 120 136 218 120 135 218 120 135 218 120 135 218 120 135 218 120 136 218 120 136 218 120 136 218 120 136 218 120 136 218 120 136 218 120 136 218 120 136 218 120 136 218 121 136 218 121 136 218 121 136 218 121 136 218 121 136 218 121 136 219 121 136 219 121 136 219 121 136 219 121 136 219 121 136 219 121 136 219 121 136 219 121 136 219 121 136 219 121 136 219 121 136 219 121 136 219 121 137 219 121 137 219 121 137 219 121 137 219 122 137 219 122 137 219 122 137 219 122 137 219 122 137 219 122 137 219 122 137 219 122 137 219 122 137 219 122 137 219 122 137 219 122 137 219 122 137 219 122 137 219 122 137 219 122 137 219 122 137 219 122 137 219 122 137 219 122 137 219 122 137 219 122 137 219 122 137 219 122 137 219 122 137 219 122 137 219 123 138 219 123 138 219 123 138 219 
255 130 161 255 143 176 255 135 167 255 151 185 255 156 190 255 170 206 255 176 211 255 188 224 255 186 222 255 190 225 255 201 236 255 205 240 255 216 252 255 206 242 255 216 252 255 210 246 255 213 249 255 221 255 255 224 255 255 226 255 255 220 255 255 226 255 255 218 255 255 219 255 255 217 254 255 214 252 255 212 250 255 210 248 255 209 248 255 204 243 255 201 241 255 195 234 255 190 230 255 178 218 255 175 216 255 170 210 255 163 204 255 159 199 255 156 197 255 147 188 255 144 185 255 141 182 255 127 168 255 126 167 255 119 160 255 116 156 255 109 148 255 107 148 255 104 143 255 101 141 255 100 139 255 97 136 255 96 133 255 95 130 121 136 219 121 136 219 121 136 219 121 136 219 121 136 219 121 136 219 121 136 219 121 136 219 121 136 219 121 136 218 121 136 218 121 136 218 121 136 218 121 136 218 120 136 218 120 136 218 120 136 218 120 136 218 120 136 218 120 136 218 120 136 218 120 136 218 120 136 218 120 135 218 120 135 218 120 135 218 120 135 218 120 135 218 120 135 218 120 136 218 120 136 218 120 136 218 120 136 218 120 136 218 120 136 218 120 135 218 120 135 218 120 135 218 120 135 218 120 135 218 120 135 218 120 135 218 120 135 218 120 135 218 120 135 218 120 135 218 119 135 218 119 135 218 119 135 218 119 135 218 119 135 218 119 135 218 119 135 218 119 135 218 119 135 218 119 135 218 119 135 218 119 135 218 119 135 218 119 135 218 119 135 218 119 135 218 119 135 218 119 135 218 119 135 218 119 135 218 119 135 218 119 135 218 119 135 218 119 135 218 119 134 218 119 134 218 119 134 218 119 134 218 119 134 218 119 134 218 119 134 218 119 134 218 119 134 218 119 134 218 119 134 218 119 134 218 119 134 218 119 134 218 119 134 218 119 134 218 119 134 218 119 134 218 119 134 218 119 134 218 119 134 218 119 134 218 119 134 218 119 134 218 119 134 218 119 134 218 119 134 218 119 134 218 119 134 218 119 134 218 119 134 218 118 134 218 118 134 218 118 134 218 118 134 218 118 134 218 118 134 218 118 134 218 118 134 218 118 134 218 118 134 218 118 134 218 119 134 218 119 134 218 119 134 218 119 134 218 119 134 218 119 134 218 119 134 218 119 134 218 119 134 218 119 134 218 119 134 218 119 134 218 119 134 218 119 134 218 119 134 218 119 134 218 119 134 218 119 134 218 119 134 218 119 134 218 119 134 218 119 134 218 119 134 218 119 134 218 119 134 218 119 134 218 119 134 218 119 134 218 119 134 218 119 134 218 119 134 218 119 135 218 119 135 218 119 135 218 119 135 218 119 135 218 119 135 218 119 135 218 119 135 218 119 135 218 119 135 218 119 135 218 119 135 218 119 135 218 119 135 218 119 135 218 119 135 218 119 135 218 119 135 218 119 135 218 119 135 218 119 135 218 119 135 218 119 135 218 119 135 218 120 135 218 120 135 218 120 135 218 120 135 218 120 135 218 120 135 218 120 135 218 120 135 218 120 135 218 120 135 218 120 135 218 120 136 218 120 136 218 120 136 218 120 136 218 120 136 218 120 136 218 120 135 218 120 135 218 120 135 218 120 135 218 120 135 218 120 135 218 120 136 218 120 136 218 120 136 218 120 136 218 120 136 218 120 136 218 120 136 218 120 136 218 120 136 218 121 136 218 121 136 218 121 136 218 121 136 218 121 136 218 121 136 219 121 136 219 121 136 219 121 136 219 121 136 219 121 136 219 121 136 219 121 136 219 121 136 219 121 136 219 121 136 219 121 136 219 121 136 219 121 136 219 121 137 219 121 137 219 121 137 219 121 137 219 121 137 219 122 137 219 122 137 219 122 137 219 122 137 219 122 137 219 122 137 219 122 137 219 122 137 219 122 137 219 122 137 219 122 137 219 122 137 219 122 137 219 122 137 219 122 137 219 122 137 219 122 137 219 122 137 219 122 137 219 122 137 219 122 137 219 122 137 219 122 137 219 122 137 219 122 137 219 122 137 219 122 137 219 123 138 219 123 138 219 123 138 219 123 138 219 123 138 219 123 138 219 123 138 219 123 138 219 123 138 219 123 138 219 123 138 219 123 138 219 123 138 219 123 138 219 123 138 219 123 138 219 
255 156 190 255 176 212 255 173 208 255 179 214 255 177 213 255 191 226 255 196 231 255 209 245 255 207 243 255 216 252 255 216 252 255 225 255 255 228 255 255 237 255 255 240 255 255 249 255 255 237 255 255 245 255 255 245 255 255 248 255 255 246 255 255 244 255 255 251 255 255 245 255 255 242 255 255 239 255 255 238 255 255 229 255 255 226 255 255 221 255 255 218 255 255 214 254 255 209 248 255 205 245 255 191 231 255 193 233 255 185 226 255 177 219 255 168 210 255 166 207 255 155 197 255 152 194 255 144 186 255 139 182 255 136 179 255 125 167 255 121 163 255 116 158 255 112 155 255 107 149 255 103 144 255 99 139 255 98 139 255 95 135 255 93 132 255 91 129 255 90 128 255 90 126 122 137 219 122 137 219 121 137 219 121 137 219 121 137 219 121 137 219 121 137 219 121 136 219 121 136 219 121 136 219 121 136 219 121 136 219 121 136 219 121 136 219 121 136 219 121 136 219 121 136 219 121 136 219 121 136 219 121 136 219 121 136 219 121 136 219 121 136 218 121 136 218 121 136 218 121 136 218 121 136 218 121 136 218 120 136 218 120 136 218 120 136 218 120 136 218 120 136 218 120 136 218 120 136 218 120 136 218 120 136 218 120 136 218 120 136 218 120 136 218 120 135 218 120 135 218 120 135 218 120 135 218 120 135 218 120 135 218 120 136 218 120 136 218 120 136 218 120 136 218 120 136 218 120 136 218 120 136 218 120 136 218 120 135 218 120 135 218 120 135 218 120 135 218 120 135 218 120 135 218 120 135 218 120 135 218 120 135 218 120 135 218 120 135 218 120 135 218 120 135 218 120 135 218 120 135 218 120 135 218 120 135 218 120 135 218 119 135 218 119 135 218 119 135 218 119 135 218 119 135 218 119 135 218 119 135 218 119 135 218 119 135 218 119 135 218 119 135 218 119 135 218 119 135 218 119 135 218 119 135 218 119 135 218 119 135 218 119 135 218 119 135 218 119 135 218 119 135 218 119 135 218 119 135 218 119 135 218 119 135 218 119 135 218 119 135 218 119 135 218 119 135 218 119 135 218 119 135 218 119 135 218 119 135 218 119 135 218 119 135 218 119 135 218 119 135 218 119 135 218 119 135 218 119 135 218 119 135 218 119 135 218 119 135 218 119 135 218 119 135 218 119 135 218 119 135 218 119 135 218 119 135 218 119 135 218 119 135 218 119 135 218 119 135 218 119 135 218 119 135 218 119 135 218 119 135 218 119 135 218 119 135 218 119 135 218 119 135 218 120 135 218 120 135 218 120 135 218 120 135 218 120 135 218 120 135 218 120 135 218 120 135 218 120 135 218 120 135 218 120 135 218 120 135 218 120 135 218 120 135 218 120 135 218 120 135 218 120 135 218 120 135 218 120 136 218 120 136 218 120 136 218 120 136 218 120 136 218 120 136 218 120 136 218 120 136 218 120 135 218 120 135 218 120 135 218 120 135 218 120 135 218 120 135 218 120 136 218 120 136 218 120 136 218 120 136 218 120 136 218 120 136 218 120 136 218 120 136 218 120 136 218 120 136 218 120 136 218 120 136 218 121 136 218 121 136 218 121 136 218 121 136 218 121 136 218 121 136 218 121 136 219 121 136 219 121 136 219 121 136 219 121 136 219 121 136 219 121 136 219 121 136 219 121 136 219 121 136 219 121 136 219 121 136 219 121 136 219 121 136 219 121 136 219 121 137 219 121 137 219 121 137 219 121 137 219 121 137 219 122 137 219 122 137 219 122 137 219 122 137 219 122 137 219 122 137 219 122 137 219 122 137 219 122 137 219 122 137 219 122 137 219 122 137 219 122 137 219 122 137 219 122 137 219 122 137 219 122 137 219 122 137 219 122 137 219 122 137 219 122 137 219 122 137 219 122 137 219 122 137 219 122 137 219 122 137 219 122 137 219 122 137 219 123 138 219 123 138 219 123 138 219 123 138 219 123 138 219 123 138 219 123 138 219 123 138 219 123 138 219 123 138 219 123 138 219 123 138 219 123 138 219 123 138 219 123 138 219 123 138 219 123 138 219 123 138 219 123 138 219 123 138 219 123 138 219 123 138 219 123 138 219 124 139 219 124 139 219 124 139 219 124 139 219 124 139 219 123 138 219 123 138 219 123 138 219 
255 180 216 255 182 218 255 196 232 255 212 248 255 214 250 255 219 254 255 224 255 255 228 255 255 234 255 255 241 255 255 245 255 255 255 255 255 248 255 255 255 255 255 255 255 255 255 255 255 255 255 255 255 255 255 255 255 255 255 255 255 255 255 255 255 255 255 255 255 255 255 255 255 255 255 255 255 255 255 253 255 255 251 255 255 250 255 255 243 255 255 233 255 255 232 255 255 226 255 255 217 255 255 214 255 255 209 250 255 205 246 255 192 233 255 185 227 255 180 222 255 174 217 255 164 207 255 156 199 255 148 191 255 145 188 255 134 177 255 131 174 255 126 169 255 121 164 255 117 161 255 108 151 255 105 148 255 102 144 255 98 141 255 94 136 255 92 133 251 89 130 246 88 128 246 87 126 243 86 125 241 86 124 240 86 122 122 137 219 122 137 219 122 137 219 122 137 219 122 137 219 122 137 219 122 137 219 122 137 219 122 137 219 122 137 219 122 137 219 122 137 219 122 137 219 122 137 219 122 137 219 121 137 219 121 137 219 121 137 219 121 137 219 121 137 219 121 137 219 121 136 219 121 136 219 121 136 219 121 136 219 121 136 219 121 136 219 121 136 219 121 136 219 121 136 219 121 136 219 121 136 219 121 136 219 121 136 219 121 136 219 121 136 219 121 136 219 121 136 219 121 136 219 121 136 219 121 136 218 121 136 218 121 136 218 121 136 218 121 136 218 121 136 218 121 136 218 120 136 218 120 136 218 120 136 218 120 136 218 120 136 218 120 136 218 120 136 218 120 136 218 120 136 218 120 136 218 120 136 218 120 136 218 120 136 218 120 136 218 120 136 218 120 136 218 120 136 218 120 136 218 120 136 218 120 135 218 120 135 218 120 135 218 120 135 218 120 135 218 120 135 218 120 135 218 120 135 218 120 135 218 120 135 218 120 135 218 120 135 218 120 135 218 120 136 218 120 136 218 120 136 218 120 136 218 120 136 218 120 136 218 120 136 218 120 136 218 120 136 218 120 136 218 120 136 218 120 136 218 120 136 218 120 136 218 120 136 218 120 136 218 120 136 218 120 136 218 120 136 218 120 136 218 120 136 218 120 136 218 120 136 218 120 136 218 120 136 218 120 136 218 120 136 218 120 136 218 120 136 218 120 136 218 120 136 218 120 136 218 120 136 218 120 136 218 120 136 218 120 136 218 120 136 218 120 136 218 120 136 218 120 135 218 120 135 218 120 135 218 120 135 218 120 135 218 120 135 218 120 135 218 120 135 218 120 135 218 120 135 218 120 135 218 120 135 218 120 135 218 120 136 218 120 136 218 120 136 218 120 136 218 120 136 218 120 136 218 120 136 218 120 136 218 120 136 218 120 136 218 120 136 218 120 136 218 120 136 218 120 136 218 120 136 218 120 136 218 120 136 218 120 136 218 120 136 218 121 136 218 121 136 218 121 136 218 121 136 218 121 136 218 121 136 218 121 136 218 121 136 219 121 136 219 121 136 219 121 136 219 121 136 219 121 136 219 121 136 219 121 136 219 121 136 219 121 136 219 121 136 219 121 136 219 121 136 219 121 136 219 121 136 219 121 136 219 121 136 219 121 136 219 121 136 219 121 137 219 121 137 219 121 137 219 121 137 219 121 137 219 121 137 219 122 137 219 122 137 219 122 137 219 122 137 219 122 137 219 122 137 219 122 137 219 122 137 219 122 137 219 122 137 219 122 137 219 122 137 219 122 137 219 122 137 219 122 137 219 122 137 219 122 137 219 122 137 219 122 137 219 122 137 219 122 137 219 122 137 219 122 137 219 122 137 219 122 137 219 122 137 219 122 137 219 122 137 219 122 137 219 122 137 219 123 138 219 123 138 219 123 138 219 123 138 219 123 138 219 123 138 219 123 138 219 123 138 219 123 138 219 123 138 219 123 138 219 123 138 219 123 138 219 123 138 219 123 138 219 123 138 219 123 138 219 123 138 219 123 138 219 123 138 219 123 138 219 123 138 219 123 138 219 123 138 219 124 139 219 124 139 219 124 139 219 124 139 219 123 138 219 123 138 219 123 138 219 123 138 219 123 138 219 124 139 219 124 139 219 124 139 219 124 139 219 124 139 219 124 139 219 124 139 219 124 139 219 124 139 219 124 139 219 124 139 219 124 139 219 124 139 219 
255 187 223 255 202 238 255 214 249 255 219 255 255 228 255 255 235 255 255 238 255 255 239 255 255 250 255 255 255 255 255 255 255 255 255 255 255 255 255 255 255 255 255 255 255 255 255 255 255 255 255 255 255 255 255 255 255 255 255 255 255 255 255 255 255 255 255 255 255 255 255 255 255 255 255 255 255 255 255 255 255 255 255 255 255 255 255 255 255 255 255 251 255 255 247 255 255 238 255 255 235 255 255 225 255 255 220 255 255 212 253 255 207 248 255 199 241 255 189 231 255 184 226 255 174 217 255 170 213 255 163 206 255 156 199 255 147 191 255 138 182 255 134 177 255 129 173 255 122 166 255 117 161 255 112 156 255 108 152 255 103 147 255 98 142 251 95 138 246 92 135 241 88 131 237 87 130 237 85 126 235 84 124 234 84 122 232 84 122 227 82 121 232 87 120 227 86 120 122 137 219 122 137 219 122 137 219 122 137 219 122 137 219 122 137 219 122 137 219 122 137 219 122 137 219 122 137 219 122 137 219 122 137 219 122 137 219 122 137 219 122 137 219 122 137 219 122 137 219 122 137 219 122 137 219 122 137 219 122 137 219 122 137 219 122 137 219 122 137 219 122 137 219 122 137 219 122 137 219 122 137 219 122 137 219 122 137 219 122 137 219 122 137 219 122 137 219 121 137 219 121 137 219 121 137 219 121 137 219 121 137 219 121 137 219 121 137 219 121 136 219 121 136 219 121 136 219 121 136 219 121 136 219 121 136 219 121 136 219 121 136 219 121 136 219 121 136 219 121 136 219 121 136 219 121 136 219 121 136 219 121 136 219 121 136 219 121 136 219 121 136 219 121 136 219 121 136 219 121 136 219 121 136 219 121 136 219 121 136 219 121 136 219 121 136 219 121 136 219 121 136 219 121 136 219 121 136 219 121 136 218 121 136 218 121 136 218 121 136 218 121 136 218 121 136 218 121 136 218 121 136 218 121 136 218 121 136 218 121 136 218 121 136 218 121 136 218 121 136 218 121 136 218 121 136 218 121 136 218 121 136 218 121 136 218 121 136 218 121 136 218 121 136 218 121 136 218 121 136 218 121 136 218 121 136 218 121 136 218 121 136 218 121 136 218 121 136 218 121 136 218 121 136 218 121 136 218 121 136 218 121 136 218 121 136 218 121 136 218 121 136 218 121 136 218 121 136 218 121 136 218 121 136 218 121 136 218 121 136 218 121 136 218 121 136 218 121 136 218 121 136 218 121 136 218 121 136 219 121 136 219 121 136 219 121 136 219 121 136 219 121 136 219 121 136 219 121 136 219 121 136 219 121 136 219 121 136 219 121 136 219 121 136 219 121 136 219 121 136 219 121 136 219 121 136 219 121 136 219 121 136 219 121 136 219 121 136 219 121 136 219 121 136 219 121 136 219 121 136 219 121 136 219 121 136 219 121 136 219 121 136 219 121 136 219 121 137 219 121 137 219 121 137 219 121 137 219 121 137 219 121 137 219 121 137 219 122 137 219 122 137 219 122 137 219 122 137 219 122 137 219 122 137 219 122 137 219 122 137 219 122 137 219 122 137 219 122 137 219 122 137 219 122 137 219 122 137 219 122 137 219 122 137 219 122 137 219 122 137 219 122 137 219 122 137 219 122 137 219 122 137 219 122 137 219 122 137 219 122 137 219 122 137 219 122 137 219 122 137 219 122 137 219 122 137 219 122 137 219 122 137 219 122 137 219 122 137 219 122 137 219 123 138 219 123 138 219 123 138 219 123 138 219 123 138 219 123 138 219 123 138 219 123 138 219 123 138 219 123 138 219 123 138 219 123 138 219 123 138 219 123 138 219 123 138 219 123 138 219 123 138 219 123 138 219 123 138 219 123 138 219 123 138 219 123 138 219 123 138 219 123 138 219 123 138 219 124 139 219 124 139 219 124 139 219 124 139 219 124 139 219 123 138 219 123 138 219 123 138 219 123 138 219 123 138 219 124 139 219 124 139 219 124 139 219 124 139 219 124 139 219 124 139 219 124 139 219 124 139 219 124 139 219 124 139 219 124 139 219 124 139 219 124 139 219 124 139 219 124 139 219 124 139 219 124 139 219 124 139 219 124 139 219 124 139 219 124 139 219 124 139 219 124 139 219 124 139 219 125 139 219 125 139 219 125 139 219 125 139 219 
255 208 244 255 219 255 255 226 255 255 232 255 255 242 255 255 242 255 255 250 255 255 255 255 255 255 255 255 255 255 255 255 255 255 255 255 255 255 255 255 255 255 255 255 255 255 255 255 255 255 255 255 255 255 255 255 255 255 255 255 255 255 255 255 255 255 255 255 255 255 255 255 255 255 255 255 255 255 255 255 255 255 255 255 255 255 255 255 255 255 255 255 255 255 255 255 255 251 255 255 247 255 255 240 255 255 231 255 255 226 255 255 215 255 255 209 250 255 203 245 255 195 237 255 185 228 255 180 223 255 169 212 255 162 205 255 155 198 255 149 193 255 141 185 255 135 179 255 129 173 255 123 167 255 116 160 255 112 157 255 106 150 253 103 147 247 97 141 244 94 138 238 90 134 234 88 132 231 85 128 226 83 126 224 82 124 221 80 122 219 80 121 222 81 119 218 80 118 220 84 119 215 82 118 123 138 219 123 138 219 123 138 219 123 138 219 123 138 219 123 138 219 123 138 219 123 138 219 123 138 219 123 138 219 123 138 219 123 138 219 123 138 219 123 138 219 123 138 219 123 138 219 122 137 219 122 137 219 122 137 219 122 137 219 122 137 219 122 137 219 122 137 219 122 137 219 122 137 219 122 137 219 122 137 219 122 137 219 122 137 219 122 137 219 122 137 219 122 137 219 122 137 219 122 137 219 122 137 219 122 137 219 122 137 219 122 137 219 122 137 219 122 137 219 122 137 219 122 137 219 122 137 219 122 137 219 122 137 219 122 137 219 122 137 219 122 137 219 122 137 219 122 137 219 122 137 219 122 137 219 122 137 219 122 137 219 122 137 219 122 137 219 122 137 219 122 137 219 122 137 219 122 137 219 122 137 219 122 137 219 122 137 219 122 137 219 122 137 219 122 137 219 121 137 219 121 137 219 121 137 219 121 137 219 121 137 219 121 137 219 121 137 219 121 137 219 121 137 219 121 137 219 121 137 219 121 137 219 121 137 219 121 137 219 121 137 219 121 137 219 121 137 219 121 137 219 121 137 219 121 137 219 121 137 219 121 137 219 121 137 219 121 137 219 121 137 219 121 137 219 121 137 219 121 137 219 121 137 219 121 137 219 121 137 219 121 137 219 121 137 219 121 137 219 121 137 219 121 137 219 121 137 219 121 137 219 121 137 219 121 137 219 121 137 219 121 137 219 121 137 219 121 137 219 121 137 219 121 137 219 121 137 219 121 137 219 121 137 219 121 137 219 121 137 219 121 137 219 121 137 219 122 137 219 122 137 219 122 137 219 122 137 219 122 137 219 122 137 219 122 137 219 122 137 219 122 137 219 122 137 219 122 137 219 122 137 219 122 137 219 122 137 219 122 137 219 122 137 219 122 137 219 122 137 219 122 137 219 122 137 219 122 137 219 122 137 219 122 137 219 122 137 219 122 137 219 122 137 219 122 137 219 122 137 219 122 137 219 122 137 219 122 137 219 122 137 219 122 137 219 122 137 219 122 137 219 122 137 219 122 137 219 122 137 219 122 137 219 122 137 219 122 137 219 122 137 219 122 137 219 122 137 219 122 137 219 122 137 219 122 137 219 122 137 219 122 137 219 122 137 219 123 138 219 123 138 219 123 138 219 123 138 219 123 138 219 123 138 219 123 138 219 123 138 219 123 138 219 123 138 219 123 138 219 123 138 219 123 138 219 123 138 219 123 138 219 123 138 219 123 138 219 123 138 219 123 138 219 123 138 219 123 138 219 123 138 219 123 138 219 123 138 219 123 138 219 123 138 219 123 138 219 123 138 219 124 139 219 124 139 219 124 139 219 124 139 219 124 139 219 123 138 219 123 138 219 123 138 219 123 138 219 123 138 219 123 138 219 124 139 219 124 139 219 124 139 219 124 139 219 124 139 219 124 139 219 124 139 219 124 139 219 124 139 219 124 139 219 124 139 219 124 139 219 124 139 219 124 139 219 124 139 219 124 139 219 124 139 219 124 139 219 124 139 219 124 139 219 124 139 219 124 139 219 124 139 219 124 139 219 124 139 219 125 139 219 125 139 219 125 139 219 125 139 219 125 139 219 125 140 219 125 140 219 125 140 219 125 140 219 125 140 219 125 140 219 125 140 219 125 140 219 125 140 219 125 140 219 125 140 220 125 140 220 125 140 220 125 140 220 
255 218 254 255 231 255 255 235 255 255 241 255 255 246 255 255 255 255 255 255 255 255 255 255 255 255 255 255 255 255 255 255 255 255 255 255 255 255 255 255 255 255 255 255 255 255 255 255 255 255 255 255 255 255 255 255 255 255 255 255 255 255 255 255 255 255 255 255 255 255 255 255 255 255 255 255 255 255 255 255 255 255 255 255 255 255 255 255 255 255 255 255 255 255 255 255 255 255 255 255 254 255 255 246 255 255 240 255 255 231 255 255 223 255 255 217 255 255 208 250 255 203 245 255 193 236 255 185 227 255 178 221 255 171 214 255 161 205 255 154 198 255 147 191 255 142 186 255 133 178 255 128 173 255 123 169 255 119 164 255 110 155 251 106 151 246 101 146 241 97 142 235 94 138 229 90 134 226 86 131 221 83 128 219 81 125 215 80 123 213 79 121 210 78 120 208 77 118 206 76 117 208 78 117 209 81 117 207 81 116 124 139 219 124 139 219 124 139 219 124 139 219 124 139 219 123 138 219 123 138 219 123 138 219 123 138 219 123 138 219 123 138 219 123 138 219 123 138 219 123 138 219 123 138 219 123 138 219 123 138 219 123 138 219 123 138 219 123 138 219 123 138 219 123 138 219 123 138 219 123 138 219 123 138 219 123 138 219 123 138 219 123 138 219 123 138 219 123 138 219 123 138 219 123 138 219 123 138 219 123 138 219 123 138 219 123 138 219 123 138 219 123 138 219 123 138 219 123 138 219 122 137 219 122 137 219 122 137 219 122 137 219 122 137 219 122 137 219 122 137 219 122 137 219 122 137 219 122 137 219 122 137 219 122 137 219 122 137 219 122 137 219 122 137 219 122 137 219 122 137 219 122 137 219 122 137 219 122 137 219 122 137 219 122 137 219 122 137 219 122 137 219 122 137 219 122 137 219 122 137 219 122 137 219 122 137 219 122 137 219 122 137 219 122 137 219 122 137 219 122 137 219 122 137 219 122 137 219 122 137 219 122 137 219 122 137 219 122 137 219 122 137 219 122 137 219 122 137 219 122 137 219 122 137 219 122 137 219 122 137 219 122 137 219 122 137 219 122 137 219 122 137 219 122 137 219 122 137 219 122 137 219 122 137 219 122 137 219 122 137 219 122 137 219 122 137 219 122 137 219 122 137 219 122 137 219 122 137 219 122 137 219 122 137 219 122 137 219 122 137 219 122 137 219 122 137 219 122 137 219 122 137 219 122 137 219 122 137 219 122 137 219 122 137 219 122 137 219 122 137 219 122 137 219 122 137 219 122 137 219 122 137 219 122 137 219 122 137 219 122 137 219 122 137 219 122 137 219 122 137 219 122 137 219 122 137 219 122 137 219 122 137 219 122 137 219 122 137 219 122 137 219 122 137 219 122 137 219 122 137 219 122 137 219 122 137 219 122 137 219 122 137 219 123 138 219 123 138 219 123 138 219 123 138 219 123 138 219 123 138 219 123 138 219 123 138 219 123 138 219 123 138 219 123 138 219 123 138 219 123 138 219 123 138 219 123 138 219 123 138 219 123 138 219 123 138 219 123 138 219 123 138 219 123 138 219 123 138 219 123 138 219 123 138 219 123 138 219 123 138 219 123 138 219 123 138 219 123 138 219 123 138 219 123 138 219 123 138 219 123 138 219 123 138 219 123 138 219 124 139 219 124 139 219 124 139 219 124 139 219 124 139 219 124 139 219 123 138 219 123 138 219 123 138 219 123 138 219 123 138 219 124 139 219 124 139 219 124 139 219 124 139 219 124 139 219 124 139 219 124 139 219 124 139 219 124 139 219 124 139 219 124 139 219 124 139 219 124 139 219 124 139 219 124 139 219 124 139 219 124 139 219 124 139 219 124 139 219 124 139 219 124 139 219 124 139 219 124 139 219 124 139 219 124 139 219 124 139 219 124 139 219 125 139 219 125 139 219 125 139 219 125 139 219 125 139 219 125 140 219 125 140 219 125 140 219 125 140 219 125 140 219 125 140 219 125 140 219 125 140 219 125 140 219 125 140 219 125 140 219 125 140 220 125 140 220 125 140 220 125 140 220 125 140 220 125 140 219 125 140 219 125 140 219 125 140 219 125 140 219 125 140 219 125 140 219 125 140 219 125 140 219 125 140 219 125 140 219 126 141 219 126 141 219 126 141 219 126 141 219 
255 227 255 255 238 255 255 240 255 255 248 255 255 254 255 255 255 255 255 255 255 255 255 255 255 255 255 255 255 255 255 255 255 255 255 255 255 255 255 255 255 255 255 255 255 255 255 255 255 255 255 255 255 255 255 255 255 255 255 255 255 255 255 255 255 255 255 255 255 255 255 255 255 255 255 255 255 255 255 255 255 255 255 255 255 255 255 255 255 255 255 255 255 255 255 255 255 255 255 255 255 255 255 249 255 255 243 255 255 237 255 255 229 255 255 223 255 255 216 255 255 208 250 255 197 239 255 191 233 255 183 226 255 175 218 255 168 211 255 160 205 255 153 197 255 146 191 255 138 183 255 132 177 255 126 171 255 120 165 255 115 160 250 110 156 244 105 150 237 98 144 231 94 140 226 91 136 221 88 133 217 84 129 212 82 126 210 80 123 205 78 121 205 76 119 201 75 118 200 75 116 198 74 116 198 75 115 194 74 114 196 76 114 199 81 115 194 80 114 124 139 219 124 139 219 124 139 219 124 139 219 124 139 219 124 139 219 124 139 219 124 139 219 124 139 219 124 139 219 124 139 219 124 139 219 123 138 219 123 138 219 123 138 219 123 138 219 123 138 219 123 138 219 123 138 219 123 138 219 124 139 219 124 139 219 124 139 219 124 139 219 124 139 219 124 139 219 124 139 219 123 138 219 123 138 219 123 138 219 123 138 219 123 138 219 123 138 219 123 138 219 123 138 219 123 138 219 123 138 219 123 138 219 123 138 219 123 138 219 123 138 219 123 138 219 123 138 219 123 138 219 123 138 219 123 138 219 123 138 219 123 138 219 123 138 219 123 138 219 123 138 219 123 138 219 123 138 219 123 138 219 123 138 219 123 138 219 123 138 219 123 138 219 123 138 219 123 138 219 123 138 219 123 138 219 123 138 219 123 138 219 123 138 219 123 138 219 123 138 219 123 138 219 123 138 219 123 138 219 123 138 219 123 138 219 123 138 219 123 138 219 123 138 219 123 138 219 123 138 219 123 138 219 123 138 219 123 138 219 123 138 219 123 138 219 123 138 219 123 138 219 123 138 219 123 138 219 123 138 219 123 138 219 123 138 219 123 138 219 123 138 219 123 138 219 123 138 219 123 138 219 123 138 219 123 138 219 123 138 219 123 138 219 123 138 219 123 138 219 123 138 219 123 138 219 123 138 219 123 138 219 123 138 219 123 138 219 123 138 219 123 138 219 123 138 219 123 138 219 123 138 219 123 138 219 123 138 219 123 138 219 123 138 219 123 138 219 123 138 219 123 138 219 123 138 219 123 138 219 123 138 219 123 138 219 123 138 219 123 138 219 123 138 219 123 138 219 123 138 219 123 138 219 123 138 219 123 138 219 123 138 219 123 138 219 123 138 219 123 138 219 123 138 219 123 138 219 123 138 219 123 138 219 123 138 219 123 138 219 123 138 219 123 138 219 123 138 219 123 138 219 123 138 219 123 138 219 123 138 219 123 138 219 124 139 219 124 139 219 124 139 219 124 139 219 124 139 219 124 139 219 124 139 219 123 138 219 123 138 219 123 138 219 123 138 219 123 138 219 123 138 219 123 138 219 123 138 219 124 139 219 124 139 219 124 139 219 124 139 219 124 139 219 124 139 219 124 139 219 124 139 219 124 139 219 124 139 219 124 139 219 124 139 219 124 139 219 124 139 219 124 139 219 124 139 219 124 139 219 124 139 219 124 139 219 124 139 219 124 139 219 124 139 219 124 139 219 124 139 219 124 139 219 124 139 219 124 139 219 124 139 219 124 139 219 124 139 219 125 139 219 125 139 219 125 139 219 125 139 219 125 139 219 125 140 219 125 140 219 125 140 219 125 140 219 125 140 219 125 140 219 125 140 219 125 140 219 125 140 219 125 140 219 125 140 219 125 140 220 125 140 220 125 140 220 125 140 220 125 140 220 125 140 220 125 140 219 125 140 219 125 140 219 125 140 219 125 140 219 125 140 219 125 140 219 125 140 219 125 140 219 125 140 219 125 140 219 126 141 219 126 141 219 126 141 219 126 141 219 126 141 219 126 141 219 126 141 219 126 141 219 126 141 219 126 141 219 126 141 219 126 141 220 126 141 220 126 141 220 126 141 220 126 141 220 126 141 220 126 141 220 126 141 220 126 141 220 126 141 220 
255 231 255 255 238 255 255 246 255 255 249 255 255 255 255 255 255 255 255 255 255 255 255 255 255 255 255 255 255 255 255 255 255 255 255 255 255 255 255 255 255 255 255 255 255 255 255 255 255 255 255 255 255 255 255 255 255 255 255 255 255 255 255 255 255 255 255 255 255 255 255 255 255 255 255 255 255 255 255 255 255 255 255 255 255 255 255 255 255 255 255 255 255 255 255 255 255 255 255 255 255 255 255 254 255 255 248 255 255 242 255 255 233 255 255 226 255 255 221 255 255 211 253 255 201 244 255 194 236 255 188 231 255 181 224 255 172 215 255 163 207 255 157 201 255 150 195 255 142 187 255 136 181 255 130 175 255 123 169 252 116 161 247 112 158 241 108 153 233 101 147 228 97 143 223 93 138 218 88 134 213 86 131 208 82 128 206 80 124 201 77 122 197 76 120 194 74 118 191 73 116 192 73 115 189 72 114 187 72 113 188 73 112 184 72 112 185 74 112 187 78 112 125 139 219 125 139 219 124 139 219 124 139 219 124 139 219 124 139 219 124 139 219 124 139 219 124 139 219 124 139 219 124 139 219 124 139 219 124 139 219 124 139 219 124 139 219 124 139 219 124 139 219 124 139 219 124 139 219 124 139 219 124 139 219 124 139 219 124 139 219 124 139 219 124 139 219 124 139 219 124 139 219 124 139 219 124 139 219 124 139 219 124 139 219 124 139 219 124 139 219 124 139 219 124 139 219 124 139 219 124 139 219 124 139 219 124 139 219 124 139 219 123 138 219 123 138 219 123 138 219 123 138 219 123 138 219 123 138 219 123 138 219 123 138 219 123 138 219 123 138 219 123 138 219 124 139 219 124 139 219 124 139 219 124 139 219 124 139 219 124 139 219 124 139 219 124 139 219 124 139 219 124 139 219 124 139 219 124 139 219 124 139 219 124 139 219 124 139 219 124 139 219 124 139 219 123 138 219 123 138 219 123 138 219 123 138 219 123 138 219 123 138 219 123 138 219 123 138 219 123 138 219 123 138 219 123 138 219 123 138 219 123 138 219 123 138 219 123 138 219 123 138 219 123 138 219 123 138 219 123 138 219 123 138 219 123 138 219 123 138 219 123 138 219 123 138 219 123 138 219 123 138 219 123 138 219 123 138 219 123 138 219 123 138 219 123 138 219 123 138 219 123 138 219 123 138 219 123 138 219 123 138 219 123 138 219 124 139 219 124 139 219 124 139 219 124 139 219 124 139 219 124 139 219 124 139 219 124 139 219 124 139 219 124 139 219 124 139 219 124 139 219 124 139 219 124 139 219 124 139 219 124 139 219 124 139 219 123 138 219 123 138 219 123 138 219 123 138 219 123 138 219 123 138 219 123 138 219 123 138 219 123 138 219 123 138 219 123 138 219 124 139 219 124 139 219 124 139 219 124 139 219 124 139 219 124 139 219 124 139 219 124 139 219 124 139 219 124 139 219 124 139 219 124 139 219 124 139 219 124 139 219 124 139 219 124 139 219 124 139 219 124 139 219 124 139 219 124 139 219 124 139 219 124 139 219 124 139 219 124 139 219 124 139 219 124 139 219 124 139 219 124 139 219 124 139 219 124 139 219 124 139 219 124 139 219 124 139 219 124 139 219 124 139 219 124 139 219 124 139 219 124 139 219 125 139 219 125 139 219 125 139 219 125 139 219 125 139 219 125 139 219 125 140 219 125 140 219 125 140 219 125 140 219 125 140 219 125 140 219 125 140 219 125 140 219 125 140 219 125 140 219 125 140 219 125 140 219 125 140 220 125 140 220 125 140 220 125 140 220 125 140 220 125 140 220 125 140 219 125 140 219 125 140 219 125 140 219 125 140 219 125 140 219 125 140 219 125 140 219 125 140 219 125 140 219 125 140 219 125 140 219 126 141 219 126 141 219 126 141 219 126 141 219 126 141 219 126 141 219 126 141 219 126 141 219 126 141 219 126 141 219 126 141 219 126 141 220 126 141 220 126 141 220 126 141 220 126 141 220 126 141 220 126 141 220 126 141 220 126 141 220 126 141 220 126 141 220 126 141 220 126 141 220 126 141 220 126 141 220 126 141 220 126 141 220 127 141 220 127 141 220 127 141 220 127 141 220 127 141 220 127 142 220 127 142 220 127 142 220 127 142 220 127 142 220 127 142 220 
255 230 255 255 239 255 255 247 255 255 254 255 255 255 255 255 255 255 255 255 255 255 255 255 255 255 255 255 255 255 255 255 255 255 255 255 255 255 255 255 255 255 255 255 255 255 255 255 255 255 255 255 255 255 255 255 255 255 255 255 255 255 255 255 255 255 255 255 255 255 255 255 255 255 255 255 255 255 255 255 255 255 255 255 255 255 255 255 255 255 255 255 255 255 255 255 255 255 255 255 255 255 255 255 255 255 250 255 255 241 255 255 233 255 255 229 255 255 219 255 255 211 253 255 204 246 255 195 237 255 189 232 255 182 225 255 174 218 255 167 210 255 159 203 255 152 196 255 143 187 255 137 182 255 132 177 255 126 171 250 119 164 241 112 158 237 108 154 231 103 149 224 98 144 218 93 139 213 90 136 210 87 133 205 84 129 199 80 125 196 78 123 193 76 121 189 74 118 185 72 116 184 72 115 181 70 113 179 70 112 179 70 111 177 70 111 177 71 110 175 71 110 177 74 111 176 77 110 174 78 110 125 140 220 125 140 220 125 140 220 125 140 220 125 140 219 125 140 219 125 140 219 125 140 219 125 140 219 125 140 219 125 140 219 125 140 219 125 140 219 125 140 219 125 140 219 125 140 219 125 140 219 125 140 219 125 139 219 125 139 219 125 139 219 125 139 219 125 139 219 125 139 219 125 139 219 125 139 219 125 139 219 124 139 219 124 139 219 124 139 219 124 139 219 124 139 219 124 139 219 124 139 219 124 139 219 124 139 219 124 139 219 124 139 219 124 139 219 124 139 219 124 139 219 124 139 219 124 139 219 124 139 219 124 139 219 124 139 219 124 139 219 124 139 219 124 139 219 124 139 219 124 139 219 124 139 219 124 139 219 124 139 219 124 139 219 124 139 219 124 139 219 124 139 219 124 139 219 124 139 219 124 139 219 124 139 219 124 139 219 124 139 219 124 139 219 124 139 219 124 139 219 124 139 219 124 139 219 124 139 219 124 139 219 124 139 219 124 139 219 124 139 219 124 139 219 124 139 219 124 139 219 124 139 219 124 139 219 124 139 219 124 139 219 124 139 219 124 139 219 124 139 219 124 139 219 124 139 219 124 139 219 124 139 219 124 139 219 124 139 219 124 139 219 124 139 219 124 139 219 124 139 219 124 139 219 124 139 219 124 139 219 124 139 219 124 139 219 124 139 219 124 139 219 124 139 219 124 139 219 124 139 219 124 139 219 124 139 219 124 139 219 124 139 219 124 139 219 124 139 219 124 139 219 124 139 219 124 139 219 124 139 219 124 139 219 124 139 219 124 139 219 124 139 219 124 139 219 124 139 219 124 139 219 124 139 219 124 139 219 124 139 219 124 139 219 124 139 219 124 139 219 124 139 219 124 139 219 124 139 219 124 139 219 124 139 219 124 139 219 124 139 219 124 139 219 124 139 219 124 139 219 124 139 219 124 139 219 124 139 219 125 139 219 125 139 219 125 139 219 125 139 219 125 139 219 125 139 219 125 139 219 125 139 219 125 139 219 125 140 219 125 140 219 125 140 219 125 140 219 125 140 219 125 140 219 125 140 219 125 140 219 125 140 219 125 140 219 125 140 219 125 140 219 125 140 219 125 140 219 125 140 220 125 140 220 125 140 220 125 140 220 125 140 220 125 140 220 125 140 220 125 140 219 125 140 219 125 140 219 125 140 219 125 140 219 125 140 219 125 140 219 125 140 219 125 140 219 125 140 219 125 140 219 125 140 219 125 140 219 126 141 219 126 141 219 126 141 219 126 141 219 126 141 219 126 141 219 126 141 219 126 141 219 126 141 219 126 141 219 126 141 219 126 141 219 126 141 220 126 141 220 126 141 220 126 141 220 126 141 220 126 141 220 126 141 220 126 141 220 126 141 220 126 141 220 126 141 220 126 141 220 126 141 220 126 141 220 126 141 220 126 141 220 126 141 220 126 141 220 127 141 220 127 141 220 127 141 220 127 141 220 127 141 220 127 141 220 127 142 220 127 142 220 127 142 220 127 142 220 127 142 220 127 142 220 127 142 220 127 142 220 127 142 220 127 142 220 127 142 220 127 142 220 127 142 220 127 142 220 127 142 220 127 142 220 127 142 220 127 142 220 127 142 220 127 142 220 127 142 220 127 142 220 127 142 220 128 142 220 
255 228 255 255 238 255 255 244 255 255 250 255 255 255 255 255 255 255 255 255 255 255 255 255 255 255 255 255 255 255 255 255 255 255 255 255 255 255 255 255 255 255 255 255 255 255 255 255 255 255 255 255 255 255 255 255 255 255 255 255 255 255 255 255 255 255 255 255 255 255 255 255 255 255 255 255 255 255 255 255 255 255 255 255 255 255 255 255 255 255 255 255 255 255 255 255 255 255 255 255 255 255 255 252 255 255 246 255 255 240 255 255 232 255 255 226 255 255 219 255 255 212 253 255 205 246 255 198 240 255 189 232 255 182 224 255 174 217 255 168 211 255 159 203 255 153 197 255 146 190 255 138 183 255 134 179 253 126 171 246 121 166 239 114 160 234 110 156 226 104 149 219 98 144 214 95 141 208 91 136 204 87 133 199 83 129 194 80 126 191 78 123 188 76 121 184 73 118 181 71 116 178 70 114 176 70 113 174 69 112 172 68 111 171 68 110 170 69 109 168 69 109 168 70 109 167 71 109 166 72 109 167 78 109 126 141 219 126 141 219 126 141 219 126 141 219 126 141 219 126 141 219 126 141 219 125 140 219 125 140 219 125 140 219 125 140 219 125 140 219 125 140 219 125 140 219 125 140 219 125 140 219 125 140 219 125 140 219 125 140 219 125 140 219 125 140 219 125 140 219 125 140 219 125 140 220 125 140 220 125 140 220 125 140 220 125 140 220 125 140 220 125 140 220 125 140 220 125 140 220 125 140 220 125 140 219 125 140 219 125 140 219 125 140 219 125 140 219 125 140 219 125 140 219 125 140 219 125 140 219 125 140 219 125 140 219 125 140 219 125 140 219 125 140 219 125 140 219 125 140 219 125 140 219 125 140 219 125 140 219 125 140 219 125 140 219 125 140 219 125 140 219 125 140 219 125 140 219 125 140 219 125 140 219 125 140 219 125 139 219 125 139 219 125 139 219 125 139 219 125 139 219 125 139 219 125 139 219 125 139 219 125 139 219 125 139 219 125 139 219 125 139 219 125 139 219 125 139 219 125 139 219 125 139 219 125 139 219 125 139 219 125 139 219 125 139 219 125 139 219 125 139 219 125 139 219 125 139 219 125 139 219 125 139 219 125 139 219 125 139 219 125 139 219 125 139 219 125 139 219 125 139 219 125 139 219 125 139 219 125 139 219 125 139 219 125 139 219 125 139 219 125 139 219 125 139 219 125 139 219 125 139 219 125 139 219 125 140 219 125 140 219 125 140 219 125 140 219 125 140 219 125 140 219 125 140 219 125 140 219 125 140 219 125 140 219 125 140 219 125 140 219 125 140 219 125 140 219 125 140 219 125 140 219 125 140 219 125 140 219 125 140 219 125 140 219 125 140 219 125 140 219 125 140 219 125 140 219 125 140 219 125 140 219 125 140 219 125 140 219 125 140 220 125 140 220 125 140 220 125 140 220 125 140 220 125 140 220 125 140 220 125 140 220 125 140 220 125 140 220 125 140 219 125 140 219 125 140 219 125 140 219 125 140 219 125 140 219 125 140 219 125 140 219 125 140 219 125 140 219 125 140 219 125 140 219 125 140 219 125 140 219 125 140 219 125 140 219 126 141 219 126 141 219 126 141 219 126 141 219 126 141 219 126 141 219 126 141 219 126 141 219 126 141 219 126 141 219 126 141 219 126 141 219 126 141 219 126 141 219 126 141 220 126 141 220 126 141 220 126 141 220 126 141 220 126 141 220 126 141 220 126 141 220 126 141 220 126 141 220 126 141 220 126 141 220 126 141 220 126 141 220 126 141 220 126 141 220 126 141 220 126 141 220 126 141 220 126 141 220 127 141 220 127 141 220 127 141 220 127 141 220 127 141 220 127 141 220 127 142 220 127 142 220 127 142 220 127 142 220 127 142 220 127 142 220 127 142 220 127 142 220 127 142 220 127 142 220 127 142 220 127 142 220 127 142 220 127 142 220 127 142 220 127 142 220 127 142 220 127 142 220 127 142 220 127 142 220 127 142 220 127 142 220 127 142 220 127 142 220 127 142 220 128 142 220 128 142 220 128 142 220 128 142 220 128 142 220 128 142 220 128 142 220 128 142 220 128 142 220 128 142 220 128 142 220 128 142 220 128 142 220 128 142 220 128 142 220 128 142 220 128 142 220 128 142 220 128 143 220 
255 228 255 255 236 255 255 242 255 255 248 255 255 253 255 255 255 255 255 255 255 255 255 255 255 255 255 255 255 255 255 255 255 255 255 255 255 255 255 255 255 255 255 255 255 255 255 255 255 255 255 255 255 255 255 255 255 255 255 255 255 255 255 255 255 255 255 255 255 255 255 255 255 255 255 255 255 255 255 255 255 255 255 255 255 255 255 255 255 255 255 255 255 255 255 255 255 255 255 255 253 255 255 250 255 255 242 255 255 236 255 255 231 255 255 223 255 255 218 255 255 209 249 255 201 243 255 195 237 255 190 232 255 182 224 255 173 215 255 166 209 255 158 202 255 153 197 255 146 190 255 139 183 255 133 177 250 127 172 241 121 166 234 115 160 227 109 155 222 104 149 214 99 144 209 95 141 204 91 137 199 88 133 194 83 129 190 81 126 187 78 123 182 75 120 179 73 118 175 71 116 172 70 114 170 68 112 167 68 111 165 67 110 163 67 109 163 67 109 162 67 108 160 67 107 157 67 107 158 69 107 158 71 107 156 72 107 126 141 220 126 141 220 126 141 220 126 141 220 126 141 220 126 141 220 126 141 220 126 141 220 126 141 220 126 141 220 126 141 220 126 141 220 126 141 220 126 141 220 126 141 220 126 141 220 126 141 220 126 141 220 126 141 220 126 141 220 126 141 220 126 141 219 126 141 219 126 141 219 126 141 219 126 141 219 126 141 219 126 141 219 126 141 219 126 141 219 126 141 219 126 141 219 126 141 219 126 141 219 126 141 219 126 141 219 126 141 219 126 141 219 126 141 219 126 141 219 126 141 219 126 141 219 125 140 219 125 140 219 125 140 219 125 140 219 125 140 219 125 140 219 125 140 219 125 140 219 125 140 219 125 140 219 125 140 219 125 140 219 125 140 219 125 140 219 125 140 219 125 140 219 125 140 219 125 140 219 125 140 219 125 140 219 125 140 219 125 140 219 125 140 219 125 140 219 125 140 219 125 140 219 125 140 219 125 140 219 125 140 219 125 140 219 125 140 219 125 140 219 125 140 219 125 140 219 125 140 219 125 140 219 125 140 219 125 140 219 125 140 219 125 140 219 125 140 219 125 140 219 125 140 219 125 140 219 125 140 219 125 140 219 125 140 219 125 140 219 125 140 219 125 140 219 125 140 219 125 140 219 125 140 219 125 140 219 125 140 219 125 140 219 125 140 219 125 140 219 125 140 219 125 140 219 125 140 219 125 140 219 125 140 219 125 140 219 125 140 219 125 140 219 125 140 219 125 140 219 125 140 219 125 140 219 125 140 219 125 140 219 125 140 219 125 140 219 125 140 219 125 140 219 125 140 219 125 140 219 125 140 219 126 141 219 126 141 219 126 141 219 126 141 219 126 141 219 126 141 219 126 141 219 126 141 219 126 141 219 126 141 219 126 141 219 126 141 219 126 141 219 126 141 219 126 141 219 126 141 219 126 141 219 126 141 219 126 141 219 126 141 219 126 141 219 126 141 220 126 141 220 126 141 220 126 141 220 126 141 220 126 141 220 126 141 220 126 141 220 126 141 220 126 141 220 126 141 220 126 141 220 126 141 220 126 141 220 126 141 220 126 141 220 126 141 220 126 141 220 126 141 220 126 141 220 126 141 220 126 141 220 126 141 220 126 141 220 127 141 220 127 141 220 127 141 220 127 141 220 127 141 220 127 141 220 127 141 220 127 141 220 127 142 220 127 142 220 127 142 220 127 142 220 127 142 220 127 142 220 127 142 220 127 142 220 127 142 220 127 142 220 127 142 220 127 142 220 127 142 220 127 142 220 127 142 220 127 142 220 127 142 220 127 142 220 127 142 220 127 142 220 127 142 220 127 142 220 127 142 220 127 142 220 127 142 220 127 142 220 127 142 220 128 142 220 128 142 220 128 142 220 128 142 220 128 142 220 128 142 220 128 142 220 128 142 220 128 142 220 128 142 220 128 142 220 128 142 220 128 142 220 128 142 220 128 142 220 128 142 220 128 142 220 128 142 220 128 142 220 128 143 220 128 143 220 128 143 220 128 143 220 128 143 220 128 143 220 128 143 220 128 143 220 128 143 220 128 143 220 128 143 220 128 143 220 128 143 220 129 143 220 129 143 220 129 143 220 129 143 220 129 143 220 129 143 220 129 143 220 129 143 220 
255 225 255 255 232 255 255 237 255 255 242 255 255 248 255 255 255 255 255 255 255 255 255 255 255 255 255 255 255 255 255 255 255 255 255 255 255 255 255 255 255 255 255 255 255 255 255 255 255 255 255 255 255 255 255 255 255 255 255 255 255 255 255 255 255 255 255 255 255 255 255 255 255 255 255 255 255 255 255 255 255 255 255 255 255 255 255 255 255 255 255 255 255 255 255 255 255 255 255 255 250 255 255 245 255 255 239 255 255 236 255 255 227 255 255 220 255 255 212 252 255 206 247 255 200 241 255 194 235 255 186 228 255 180 222 255 173 216 255 167 210 255 160 203 255 151 195 255 144 188 255 138 182 252 133 177 245 128 172 236 121 165 228 114 158 223 110 155 217 105 150 211 100 145 204 95 140 199 92 137 194 88 133 190 84 129 186 81 126 180 78 123 177 76 121 174 73 118 169 71 116 168 69 114 164 68 112 162 67 111 159 66 110 157 65 108 155 65 108 155 65 107 153 65 106 151 65 106 150 66 106 149 67 105 146 67 105 146 68 105 146 71 105 127 142 220 127 142 220 127 142 220 127 142 220 127 142 220 127 142 220 127 142 220 127 142 220 127 142 220 127 142 220 127 142 220 127 142 220 127 142 220 127 142 220 127 142 220 127 142 220 127 142 220 127 141 220 127 141 220 127 141 220 127 141 220 127 141 220 127 141 220 127 141 220 127 141 220 127 141 220 126 141 220 126 141 220 126 141 220 126 141 220 126 141 220 126 141 220 126 141 220 126 141 220 126 141 220 126 141 220 126 141 220 126 141 220 126 141 220 126 141 220 126 141 220 126 141 220 126 141 220 126 141 220 126 141 220 126 141 220 126 141 220 126 141 220 126 141 220 126 141 220 126 141 220 126 141 220 126 141 220 126 141 220 126 141 220 126 141 220 126 141 220 126 141 220 126 141 220 126 141 220 126 141 220 126 141 220 126 141 220 126 141 220 126 141 220 126 141 220 126 141 220 126 141 220 126 141 220 126 141 220 126 141 220 126 141 220 126 141 220 126 141 220 126 141 220 126 141 220 126 141 220 126 141 220 126 141 220 126 141 220 126 141 220 126 141 220 126 141 220 126 141 220 126 141 220 126 141 220 126 141 220 126 141 220 126 141 220 126 141 220 126 141 220 126 141 220 126 141 220 126 141 220 126 141 220 126 141 220 126 141 220 126 141 220 126 141 220 126 141 220 126 141 220 126 141 220 126 141 220 126 141 220 126 141 220 126 141 220 126 141 220 126 141 220 126 141 220 126 141 220 126 141 220 126 141 220 126 141 220 126 141 220 126 141 220 126 141 220 126 141 220 126 141 220 126 141 220 126 141 220 126 141 220 126 141 220 126 141 220 126 141 220 126 141 220 126 141 220 126 141 220 126 141 220 126 141 220 126 141 220 126 141 220 126 141 220 126 141 220 127 141 220 127 141 220 127 141 220 127 141 220 127 141 220 127 141 220 127 141 220 127 141 220 127 141 220 127 142 220 127 142 220 127 142 220 127 142 220 127 142 220 127 142 220 127 142 220 127 142 220 127 142 220 127 142 220 127 142 220 127 142 220 127 142 220 127 142 220 127 142 220 127 142 220 127 142 220 127 142 220 127 142 220 127 142 220 127 142 220 127 142 220 127 142 220 127 142 220 127 142 220 127 142 220 127 142 220 127 142 220 127 142 220 127 142 220 127 142 220 127 142 220 127 142 220 128 142 220 128 142 220 128 142 220 128 142 220 128 142 220 128 142 220 128 142 220 128 142 220 128 142 220 128 142 220 128 142 220 128 142 220 128 142 220 128 142 220 128 142 220 128 142 220 128 142 220 128 142 220 128 142 220 128 142 220 128 142 220 128 143 220 128 143 220 128 143 220 128 143 220 128 143 220 128 143 220 128 143 220 128 143 220 128 143 220 128 143 220 128 143 220 128 143 220 128 143 220 128 143 220 129 143 220 129 143 220 129 143 220 129 143 220 129 143 220 129 143 220 129 143 220 129 143 220 129 143 220 129 143 220 129 143 220 129 143 220 129 143 220 129 143 220 129 143 220 129 143 220 129 143 220 129 143 220 129 143 220 129 143 220 129 143 220 129 143 220 129 143 220 129 143 220 129 143 220 129 143 220 129 143 220 129 143 220 129 143 220 
255 220 255 255 224 255 255 233 255 255 238 255 255 242 255 255 247 255 255 250 255 255 255 255 255 255 255 255 255 255 255 255 255 255 255 255 255 255 255 255 255 255 255 255 255 255 255 255 255 255 255 255 255 255 255 255 255 255 255 255 255 255 255 255 255 255 255 255 255 255 255 255 255 255 255 255 255 255 255 255 255 255 255 255 255 255 255 255 255 255 255 255 255 255 255 255 255 247 255 255 245 255 255 240 255 255 233 255 255 229 255 255 221 255 255 213 253 255 207 246 255 203 244 255 192 233 255 190 231 255 182 223 255 174 216 255 171 213 255 161 204 255 157 199 255 151 194 255 143 186 253 138 181 245 131 175 238 126 170 231 120 164 222 113 158 217 109 154 211 105 149 205 100 145 199 95 140 195 91 137 190 88 133 185 84 129 181 81 126 175 78 123 172 76 120 168 73 118 165 71 116 161 69 113 158 68 112 156 66 110 154 65 109 151 65 108 149 64 107 147 64 106 146 64 105 145 64 105 144 64 104 142 64 104 140 65 104 140 66 104 139 67 104 137 68 104 136 72 104 128 142 220 128 142 220 128 142 220 128 142 220 128 142 220 128 142 220 128 142 220 128 142 220 128 142 220 128 142 220 128 142 220 128 142 220 127 142 220 127 142 220 127 142 220 127 142 220 127 142 220 127 142 220 127 142 220 127 142 220 127 142 220 127 142 220 127 142 220 127 142 220 127 142 220 127 142 220 127 142 220 127 142 220 127 142 220 127 142 220 127 142 220 127 142 220 127 142 220 127 142 220 127 142 220 127 142 220 127 142 220 127 142 220 127 142 220 127 142 220 127 142 220 127 142 220 127 142 220 127 142 220 127 142 220 127 142 220 127 142 220 127 142 220 127 142 220 127 142 220 127 142 220 127 142 220 127 142 220 127 142 220 127 142 220 127 142 220 127 142 220 127 142 220 127 142 220 127 142 220 127 142 220 127 142 220 127 142 220 127 142 220 127 142 220 127 142 220 127 142 220 127 142 220 127 142 220 127 142 220 127 142 220 127 142 220 127 142 220 127 142 220 127 142 220 127 142 220 127 142 220 127 142 220 127 142 220 127 142 220 127 142 220 127 142 220 127 142 220 127 142 220 127 142 220 127 142 220 127 142 220 127 142 220 127 142 220 127 142 220 127 142 220 127 142 220 127 142 220 127 142 220 127 142 220 127 142 220 127 142 220 127 142 220 127 142 220 127 142 220 127 142 220 127 142 220 127 142 220 127 142 220 127 142 220 127 142 220 127 142 220 127 142 220 127 142 220 127 142 220 127 142 220 127 142 220 127 142 220 127 142 220 127 142 220 127 142 220 127 142 220 127 142 220 127 142 220 127 142 220 127 142 220 127 142 220 127 142 220 127 142 220 127 142 220 127 142 220 127 142 220 127 142 220 127 142 220 127 142 220 127 142 220 127 142 220 127 142 220 127 142 220 127 142 220 127 142 220 127 142 220 127 142 220 127 142 220 127 142 220 127 142 220 127 142 220 127 142 220 128 142 220 128 142 220 128 142 220 128 142 220 128 142 220 128 142 220 128 142 220 128 142 220 128 142 220 128 142 220 128 142 220 128 142 220 128 142 220 128 142 220 128 142 220 128 142 220 128 142 220 128 142 220 128 142 220 128 142 220 128 142 220 128 142 220 128 142 220 128 142 220 128 142 220 128 142 220 128 143 220 128 143 220 128 143 220 128 143 220 128 143 220 128 143 220 128 143 220 128 143 220 128 143 220 128 143 220 128 143 220 128 143 220 128 143 220 128 143 220 128 143 220 129 143 220 129 143 220 129 143 220 129 143 220 129 143 220 129 143 220 129 143 220 129 143 220 129 143 220 129 143 220 129 143 220 129 143 220 129 143 220 129 143 220 129 143 220 129 143 220 129 143 220 129 143 220 129 143 220 129 143 220 129 143 220 129 143 220 129 143 220 129 143 220 129 143 220 129 143 220 129 143 220 129 143 220 129 143 220 129 143 220 129 143 220 129 143 220 129 143 220 129 143 220 129 143 220 129 143 220 129 144 220 129 144 220 129 144 220 129 144 220 129 144 220 129 144 220 129 144 220 130 144 220 130 144 220 130 144 220 130 144 220 130 144 220 130 144 220 130 144 220 130 144 220 130 144 220 130 144 220 
255 214 249 255 219 253 255 223 255 255 229 255 255 233 255 255 239 255 255 243 255 255 248 255 255 249 255 255 255 255 255 255 255 255 255 255 255 255 255 255 255 255 255 255 255 255 255 255 255 255 255 255 255 255 255 255 255 255 255 255 255 255 255 255 255 255 255 255 255 255 255 255 255 255 255 255 255 255 255 255 255 255 255 255 255 255 255 255 255 255 255 249 255 255 245 255 255 243 255 255 237 255 255 228 255 255 225 255 255 220 255 255 214 253 255 205 245 255 204 244 255 198 238 255 192 232 255 184 225 255 179 220 255 173 214 255 165 207 255 158 200 255 153 195 255 146 189 252 141 184 244 135 178 236 129 172 231 124 167 223 118 161 217 113 157 211 107 151 205 104 148 200 99 143 194 94 139 189 91 135 183 87 132 179 83 128 173 80 124 171 78 122 167 75 120 162 73 117 159 70 114 156 69 112 153 67 111 150 66 110 148 65 108 146 64 107 144 63 106 142 63 105 140 62 104 139 62 104 137 62 103 135 62 103 134 63 103 133 64 103 131 64 102 129 65 102 128 66 102 127 69 102 128 143 220 128 143 220 128 143 220 128 143 220 128 143 220 128 143 220 128 143 220 128 143 220 128 143 220 128 143 220 128 143 220 128 143 220 128 143 220 128 143 220 128 143 220 128 143 220 128 143 220 128 143 220 128 143 220 128 143 220 128 142 220 128 142 220 128 142 220 128 142 220 128 142 220 128 142 220 128 142 220 128 142 220 128 142 220 128 142 220 128 142 220 128 142 220 128 142 220 128 142 220 128 142 220 128 142 220 128 142 220 128 142 220 128 142 220 128 142 220 128 142 220 128 142 220 128 142 220 128 142 220 128 142 220 128 142 220 128 142 220 128 142 220 128 142 220 128 142 220 128 142 220 128 142 220 128 142 220 128 142 220 128 142 220 128 142 220 128 142 220 128 142 220 128 142 220 128 142 220 128 142 220 128 142 220 128 142 220 128 142 220 128 142 220 128 142 220 128 142 220 128 142 220 128 142 220 128 142 220 128 142 220 128 142 220 128 142 220 128 142 220 128 142 220 128 142 220 128 142 220 128 142 220 128 142 220 128 142 220 128 142 220 128 142 220 128 142 220 128 142 220 128 142 220 128 142 220 128 142 220 128 142 220 128 142 220 128 142 220 128 142 220 128 142 220 128 142 220 128 142 220 128 142 220 128 142 220 128 142 220 128 142 220 128 142 220 128 142 220 128 142 220 128 142 220 128 142 220 128 142 220 128 142 220 128 142 220 128 142 220 128 142 220 128 142 220 128 142 220 128 142 220 128 142 220 128 142 220 128 142 220 128 142 220 128 142 220 128 142 220 128 142 220 128 142 220 128 142 220 128 142 220 128 142 220 128 142 220 128 142 220 128 142 220 128 142 220 128 142 220 128 142 220 128 142 220 128 142 220 128 142 220 128 142 220 128 142 220 128 143 220 128 143 220 128 143 220 128 143 220 128 143 220 128 143 220 128 143 220 128 143 220 128 143 220 128 143 220 128 143 220 128 143 220 128 143 220 128 143 220 128 143 220 128 143 220 128 143 220 128 143 220 128 143 220 128 143 220 129 143 220 129 143 220 129 143 220 129 143 220 129 143 220 129 143 220 129 143 220 129 143 220 129 143 220 129 143 220 129 143 220 129 143 220 129 143 220 129 143 220 129 143 220 129 143 220 129 143 220 129 143 220 129 143 220 129 143 220 129 143 220 129 143 220 129 143 220 129 143 220 129 143 220 129 143 220 129 143 220 129 143 220 129 143 220 129 143 220 129 143 220 129 143 220 129 143 220 129 143 220 129 143 220 129 143 220 129 143 220 129 143 220 129 143 220 129 143 220 129 143 220 129 144 220 129 144 220 129 144 220 129 144 220 129 144 220 129 144 220 129 144 220 130 144 220 130 144 220 130 144 220 130 144 220 130 144 220 130 144 220 130 144 220 130 144 220 130 144 220 130 144 220 130 144 220 130 144 220 130 144 220 130 144 220 130 144 220 130 144 220 130 144 220 130 144 220 130 144 220 130 144 220 130 144 220 130 144 220 130 144 220 130 144 220 130 144 220 130 144 220 130 144 220 130 144 220 130 144 220 130 144 220 130 144 220 130 144 220 130 144 220 130 144 220 130 144 220 
255 206 241 255 211 246 255 214 249 255 220 254 255 224 255 255 228 255 255 233 255 255 238 255 255 242 255 255 245 255 255 244 255 255 251 255 255 254 255 255 254 255 255 255 255 255 255 255 255 255 255 255 255 255 255 255 255 255 255 255 255 255 255 255 255 255 255 255 255 255 255 255 255 254 255 255 252 255 255 251 255 255 249 255 255 249 255 255 243 255 255 241 255 255 238 255 255 235 255 255 229 255 255 223 255 255 218 255 255 212 250 255 208 247 255 200 239 255 196 235 255 192 232 255 185 225 255 179 219 255 173 213 255 166 207 255 161 202 255 154 196 255 150 192 252 144 186 245 138 180 237 132 174 231 127 170 223 121 164 217 117 159 210 110 154 206 107 150 199 103 146 195 99 143 186 92 136 183 90 134 177 86 130 173 83 127 169 80 124 164 77 121 162 75 119 156 72 115 154 70 114 150 68 112 149 67 111 145 65 108 142 64 107 141 63 106 138 62 105 136 62 105 134 61 103 133 61 103 130 61 102 129 61 102 128 61 102 126 62 102 124 62 101 123 63 101 122 64 100 121 65 100 118 66 100 129 143 220 129 143 220 129 143 220 129 143 220 129 143 220 129 143 220 129 143 220 129 143 220 129 143 220 129 143 220 129 143 220 129 143 220 129 143 220 129 143 220 129 143 220 129 143 220 129 143 220 129 143 220 129 143 220 129 143 220 129 143 220 129 143 220 129 143 220 129 143 220 129 143 220 129 143 220 129 143 220 129 143 220 129 143 220 129 143 220 129 143 220 129 143 220 129 143 220 129 143 220 129 143 220 129 143 220 129 143 220 129 143 220 129 143 220 129 143 220 129 143 220 129 143 220 129 143 220 129 143 220 129 143 220 129 143 220 128 143 220 128 143 220 128 143 220 128 143 220 128 143 220 128 143 220 128 143 220 128 143 220 128 143 220 128 143 220 128 143 220 128 143 220 128 143 220 128 143 220 128 143 220 128 143 220 128 143 220 128 143 220 128 143 220 128 143 220 128 143 220 128 143 220 128 143 220 92 255 129 91 255 129 90 255 128 88 255 127 86 255 126 85 255 125 84 255 124 83 255 123 82 255 122 81 255 120 79 255 119 79 255 118 79 255 117 128 143 220 128 143 220 128 143 220 128 143 220 128 143 220 128 143 220 128 143 220 128 143 220 128 143 220 128 143 220 128 143 220 128 143 220 128 143 220 128 143 220 128 143 220 128 143 220 128 143 220 128 143 220 128 143 220 128 143 220 128 143 220 128 143 220 128 143 220 129 143 220 129 143 220 129 143 220 129 143 220 129 143 220 129 143 220 129 143 220 129 143 220 129 143 220 129 143 220 129 143 220 129 143 220 129 143 220 129 143 220 129 143 220 129 143 220 129 143 220 129 143 220 129 143 220 129 143 220 129 143 220 129 143 220 129 143 220 129 143 220 129 143 220 129 143 220 129 143 220 129 143 220 129 143 220 129 143 220 129 143 220 129 143 220 129 143 220 129 143 220 129 143 220 129 143 220 129 143 220 129 143 220 129 143 220 129 143 220 129 143 220 129 143 220 129 143 220 129 143 220 129 143 220 129 143 220 129 143 220 129 143 220 129 143 220 129 143 220 129 143 220 129 143 220 129 143 220 129 143 220 129 143 220 129 143 220 129 143 220 129 143 220 129 143 220 129 144 220 129 144 220 129 144 220 129 144 220 129 144 220 129 144 220 129 144 220 129 144 220 130 144 220 130 144 220 130 144 220 130 144 220 130 144 220 130 144 220 130 144 220 130 144 220 130 144 220 130 144 220 130 144 220 130 144 220 130 144 220 130 144 220 130 144 220 130 144 220 130 144 220 130 144 220 130 144 220 130 144 220 130 144 220 130 144 220 130 144 220 130 144 220 130 144 220 130 144 220 130 144 220 130 144 220 130 144 220 130 144 220 130 144 220 130 144 220 130 144 220 130 144 220 130 144 220 130 144 220 130 144 220 130 144 220 130 144 220 130 144 220 130 144 220 131 145 220 131 145 220 131 145 220 131 145 220 131 145 220 131 145 220 131 145 220 131 145 220 131 145 221 131 145 221 131 145 221 131 145 221 131 145 221 131 145 221 131 145 221 131 145 221 131 145 221 131 145 221 131 145 221 131 145 221 131 145 221 131 145 221 
255 198 233 255 202 238 255 208 243 255 209 243 255 215 250 255 220 255 255 223 255 255 228 255 255 230 255 255 232 255 255 236 255 255 239 255 255 240 255 255 245 255 255 247 255 255 248 255 255 248 255 255 252 255 255 250 255 255 249 255 255 249 255 255 248 255 255 252 255 255 247 255 255 244 255 255 242 255 255 244 255 255 239 255 255 235 255 255 231 255 255 231 255 255 225 255 255 222 255 255 217 254 255 215 252 255 211 249 255 206 244 255 198 237 255 195 234 255 190 229 255 184 223 255 178 218 255 173 213 255 168 208 255 163 204 255 157 197 255 150 191 250 146 187 241 139 180 235 134 176 228 129 171 221 123 165 217 120 162 209 113 156 204 110 153 196 104 147 192 100 143 187 96 139 182 92 135 176 88 132 172 85 129 168 82 125 163 79 122 160 76 120 156 74 117 152 72 115 149 69 113 146 68 111 142 66 109 140 65 108 137 64 107 135 62 105 133 62 104 130 61 103 129 61 103 127 60 102 124 60 101 122 60 100 121 60 100 121 61 100 119 61 100 117 62 100 116 62 99 113 63 99 113 64 99 111 67 99 130 144 220 130 144 220 130 144 220 130 144 220 130 144 220 130 144 220 130 144 220 130 144 220 130 144 220 130 144 220 130 144 220 130 144 220 130 144 220 130 144 220 130 144 220 129 144 220 129 144 220 129 144 220 129 144 220 129 144 220 129 144 220 129 144 220 129 144 220 129 144 220 129 144 220 129 144 220 129 144 220 129 143 220 129 143 220 129 143 220 129 143 220 129 143 220 129 143 220 129 143 220 129 143 220 129 143 220 129 143 220 129 143 220 129 143 220 129 143 220 129 143 220 129 143 220 129 143 220 129 143 220 129 143 220 129 143 220 129 143 220 129 143 220 129 143 220 129 143 220 129 143 220 129 143 220 129 143 220 129 143 220 129 143 220 129 143 220 129 143 220 129 143 220 129 143 220 129 143 220 129 143 220 103 255 139 100 255 137 99 255 136 107 255 147 106 255 147 111 255 154 107 255 150 112 255 156 107 255 152 105 255 150 100 255 146 97 255 143 93 255 140 91 255 138 89 255 136 85 255 133 83 255 131 79 255 127 76 255 124 74 255 123 72 255 119 70 251 117 70 245 115 70 242 114 73 237 113 72 231 112 71 226 111 129 143 220 129 143 220 129 143 220 129 143 220 129 143 220 129 143 220 129 143 220 129 143 220 129 143 220 129 143 220 129 143 220 129 143 220 129 143 220 129 143 220 129 143 220 129 143 220 129 143 220 129 143 220 129 143 220 129 143 220 129 143 220 129 143 220 129 143 220 129 143 220 129 143 220 129 143 220 129 143 220 129 143 220 129 143 220 129 143 220 129 143 220 129 143 220 129 143 220 129 143 220 129 144 220 129 144 220 129 144 220 129 144 220 129 144 220 129 144 220 129 144 220 129 144 220 129 144 220 129 144 220 129 144 220 129 144 220 130 144 220 130 144 220 130 144 220 130 144 220 130 144 220 130 144 220 130 144 220 130 144 220 130 144 220 130 144 220 130 144 220 130 144 220 130 144 220 130 144 220 130 144 220 130 144 220 130 144 220 130 144 220 130 144 220 130 144 220 130 144 220 130 144 220 130 144 220 130 144 220 130 144 220 130 144 220 130 144 220 130 144 220 130 144 220 130 144 220 130 144 220 130 144 220 130 144 220 130 144 220 130 144 220 130 144 220 130 144 220 130 144 220 130 144 220 130 144 220 130 144 220 130 144 220 130 144 220 130 144 220 130 144 220 130 144 220 130 144 220 130 144 220 130 144 220 130 144 220 131 145 220 131 145 220 131 145 220 131 145 220 131 145 220 131 145 220 131 145 220 131 145 220 131 145 221 131 145 221 131 145 221 131 145 221 131 145 221 131 145 221 131 145 221 131 145 221 131 145 221 131 145 221 131 145 221 131 145 221 131 145 221 131 145 221 131 145 221 131 145 221 131 145 221 131 145 221 131 145 221 131 145 221 131 145 221 131 145 221 131 145 221 131 145 221 131 145 221 131 145 221 131 145 221 131 145 221 131 145 221 131 145 221 131 145 221 131 145 221 131 145 221 131 145 221 131 145 221 131 145 221 131 145 221 131 145 221 131 145 221 131 145 221 131 145 221 131 145 221 
255 188 223 255 195 230 255 198 233 255 200 235 255 205 239 255 211 246 255 210 245 255 217 251 255 219 253 255 223 255 255 226 255 255 226 255 255 229 255 255 230 255 255 234 255 255 235 255 255 235 255 255 234 255 255 235 255 255 240 255 255 241 255 255 238 255 255 239 255 255 235 255 255 235 255 255 233 255 255 232 255 255 227 255 255 226 255 255 223 255 255 221 255 255 214 251 255 210 247 255 209 246 255 204 241 255 199 236 255 195 233 255 190 228 255 184 223 255 179 218 255 176 215 255 171 210 255 168 207 255 162 202 255 157 197 251 150 190 247 146 187 238 139 181 233 135 176 227 131 172 220 125 166 215 121 162 208 115 157 202 111 153 196 106 149 191 103 145 186 99 141 180 94 136 174 90 133 171 88 131 166 84 127 162 81 124 157 78 121 153 75 118 150 74 117 147 71 114 144 69 111 140 67 110 138 66 109 134 64 107 132 63 106 130 62 104 127 61 103 125 60 102 123 60 102 121 60 101 120 59 100 118 59 100 116 59 99 114 60 99 113 60 99 112 60 99 110 61 98 108 61 98 106 62 98 104 63 97 130 144 220 130 144 220 130 144 220 130 144 220 130 144 220 130 144 220 130 144 220 130 144 220 130 144 220 130 144 220 130 144 220 130 144 220 130 144 220 130 144 220 130 144 220 130 144 220 130 144 220 130 144 220 130 144 220 130 144 220 130 144 220 130 144 220 130 144 220 130 144 220 130 144 220 130 144 220 130 144 220 130 144 220 130 144 220 130 144 220 130 144 220 130 144 220 130 144 220 130 144 220 130 144 220 130 144 220 130 144 220 130 144 220 130 144 220 130 144 220 130 144 220 130 144 220 130 144 220 130 144 220 130 144 220 130 144 220 130 144 220 130 144 220 130 144 220 130 144 220 130 144 220 130 144 220 130 144 220 130 144 220 130 144 220 130 144 220 130 144 220 130 144 220 104 255 139 112 255 150 113 255 152 124 255 164 132 255 173 129 255 171 135 255 178 134 255 177 141 255 185 137 255 181 138 255 183 134 255 180 128 255 175 122 255 170 116 255 164 111 255 160 107 255 156 104 255 153 97 255 147 94 255 144 88 255 138 84 255 134 80 255 131 74 255 125 71 250 122 68 244 118 66 238 116 66 233 114 64 227 112 65 222 110 66 218 109 66 212 109 70 207 109 130 144 220 130 144 220 130 144 220 130 144 220 130 144 220 130 144 220 130 144 220 130 144 220 130 144 220 130 144 220 130 144 220 130 144 220 130 144 220 130 144 220 130 144 220 130 144 220 130 144 220 130 144 220 130 144 220 130 144 220 130 144 220 130 144 220 130 144 220 130 144 220 130 144 220 130 144 220 130 144 220 130 144 220 130 144 220 130 144 220 130 144 220 130 144 220 130 144 220 130 144 220 130 144 220 130 144 220 130 144 220 130 144 220 130 144 220 130 144 220 130 144 220 130 144 220 130 144 220 130 144 220 130 144 220 130 144 220 130 144 220 130 144 220 130 144 220 130 144 220 130 144 220 130 144 220 130 144 220 130 144 220 130 144 220 130 144 220 130 144 220 130 144 220 131 145 220 131 145 220 131 145 220 131 145 220 131 145 220 131 145 220 131 145 220 131 145 220 131 145 220 131 145 220 131 145 221 131 145 221 131 145 221 131 145 221 131 145 221 131 145 221 131 145 221 131 145 221 131 145 221 131 145 221 131 145 221 131 145 221 131 145 221 131 145 221 131 145 221 131 145 221 131 145 221 131 145 221 131 145 221 131 145 221 131 145 221 131 145 221 131 145 221 131 145 221 131 145 221 131 145 221 131 145 221 131 145 221 131 145 221 131 145 221 131 145 221 131 145 221 131 145 221 131 145 221 131 145 221 131 145 221 131 145 221 131 145 221 131 145 221 131 145 221 131 145 221 131 145 221 131 145 221 131 145 221 131 145 221 131 145 221 131 145 221 131 145 221 132 145 221 132 145 221 132 145 221 132 145 221 132 145 221 132 145 221 132 145 221 132 145 221 132 145 221 132 146 221 132 146 221 132 146 221 132 146 221 132 146 221 132 146 221 132 146 221 132 146 221 132 146 221 132 146 221 132 146 221 132 146 221 132 146 221 132 146 221 132 146 221 132 146 221 132 146 221 132 146 221 
255 179 214 255 185 220 255 190 224 255 193 227 255 196 231 255 200 234 255 203 237 255 206 240 255 209 243 255 212 246 255 214 248 255 215 249 255 219 252 255 221 255 255 222 255 255 225 255 255 223 255 255 224 255 255 224 255 255 226 255 255 227 255 255 223 255 255 227 255 255 225 255 255 224 255 255 222 255 255 218 254 255 220 255 255 214 249 255 211 247 255 207 243 255 205 241 255 202 238 255 199 236 255 193 230 255 189 226 255 187 224 255 183 220 255 177 215 255 172 210 255 167 205 255 162 201 255 159 198 251 154 193 246 149 189 239 144 183 232 138 178 227 134 174 224 132 172 215 124 165 209 120 161 204 115 157 200 112 154 194 108 149 189 104 146 185 101 143 177 95 137 173 92 134 169 88 131 164 85 128 160 83 125 155 79 121 152 77 119 149 74 117 144 72 115 141 70 112 137 68 110 135 67 109 133 65 108 129 64 106 126 63 105 124 61 103 121 61 102 120 60 102 118 60 101 116 59 100 114 59 99 112 59 99 110 59 99 109 59 98 108 59 98 106 59 98 104 59 97 102 60 97 101 61 97 99 61 97 96 61 96 94 63 96 131 145 221 131 145 221 131 145 221 131 145 221 131 145 221 131 145 221 131 145 221 131 145 221 131 145 221 131 145 221 131 145 221 131 145 221 131 145 221 131 145 221 131 145 221 131 145 221 131 145 221 131 145 221 131 145 221 131 145 221 131 145 221 131 145 221 131 145 221 131 145 221 131 145 221 131 145 221 131 145 221 131 145 221 131 145 221 131 145 221 131 145 221 131 145 221 131 145 221 131 145 221 131 145 221 131 145 221 131 145 221 131 145 221 131 145 221 131 145 221 131 145 221 131 145 221 131 145 221 131 145 220 131 145 220 131 145 220 131 145 220 131 145 220 131 145 220 131 145 220 131 145 220 131 145 220 131 145 220 106 255 141 116 255 154 129 255 168 143 255 182 154 255 194 153 255 193 164 255 204 173 255 214 172 255 213 179 255 221 175 255 218 174 255 217 170 255 213 169 255 213 162 255 208 156 255 202 147 255 194 141 255 189 132 255 181 127 255 176 122 255 172 115 255 166 107 255 158 100 255 152 94 255 146 88 255 141 82 255 134 76 251 129 72 244 124 69 237 121 65 230 117 63 223 115 61 218 112 60 212 110 59 207 109 60 202 107 61 197 106 63 193 106 67 188 106 131 145 220 131 145 220 131 145 220 131 145 220 131 145 220 131 145 220 131 145 220 131 145 220 131 145 220 131 145 220 131 145 221 131 145 221 131 145 221 131 145 221 131 145 221 131 145 221 131 145 221 131 145 221 131 145 221 131 145 221 131 145 221 131 145 221 131 145 221 131 145 221 131 145 221 131 145 221 131 145 221 131 145 221 131 145 221 131 145 221 131 145 221 131 145 221 131 145 221 131 145 221 131 145 221 131 145 221 131 145 221 131 145 221 131 145 221 131 145 221 131 145 221 131 145 221 131 145 221 131 145 221 131 145 221 131 145 221 131 145 221 131 145 221 131 145 221 131 145 221 131 145 221 131 145 221 131 145 221 131 145 221 131 145 221 131 145 221 131 145 221 131 145 221 131 145 221 131 145 221 131 145 221 131 145 221 131 145 221 131 145 221 131 145 221 131 145 221 131 145 221 131 145 221 131 145 221 131 145 221 131 145 221 131 145 221 131 145 221 131 145 221 131 145 221 131 145 221 131 145 221 131 145 221 131 145 221 132 145 221 132 145 221 132 145 221 132 145 221 132 145 221 132 145 221 132 145 221 132 145 221 132 145 221 132 145 221 132 146 221 132 146 221 132 146 221 132 146 221 132 146 221 132 146 221 132 146 221 132 146 221 132 146 221 132 146 221 132 146 221 132 146 221 132 146 221 132 146 221 132 146 221 132 146 221 132 146 221 132 146 221 132 146 221 132 146 221 132 146 221 132 146 221 132 146 221 132 146 221 132 146 221 132 146 221 132 146 221 132 146 221 132 146 221 132 146 221 132 146 221 132 146 221 132 146 221 132 146 221 132 146 221 132 146 221 132 146 221 132 146 221 132 146 221 133 146 221 133 146 221 133 146 221 133 146 221 133 146 221 133 146 221 133 146 221 133 146 221 133 146 221 133 146 221 132 146 221 132 146 221 
255 171 205 255 176 210 255 180 214 255 181 216 255 187 221 255 190 224 255 193 227 255 195 229 255 196 231 255 199 233 255 204 238 255 205 238 255 206 240 255 208 242 255 210 243 255 210 244 255 212 246 255 212 246 255 214 248 255 214 248 255 214 248 255 211 245 255 209 244 255 209 244 255 208 243 255 207 242 255 205 240 255 207 242 255 203 238 255 198 234 255 196 232 255 196 232 255 191 227 255 188 224 255 186 222 255 182 218 255 177 214 255 173 210 255 169 206 255 166 204 255 159 197 250 155 194 248 153 191 241 148 186 235 143 181 229 139 178 224 135 174 219 130 169 214 126 166 206 120 161 201 117 157 196 112 153 190 108 149 186 105 146 182 101 142 176 98 139 172 94 135 166 90 132 163 87 129 159 84 126 154 81 122 149 78 120 145 75 117 143 73 115 139 72 113 136 69 111 132 68 109 130 66 107 127 65 106 124 63 105 122 62 104 119 61 102 117 61 102 115 60 100 113 59 100 110 59 99 110 59 99 107 58 98 105 58 98 104 58 97 102 58 97 100 58 97 99 59 96 97 59 96 95 59 96 93 60 95 90 60 95 88 60 95 88 63 95 132 146 221 132 146 221 132 146 221 132 146 221 132 146 221 132 146 221 132 145 221 132 145 221 132 145 221 132 145 221 132 145 221 132 145 221 132 145 221 132 145 221 132 145 221 132 145 221 132 145 221 132 145 221 132 145 221 132 145 221 132 145 221 131 145 221 131 145 221 131 145 221 131 145 221 131 145 221 131 145 221 131 145 221 131 145 221 131 145 221 131 145 221 131 145 221 131 145 221 131 145 221 131 145 221 131 145 221 131 145 221 131 145 221 131 145 221 131 145 221 131 145 221 131 145 221 131 145 221 131 145 221 131 145 221 131 145 221 131 145 221 131 145 221 131 145 221 103 255 136 115 255 151 128 255 165 140 255 178 153 255 191 169 255 207 182 255 220 193 255 231 193 255 232 203 255 242 211 255 250 208 255 247 212 255 251 207 255 247 208 255 249 200 255 242 200 255 242 191 255 235 184 255 229 172 255 218 163 255 210 154 255 201 146 255 195 141 255 190 132 255 182 123 255 173 113 255 164 106 255 158 99 255 151 90 255 143 83 254 136 76 244 130 72 237 126 68 229 121 64 221 118 61 215 114 59 209 111 58 204 110 57 197 108 57 193 106 57 187 105 58 183 104 59 178 104 62 173 104 66 167 103 131 145 221 131 145 221 131 145 221 131 145 221 131 145 221 131 145 221 131 145 221 131 145 221 131 145 221 131 145 221 131 145 221 131 145 221 131 145 221 131 145 221 131 145 221 131 145 221 131 145 221 131 145 221 131 145 221 131 145 221 131 145 221 131 145 221 131 145 221 131 145 221 131 145 221 131 145 221 131 145 221 131 145 221 132 145 221 132 145 221 132 145 221 132 145 221 132 145 221 132 145 221 132 145 221 132 145 221 132 145 221 132 145 221 132 145 221 132 145 221 132 145 221 132 145 221 132 145 221 132 146 221 132 146 221 132 146 221 132 146 221 132 146 221 132 146 221 132 146 221 132 146 221 132 146 221 132 146 221 132 146 221 132 146 221 132 146 221 132 146 221 132 146 221 132 146 221 132 146 221 132 146 221 132 146 221 132 146 221 132 146 221 132 146 221 132 146 221 132 146 221 132 146 221 132 146 221 132 146 221 132 146 221 132 146 221 132 146 221 132 146 221 132 146 221 132 146 221 132 146 221 132 146 221 132 146 221 132 146 221 132 146 221 132 146 221 132 146 221 132 146 221 132 146 221 132 146 221 132 146 221 132 146 221 132 146 221 132 146 221 132 146 221 133 146 221 133 146 221 133 146 221 133 146 221 133 146 221 133 146 221 133 146 221 133 146 221 133 146 221 133 146 221 133 146 221 132 146 221 132 146 221 132 146 221 132 146 221 132 146 221 132 146 221 132 146 221 132 146 221 132 146 221 132 146 221 133 146 221 133 146 221 133 146 221 133 146 221 133 146 221 133 146 221 133 146 221 133 146 221 133 146 221 133 146 221 133 146 221 133 147 221 133 147 221 133 147 221 133 147 221 133 147 221 133 147 221 133 147 221 133 147 221 133 147 221 133 147 221 133 147 221 133 147 221 133 147 221 133 147 221 
255 162 196 255 168 202 255 170 204 255 173 207 255 177 211 255 180 214 255 181 214 255 185 219 255 187 221 255 189 222 255 189 223 255 192 226 255 194 228 255 197 231 255 197 231 255 196 230 255 198 232 255 198 232 255 201 235 255 201 235 255 201 235 255 201 235 255 199 233 255 199 233 255 201 235 255 198 233 255 196 230 255 193 228 255 192 227 255 187 222 255 187 222 255 183 219 255 182 217 255 177 213 255 176 212 255 171 207 255 169 205 255 164 201 254 160 197 249 157 194 245 154 191 238 148 185 234 145 183 230 141 179 224 137 175 218 133 171 213 129 167 207 124 163 204 120 160 198 117 156 191 111 151 187 108 148 182 105 145 177 101 141 173 98 138 168 94 134 163 91 132 158 87 128 154 84 125 150 82 122 147 79 120 144 77 118 140 75 116 135 72 113 133 70 112 129 69 109 127 67 108 124 65 106 122 64 105 119 63 104 116 62 102 114 61 102 112 60 100 110 59 99 108 59 99 106 58 98 104 58 98 102 58 97 100 58 97 99 58 96 97 58 96 95 58 96 93 58 95 91 58 95 89 58 95 87 59 94 85 59 94 83 59 94 86 62 95 133 146 221 133 146 221 133 146 221 133 146 221 132 146 221 132 146 221 132 146 221 132 146 221 132 146 221 132 146 221 132 146 221 132 146 221 132 146 221 132 146 221 132 146 221 132 146 221 132 146 221 132 146 221 132 146 221 132 146 221 132 146 221 132 146 221 132 146 221 132 146 221 132 146 221 132 146 221 132 146 221 132 146 221 132 146 221 132 146 221 132 146 221 132 146 221 132 146 221 132 146 221 132 146 221 132 146 221 132 146 221 132 146 221 132 146 221 132 146 221 132 146 221 132 146 221 132 146 221 132 146 221 132 146 221 132 146 221 132 146 221 132 146 221 115 255 151 129 255 166 144 255 181 156 255 194 173 255 210 189 255 226 202 255 239 214 255 250 227 255 255 227 255 255 234 255 255 238 255 255 240 255 255 238 255 255 236 255 255 235 255 255 225 255 255 221 255 255 212 255 254 204 255 247 191 255 235 182 255 227 171 255 218 163 255 211 157 255 205 145 255 194 135 255 185 124 255 175 115 255 167 108 255 160 98 255 150 90 255 143 82 245 135 76 236 130 71 228 125 67 220 121 63 213 117 60 206 113 58 200 111 56 193 108 55 188 106 54 183 105 55 178 104 55 174 103 56 169 103 58 164 102 59 159 102 132 146 221 132 146 221 132 146 221 132 146 221 132 146 221 132 146 221 132 146 221 132 146 221 132 146 221 132 146 221 132 146 221 132 146 221 132 146 221 132 146 221 132 146 221 132 146 221 132 146 221 132 146 221 132 146 221 132 146 221 132 146 221 132 146 221 132 146 221 132 146 221 132 146 221 132 146 221 132 146 221 132 146 221 132 146 221 132 146 221 132 146 221 132 146 221 132 146 221 132 146 221 132 146 221 132 146 221 132 146 221 132 146 221 132 146 221 132 146 221 132 146 221 132 146 221 132 146 221 132 146 221 133 146 221 133 146 221 133 146 221 133 146 221 133 146 221 133 146 221 133 146 221 133 146 221 133 146 221 133 146 221 133 146 221 133 146 221 133 146 221 133 146 221 132 146 221 132 146 221 132 146 221 132 146 221 132 146 221 132 146 221 132 146 221 132 146 221 132 146 221 132 146 221 132 146 221 132 146 221 132 146 221 133 146 221 133 146 221 133 146 221 133 146 221 133 146 221 133 146 221 133 146 221 133 146 221 133 146 221 133 146 221 133 146 221 133 146 221 133 147 221 133 147 221 133 147 221 133 147 221 133 147 221 133 147 221 133 147 221 133 147 221 133 147 221 133 147 221 133 147 221 133 147 221 133 147 221 133 147 221 133 147 221 133 147 221 133 147 221 133 147 221 133 147 221 133 147 221 133 147 221 133 147 221 133 147 221 133 147 221 133 147 221 133 147 221 133 147 221 133 147 221 133 147 221 133 147 221 78 83 255 133 147 221 80 84 255 133 147 221 79 84 255 133 147 221 133 147 221 133 147 221 133 147 221 133 147 221 133 147 221 133 147 221 133 147 221 133 147 221 133 147 221 133 147 221 133 147 221 134 147 221 134 147 221 134 147 221 134 147 221 134 147 221 134 147 221 
255 155 189 255 158 192 255 161 194 255 164 198 255 168 201 255 169 203 255 172 206 255 174 207 255 174 208 255 179 212 255 182 215 255 181 215 255 184 218 255 186 219 255 185 219 255 187 221 255 188 222 255 187 221 255 189 223 255 187 221 255 186 220 255 186 220 255 189 223 255 188 222 255 188 222 255 184 219 255 184 219 255 182 217 255 180 214 255 178 213 255 176 211 255 176 211 255 171 206 255 168 203 255 165 200 255 163 199 251 160 196 244 155 191 242 153 189 236 149 185 232 145 182 226 142 179 223 138 175 218 135 172 213 130 168 208 127 165 201 122 160 198 119 158 194 116 154 189 112 151 184 109 147 179 105 144 174 102 141 169 97 137 164 94 134 161 92 132 156 88 128 153 86 126 148 83 123 144 80 120 140 78 118 138 76 116 134 73 113 131 71 112 128 70 110 124 68 108 121 67 106 118 65 105 117 64 104 114 63 103 112 61 101 109 61 100 107 60 100 105 59 99 103 59 98 102 58 97 99 58 97 97 57 96 95 57 96 94 57 96 92 57 95 89 57 95 88 57 95 87 57 94 84 58 94 82 58 94 82 58 94 83 59 94 85 60 94 88 63 95 91 66 96 133 147 221 133 147 221 133 147 221 133 147 221 133 147 221 133 147 221 133 147 221 133 147 221 133 147 221 133 147 221 133 147 221 133 147 221 133 147 221 133 147 221 133 147 221 133 147 221 133 147 221 133 147 221 133 146 221 133 146 221 133 146 221 133 146 221 133 146 221 133 146 221 133 146 221 133 146 221 133 146 221 133 146 221 133 146 221 133 146 221 133 146 221 133 146 221 133 146 221 133 146 221 133 146 221 133 146 221 133 146 221 133 146 221 133 146 221 133 146 221 133 146 221 133 146 221 133 146 221 133 146 221 108 255 143 112 255 148 137 255 174 153 255 190 167 255 204 184 255 221 202 255 238 213 255 249 228 255 255 242 255 255 252 255 255 253 255 255 255 255 255 255 255 255 255 255 255 255 255 255 255 255 255 255 255 255 248 255 255 241 255 255 229 255 255 219 255 255 208 255 250 195 255 239 183 255 228 175 255 221 167 255 214 156 255 204 146 255 195 134 255 184 123 255 173 114 255 166 105 255 157 95 255 148 86 245 139 80 235 134 74 227 128 69 219 123 64 210 118 61 204 115 58 197 112 56 190 109 54 184 106 53 179 105 53 173 103 53 169 102 53 164 102 54 160 101 55 155 100 59 148 100 59 142 99 133 146 221 133 146 221 133 146 221 133 146 221 133 146 221 133 146 221 133 146 221 133 146 221 133 146 221 133 146 221 133 146 221 133 146 221 133 146 221 133 146 221 133 146 221 133 146 221 133 146 221 133 146 221 133 146 221 133 146 221 133 146 221 133 146 221 133 146 221 133 146 221 133 146 221 133 146 221 133 147 221 133 147 221 133 147 221 133 147 221 133 147 221 133 147 221 133 147 221 133 147 221 133 147 221 133 147 221 133 147 221 133 147 221 133 147 221 133 147 221 133 147 221 133 147 221 133 147 221 133 147 221 133 147 221 133 147 221 133 147 221 133 147 221 133 147 221 133 147 221 133 147 221 133 147 221 133 147 221 133 147 221 133 147 221 133 147 221 133 147 221 133 147 221 133 147 221 133 147 221 133 147 221 133 147 221 133 147 221 133 147 221 133 147 221 133 147 221 133 147 221 133 147 221 133 147 221 133 147 221 133 147 221 133 147 221 133 147 221 133 147 221 133 147 221 133 147 221 133 147 221 133 147 221 133 147 221 133 147 221 133 147 221 133 147 221 133 147 221 133 147 221 133 147 221 133 147 221 133 147 221 134 147 221 134 147 221 134 147 221 134 147 221 134 147 221 134 147 221 134 147 221 134 147 221 134 147 221 134 147 221 134 147 221 84 88 255 84 88 255 134 147 221 82 87 255 81 86 255 83 87 255 80 85 255 79 84 255 78 84 255 78 83 255 77 82 255 77 83 255 76 82 255 76 82 255 75 81 255 74 80 255 73 79 255 72 79 255 72 78 255 72 78 255 73 78 255 71 77 255 71 77 255 72 78 255 71 77 255 74 79 255 71 77 255 73 79 255 73 78 255 75 80 248 134 148 221 134 148 221 134 148 221 134 148 221 134 148 221 134 148 221 
255 147 180 255 150 183 255 153 187 255 155 188 255 156 189 255 160 193 255 163 196 255 165 198 255 166 199 255 168 201 255 168 202 255 172 205 255 173 206 255 175 208 255 174 208 255 176 209 255 177 210 255 177 211 255 176 210 255 176 210 255 177 211 255 177 211 255 177 211 255 176 210 255 174 207 255 173 207 255 173 207 255 171 205 255 169 204 255 168 202 255 167 202 253 162 197 249 160 195 247 158 193 241 155 190 240 154 189 235 150 185 230 146 182 227 144 180 220 138 174 218 136 173 213 133 170 211 132 168 206 128 164 201 124 161 197 121 158 192 117 154 189 115 152 183 110 148 181 109 146 174 104 142 171 102 140 166 98 136 161 95 133 156 91 130 152 88 127 149 86 125 146 84 123 142 81 120 138 79 118 134 76 115 130 74 113 128 72 111 125 71 110 123 69 109 119 67 106 117 66 105 114 65 104 111 63 103 108 62 101 106 61 100 104 61 99 102 59 98 100 59 98 98 58 97 96 58 96 94 58 96 92 57 95 90 57 95 88 57 95 87 57 94 85 57 94 83 57 94 82 57 93 81 58 94 82 58 94 83 59 94 84 60 94 85 61 94 86 62 95 88 63 95 134 147 221 134 147 221 134 147 221 134 147 221 134 147 221 134 147 221 134 147 221 134 147 221 134 147 221 134 147 221 134 147 221 134 147 221 134 147 221 134 147 221 134 147 221 134 147 221 134 147 221 133 147 221 133 147 221 133 147 221 133 147 221 133 147 221 133 147 221 133 147 221 133 147 221 133 147 221 133 147 221 133 147 221 133 147 221 133 147 221 133 147 221 133 147 221 133 147 221 133 147 221 133 147 221 133 147 221 133 147 221 133 147 221 133 147 221 133 147 221 133 147 221 133 147 221 108 255 143 117 255 153 133 255 169 147 255 184 174 255 210 189 255 224 203 255 238 220 255 254 232 255 255 249 255 255 255 255 255 255 255 255 255 255 255 255 255 255 255 255 255 255 255 255 255 255 255 255 255 255 255 255 255 255 255 255 255 255 255 255 255 255 246 255 255 237 255 255 225 255 255 210 255 253 198 255 241 189 255 234 179 255 225 168 255 215 157 255 205 142 255 191 132 255 182 122 255 172 111 255 162 100 255 153 92 245 145 85 236 139 78 226 132 72 215 125 68 209 122 63 201 117 60 194 114 56 186 110 54 180 107 53 174 105 52 170 104 51 164 102 51 159 101 51 155 100 51 150 99 53 144 99 54 139 98 55 133 98 57 129 97 133 147 221 133 147 221 133 147 221 133 147 221 133 147 221 133 147 221 133 147 221 133 147 221 133 147 221 133 147 221 133 147 221 133 147 221 133 147 221 133 147 221 133 147 221 133 147 221 133 147 221 133 147 221 133 147 221 133 147 221 133 147 221 133 147 221 133 147 221 133 147 221 133 147 221 134 147 221 134 147 221 134 147 221 134 147 221 134 147 221 134 147 221 134 147 221 134 147 221 134 147 221 134 147 221 134 147 221 134 147 221 134 147 221 134 147 221 134 147 221 134 147 221 134 147 221 134 147 221 134 147 221 134 147 221 134 147 221 134 147 221 134 147 221 134 147 221 134 147 221 134 147 221 134 147 221 134 147 221 134 147 221 134 147 221 134 147 221 134 147 221 134 147 221 134 147 221 134 147 221 134 147 221 134 148 221 134 148 221 134 148 221 134 148 221 134 148 221 134 148 221 134 148 221 134 148 221 134 148 221 134 148 221 134 148 221 134 148 221 134 148 221 134 148 221 134 148 221 134 148 221 134 148 221 134 148 221 134 148 221 134 148 221 134 148 221 134 148 221 134 148 221 134 148 221 134 148 221 134 148 221 134 148 221 134 148 221 134 148 221 87 92 255 85 90 255 85 90 255 85 90 255 84 89 255 84 89 255 83 89 255 83 89 255 83 89 255 83 88 255 82 88 255 81 87 255 81 87 255 80 86 255 80 86 255 79 85 255 79 85 255 77 83 255 77 83 255 75 82 255 75 81 255 74 80 255 73 80 255 73 79 255 71 78 255 71 78 255 70 77 255 70 76 255 69 76 255 69 75 255 68 75 255 70 75 255 68 74 255 68 74 255 68 74 255 69 75 255 72 78 249 68 74 255 69 75 250 69 75 248 69 74 245 72 77 232 
245 138 171 249 142 175 250 144 177 253 146 180 254 149 181 254 149 183 255 153 186 255 154 187 255 155 188 255 159 191 255 159 192 255 161 194 255 162 195 255 164 196 255 163 196 255 164 197 255 164 197 255 167 200 255 166 199 255 168 201 255 165 198 255 165 198 255 165 199 255 165 198 253 162 195 255 164 198 253 163 196 250 161 195 248 160 194 244 157 191 241 154 188 238 153 187 235 151 185 234 150 185 230 147 182 226 144 179 221 140 175 218 139 174 215 136 172 208 132 167 207 130 166 201 126 162 198 124 160 195 121 158 190 118 155 187 115 152 182 111 148 179 109 146 174 106 143 169 102 139 166 100 138 163 98 135 157 94 131 154 91 129 149 89 126 146 86 124 143 84 122 138 81 119 136 80 118 132 77 115 129 75 113 126 73 111 123 71 110 120 70 108 117 68 106 113 66 105 111 65 104 109 64 102 107 63 102 104 62 100 102 61 99 99 60 98 98 60 98 95 58 97 93 58 96 92 58 96 90 58 95 88 57 94 86 57 94 84 57 94 82 57 94 81 57 93 81 57 93 82 58 94 82 58 94 83 59 94 83 59 94 84 60 94 85 61 94 86 62 95 88 63 95 90 65 95 134 148 221 134 148 221 134 148 221 134 148 221 134 148 221 134 148 221 134 148 221 134 148 221 134 148 221 134 148 221 134 148 221 134 148 221 134 148 221 134 148 221 134 148 221 134 148 221 134 148 221 134 148 221 134 148 221 134 148 221 134 148 221 134 148 221 134 148 221 134 148 221 134 148 221 134 148 221 134 148 221 134 148 221 134 148 221 134 148 221 134 148 221 134 148 221 134 148 221 134 148 221 134 148 221 134 148 221 134 148 221 134 148 221 134 148 221 134 148 221 103 255 137 112 255 148 136 255 172 150 255 187 166 255 201 192 255 227 211 255 245 224 255 255 239 255 255 255 255 255 255 255 255 255 255 255 255 255 255 255 255 255 255 255 255 255 255 255 255 255 255 255 255 255 255 255 255 255 255 255 255 255 255 255 255 255 255 255 255 255 255 255 245 255 255 230 255 255 218 255 255 205 255 247 196 255 239 187 255 231 174 255 220 162 255 209 149 255 197 137 255 186 127 255 177 115 255 166 105 255 156 96 244 148 89 234 142 82 224 134 74 213 128 69 204 122 64 196 118 61 190 115 57 183 111 55 175 108 53 170 105 51 164 103 50 158 102 50 153 100 49 149 99 50 145 99 51 139 98 51 135 97 52 130 97 55 123 97 57 117 96 134 148 221 134 148 221 134 148 221 134 148 221 134 148 221 134 148 221 134 148 221 134 148 221 134 148 221 134 148 221 134 148 221 134 148 221 134 148 221 134 148 221 134 148 221 134 148 221 134 148 221 134 148 221 134 148 221 134 148 221 134 148 221 134 148 221 134 148 221 134 148 221 134 148 221 134 148 221 134 148 221 134 148 221 134 148 221 134 148 221 134 148 221 134 148 221 134 148 221 134 148 221 134 148 221 134 148 221 134 148 221 134 148 221 134 148 221 134 148 221 134 148 221 134 148 221 134 148 221 134 148 221 134 148 221 134 148 221 134 148 221 134 148 221 134 148 221 134 148 221 134 148 221 134 148 221 134 148 221 134 148 221 134 148 221 134 148 221 134 148 221 134 148 221 134 148 221 134 148 221 134 148 221 134 148 221 134 148 221 134 148 221 134 148 221 135 148 221 135 148 221 135 148 221 135 148 221 135 148 221 135 148 221 135 148 221 135 148 221 135 148 221 135 148 221 135 148 221 135 148 221 135 148 221 135 148 221 135 148 221 135 148 221 135 148 221 135 148 221 135 148 221 135 148 221 88 92 255 88 92 255 87 92 255 87 92 255 89 94 255 91 96 255 90 96 255 92 98 255 90 96 255 93 98 255 92 98 255 91 97 255 91 97 255 90 96 255 92 97 255 90 96 255 90 96 255 88 94 255 87 93 255 86 92 255 86 92 255 82 88 255 84 90 255 80 87 255 79 86 255 76 83 255 77 84 255 75 81 255 74 81 255 72 79 255 71 78 255 70 77 255 70 77 255 69 76 255 68 75 255 67 73 255 66 73 255 66 73 255 65 72 255 65 72 255 66 72 255 65 71 255 66 72 255 67 73 250 65 71 252 66 72 246 
234 132 164 236 134 167 237 136 169 239 138 171 239 139 172 242 143 175 244 145 177 244 146 178 245 147 179 246 149 181 245 149 182 247 151 184 246 151 184 249 154 186 249 155 187 249 155 187 248 155 187 248 156 188 247 156 189 247 156 189 245 156 188 245 156 188 241 154 186 241 154 186 240 154 187 239 154 187 237 152 185 235 151 184 231 148 182 229 147 180 226 145 179 224 144 178 221 142 176 220 141 175 215 138 172 213 137 171 210 134 168 206 131 166 203 129 164 199 126 161 195 123 159 192 121 156 189 119 154 185 116 151 181 113 149 177 110 146 172 107 143 171 105 141 165 102 138 160 98 135 157 96 133 154 94 131 150 91 128 146 88 125 142 86 123 140 84 121 135 81 118 132 79 116 129 77 114 125 75 112 123 74 111 120 72 109 116 69 107 115 69 106 111 67 104 109 66 103 107 65 102 104 64 101 101 63 100 99 62 99 97 61 98 94 60 97 93 59 97 91 59 96 89 58 95 87 58 95 85 58 94 83 57 94 81 57 93 81 57 93 81 58 94 82 58 94 82 58 94 82 59 94 83 59 94 84 60 94 84 60 94 85 60 94 85 61 94 86 62 95 87 63 95 89 64 95 135 148 222 135 148 222 135 148 222 135 148 222 135 148 222 135 148 222 135 148 222 135 148 222 135 148 222 135 148 222 135 148 222 135 148 222 135 148 222 135 148 222 135 148 222 135 148 221 135 148 221 135 148 221 135 148 221 135 148 221 135 148 221 135 148 221 135 148 221 135 148 221 135 148 221 135 148 221 135 148 221 135 148 221 135 148 221 135 148 221 135 148 221 135 148 221 135 148 221 135 148 221 135 148 221 135 148 221 135 148 221 135 148 221 135 148 221 109 255 144 118 255 153 132 255 168 154 255 190 170 255 205 185 255 220 212 255 246 225 255 255 241 255 255 255 255 255 255 255 255 255 255 255 255 255 255 255 255 255 255 255 255 255 255 255 255 255 255 255 255 255 255 255 255 255 255 255 255 255 255 255 255 255 255 255 255 255 255 255 255 255 255 249 255 255 235 255 255 222 255 255 211 255 252 200 255 242 192 255 235 179 255 223 166 255 211 154 255 200 140 255 187 129 255 178 120 255 169 108 252 158 99 240 150 92 231 143 84 220 136 77 209 129 71 200 123 66 192 118 62 186 116 58 178 111 55 171 108 53 166 105 51 160 103 50 154 102 49 149 100 49 145 99 49 141 98 49 135 97 49 131 97 50 126 96 51 120 96 53 115 95 54 109 94 135 148 221 135 148 221 135 148 221 135 148 221 135 148 221 135 148 221 135 148 221 135 148 221 135 148 221 135 148 221 135 148 221 135 148 221 135 148 221 135 148 221 135 148 221 135 148 221 135 148 221 135 148 221 135 148 221 135 148 221 135 148 221 135 148 221 135 148 221 135 148 221 135 148 222 135 148 222 135 148 222 135 148 222 135 148 222 135 148 222 135 148 222 135 148 222 135 148 222 135 148 222 135 148 222 135 148 222 135 148 222 135 148 222 135 148 222 135 148 222 135 148 222 135 148 222 135 148 222 135 148 222 135 148 222 135 148 222 135 148 222 135 148 222 135 148 222 135 149 222 135 149 222 135 149 222 135 149 222 135 149 222 135 149 222 135 149 222 135 149 222 135 149 222 135 149 222 135 149 222 135 149 222 135 149 222 135 149 222 135 149 222 135 149 222 135 149 222 135 149 222 135 149 222 135 149 222 135 149 222 135 149 222 135 149 222 135 149 222 135 149 222 135 149 222 135 149 222 135 149 222 135 149 222 135 149 222 135 149 222 135 149 222 89 94 255 89 93 255 88 93 255 91 95 255 91 95 255 94 99 255 94 100 255 97 103 255 98 104 255 99 104 255 103 108 255 99 104 255 100 106 255 102 107 255 104 110 255 101 107 255 99 105 255 104 110 255 104 109 255 102 108 255 100 106 255 99 105 255 98 104 255 96 103 255 94 99 255 93 99 255 90 96 255 88 95 255 85 92 255 84 91 255 82 88 255 80 87 255 77 83 255 75 82 255 74 81 255 73 80 255 71 78 255 70 77 255 69 76 255 69 76 255 67 73 255 66 72 255 65 72 255 64 71 255 64 71 255 63 70 255 63 70 255 62 69 255 62 69 255 
224 125 158 225 128 160 226 130 162 229 132 164 229 133 165 228 134 166 230 135 167 230 137 169 232 138 170 232 139 171 232 140 172 234 143 174 234 143 175 236 145 177 234 145 177 234 145 177 233 145 177 233 146 178 232 146 177 231 146 178 230 145 177 232 147 179 229 146 178 229 146 178 227 145 178 225 144 176 222 142 175 219 141 173 219 141 173 215 138 171 213 137 170 211 136 169 209 134 168 207 133 167 204 131 164 201 129 162 198 126 160 193 123 157 191 122 156 187 119 153 184 117 151 181 115 149 176 111 146 175 111 146 170 108 143 167 105 140 163 102 137 161 100 136 156 97 133 151 94 130 149 92 128 146 90 126 143 88 124 138 85 121 136 84 120 133 81 118 130 80 116 126 78 114 123 76 112 120 74 110 117 72 108 113 70 107 111 69 106 108 68 104 106 67 103 103 65 102 102 64 101 99 63 100 97 63 99 95 61 98 93 61 97 90 60 96 88 59 96 86 59 95 84 58 95 82 58 94 82 58 94 82 58 94 82 58 94 82 58 94 83 59 94 83 59 94 83 59 94 84 60 94 84 60 94 84 60 94 85 61 94 85 61 94 86 62 95 87 62 95 88 63 95 89 64 95 90 65 95 136 149 222 136 149 222 136 149 222 136 149 222 136 149 222 136 149 222 136 149 222 136 149 222 136 149 222 136 149 222 136 149 222 136 149 222 136 149 222 136 149 222 136 149 222 136 149 222 136 149 222 136 149 222 136 149 222 136 149 222 136 149 222 136 149 222 136 149 222 136 149 222 136 149 222 136 149 222 136 149 222 136 149 222 136 149 222 136 149 222 136 149 222 136 149 222 136 149 222 136 149 222 136 149 222 136 149 222 136 149 222 97 255 130 113 255 149 123 255 159 138 255 174 159 255 194 176 255 210 192 255 226 218 255 250 230 255 255 246 255 255 255 255 255 255 255 255 255 255 255 255 255 255 255 255 255 255 255 255 255 255 255 255 255 255 255 255 255 255 255 255 255 255 255 255 255 255 255 255 255 255 255 255 255 255 255 255 255 255 250 255 255 237 255 255 224 255 255 211 255 251 200 255 241 192 255 233 179 255 222 166 255 210 153 255 198 142 255 188 130 255 178 120 255 169 108 248 158 99 237 150 93 226 143 85 216 136 77 205 129 71 196 123 66 188 118 62 181 115 59 173 111 56 167 107 53 161 105 52 156 103 50 149 101 49 145 100 48 139 98 48 135 97 48 130 97 49 126 96 49 121 95 50 115 95 51 109 94 52 104 94 55 94 93 136 149 222 136 149 222 136 149 222 136 149 222 136 149 222 136 149 222 136 149 222 136 149 222 136 149 222 136 149 222 136 149 222 136 149 222 136 149 222 136 149 222 136 149 222 136 149 222 136 149 222 136 149 222 136 149 222 136 149 222 136 149 222 136 149 222 136 149 222 136 149 222 136 149 222 136 149 222 136 149 222 136 149 222 136 149 222 136 149 222 136 149 222 136 149 222 136 149 222 136 149 222 136 149 222 136 149 222 136 149 222 136 149 222 136 149 222 136 149 222 136 149 222 136 149 222 136 149 222 136 149 222 136 149 222 136 149 222 136 149 222 136 149 222 136 149 222 136 149 222 136 149 222 136 149 222 136 149 222 136 149 222 136 149 222 136 149 222 136 149 222 136 149 222 136 149 222 136 149 222 136 149 222 136 149 222 136 149 222 136 149 222 136 149 222 136 149 222 136 149 222 136 149 222 136 149 222 136 149 222 136 149 222 136 149 222 136 149 222 136 149 222 136 149 222 136 149 222 91 94 255 90 95 255 91 95 255 93 98 255 96 101 255 97 102 255 98 103 255 102 107 255 104 108 255 109 114 255 109 114 255 117 121 255 117 121 255 117 121 255 117 122 255 116 121 255 120 125 255 120 125 255 120 125 255 118 123 255 118 123 255 116 120 255 117 122 255 115 120 255 114 119 255 110 116 255 109 115 255 108 113 255 102 108 255 104 110 255 98 104 255 97 103 255 92 98 255 93 99 255 89 95 255 86 93 255 83 90 255 81 88 255 80 86 255 78 85 255 75 82 255 73 80 255 71 78 255 71 78 255 69 76 255 67 74 255 66 73 255 64 71 255 64 71 255 63 70 255 62 70 255 62 69 255 61 68 255 
211 118 150 212 120 152 212 121 153 216 124 156 216 125 157 218 127 159 217 128 160 218 130 161 218 130 162 219 132 163 219 133 164 220 133 164 220 134 166 219 134 166 219 135 166 219 136 167 218 135 167 220 137 169 220 138 170 218 137 168 217 136 168 217 137 169 214 136 168 213 136 168 212 135 167 210 134 166 208 133 165 207 133 164 204 131 163 202 130 162 202 130 162 199 128 160 196 126 159 194 125 157 191 123 155 190 122 155 186 119 153 182 117 150 180 115 149 177 113 147 173 110 144 170 109 142 166 106 140 163 104 138 162 103 137 158 100 135 155 98 132 152 96 130 148 94 128 144 91 125 142 90 124 138 87 122 135 85 120 131 83 118 129 81 116 126 80 114 122 78 112 120 76 111 117 74 109 114 72 108 112 71 107 109 70 105 106 68 104 104 67 103 101 66 102 99 65 100 96 64 99 94 63 98 92 62 97 90 61 97 88 61 96 85 60 95 84 59 95 83 59 95 83 59 94 83 59 94 83 59 94 83 59 94 83 59 94 84 60 94 84 60 94 84 60 94 84 60 94 85 61 94 85 61 94 86 61 94 86 62 95 86 62 95 87 62 95 88 63 95 88 64 95 89 64 95 90 65 95 136 150 222 136 150 222 136 150 222 136 150 222 136 150 222 136 150 222 136 150 222 136 150 222 136 150 222 136 150 222 136 150 222 136 150 222 136 149 222 136 149 222 136 149 222 136 149 222 136 149 222 136 149 222 136 149 222 136 149 222 136 149 222 136 149 222 136 149 222 136 149 222 136 149 222 136 149 222 136 149 222 136 149 222 136 149 222 136 149 222 136 149 222 136 149 222 136 149 222 136 149 222 136 149 222 136 149 222 100 255 134 107 255 142 122 255 157 135 255 170 148 255 183 170 255 204 185 255 219 203 255 236 220 255 251 237 255 255 250 255 255 255 255 255 255 255 255 255 255 255 255 255 255 255 255 255 255 255 255 255 255 255 255 255 255 255 255 255 255 255 255 255 255 255 255 255 255 255 255 255 255 255 255 255 255 255 255 255 255 250 255 255 235 255 255 220 255 255 209 255 248 201 255 241 193 255 234 181 255 223 168 255 211 153 255 198 142 255 187 131 255 177 121 255 169 110 244 158 100 232 150 93 221 142 85 211 135 79 201 129 73 192 124 67 184 118 63 176 115 60 170 111 57 163 108 54 157 105 52 151 103 51 145 100 49 140 99 49 135 98 48 130 97 48 125 96 48 121 96 48 117 95 49 111 94 49 105 94 50 101 93 52 94 93 53 92 92 136 149 222 136 149 222 136 149 222 136 149 222 136 149 222 136 149 222 136 149 222 136 149 222 136 149 222 136 149 222 136 149 222 136 149 222 136 149 222 136 149 222 136 149 222 136 149 222 136 149 222 136 149 222 136 149 222 136 149 222 136 149 222 136 149 222 136 149 222 136 149 222 136 150 222 136 150 222 136 150 222 136 150 222 136 150 222 136 150 222 136 150 222 136 150 222 136 150 222 136 150 222 136 150 222 136 150 222 136 150 222 136 150 222 136 150 222 136 150 222 136 150 222 136 150 222 136 150 222 136 150 222 136 150 222 136 150 222 136 150 222 136 150 222 136 150 222 136 150 222 136 150 222 136 150 222 136 150 222 136 150 222 136 150 222 136 150 222 136 150 222 137 150 222 137 150 222 137 150 222 137 150 222 137 150 222 137 150 222 137 150 222 137 150 222 137 150 222 137 150 222 137 150 222 137 150 222 137 150 222 137 150 222 137 150 222 91 95 255 92 96 255 92 96 255 95 99 255 96 100 255 101 105 255 103 107 255 108 113 255 109 114 255 111 116 255 117 121 255 119 123 255 125 130 255 133 136 255 140 144 255 139 143 255 140 143 255 141 145 255 140 143 255 145 148 255 142 146 255 137 141 255 140 144 255 139 144 255 137 142 255 134 138 255 132 137 255 131 136 255 128 133 255 125 130 255 118 123 255 117 122 255 117 122 255 112 117 255 109 115 255 105 111 255 103 109 255 97 104 255 94 100 255 91 97 255 90 96 255 87 94 255 85 92 255 81 87 255 77 84 255 76 83 255 76 83 255 72 79 255 70 77 255 69 76 255 67 74 255 65 73 255 64 71 255 63 70 255 63 70 255 62 69 255 
201 113 144 202 115 146 202 116 147 204 117 148 204 118 149 205 120 151 205 121 152 206 122 153 207 123 154 207 124 155 207 125 156 208 126 157 209 127 158 208 127 158 209 129 160 208 129 160 208 130 161 207 129 160 206 129 160 206 129 161 204 129 160 203 129 160 203 129 160 201 128 159 199 128 159 198 127 158 198 127 158 193 124 156 194 125 157 190 122 154 189 122 154 187 120 152 185 119 151 182 117 149 180 117 149 179 116 148 174 113 145 172 111 144 169 109 142 166 107 140 162 105 137 160 104 137 158 102 135 153 99 132 151 98 131 149 96 130 146 94 128 144 93 126 140 91 124 136 88 121 134 87 120 131 85 119 128 83 117 124 81 115 122 79 113 119 78 111 116 76 110 113 74 108 111 73 107 108 71 106 105 70 104 103 69 103 100 68 102 99 67 101 96 65 100 94 65 99 92 64 98 89 63 97 88 62 96 86 61 96 85 61 96 85 61 95 85 61 95 85 61 95 85 60 94 85 60 94 85 60 94 71 109 57 85 61 94 85 61 94 85 61 94 86 61 94 86 61 94 86 62 95 86 62 95 86 62 95 87 62 95 87 63 95 88 63 95 88 64 95 89 64 95 90 65 95 90 65 95 137 150 222 137 150 222 137 150 222 137 150 222 137 150 222 137 150 222 137 150 222 137 150 222 137 150 222 137 150 222 137 150 222 137 150 222 137 150 222 137 150 222 137 150 222 137 150 222 137 150 222 137 150 222 137 150 222 137 150 222 137 150 222 137 150 222 137 150 222 137 150 222 137 150 222 137 150 222 137 150 222 137 150 222 137 150 222 137 150 222 137 150 222 137 150 222 137 150 222 137 150 222 137 150 222 96 255 130 107 255 142 116 255 152 133 255 168 144 255 179 160 255 194 179 255 212 192 255 225 208 255 239 226 255 255 237 255 255 252 255 255 255 255 255 255 255 255 255 255 255 255 255 255 255 255 255 255 255 255 255 255 255 255 255 255 255 255 255 255 255 255 255 255 255 255 255 255 255 255 255 255 255 255 255 255 255 249 255 255 241 255 255 226 255 255 215 255 252 204 255 242 196 255 235 187 255 227 175 255 217 162 255 205 151 255 194 141 255 185 129 255 174 120 251 166 109 236 156 100 226 148 93 216 141 86 206 135 78 195 128 74 187 123 68 179 118 64 171 114 61 165 111 58 159 108 55 152 105 53 147 103 51 141 100 50 136 99 49 131 98 49 126 97 48 120 95 48 116 95 48 112 94 48 107 94 48 102 93 49 97 93 49 90 92 51 90 92 54 93 93 137 150 222 137 150 222 137 150 222 137 150 222 137 150 222 137 150 222 137 150 222 137 150 222 137 150 222 137 150 222 137 150 222 137 150 222 137 150 222 137 150 222 137 150 222 137 150 222 137 150 222 137 150 222 137 150 222 137 150 222 137 150 222 137 150 222 137 150 222 137 150 222 137 150 222 137 150 222 137 150 222 137 150 222 137 150 222 137 150 222 137 150 222 137 150 222 137 150 222 137 150 222 137 150 222 137 150 222 137 150 222 137 150 222 137 150 222 137 150 222 137 150 222 137 150 222 137 150 222 137 150 222 137 150 222 137 150 222 137 150 222 137 150 222 137 150 222 137 150 222 137 150 222 137 150 222 137 150 222 137 150 222 137 150 222 137 150 222 137 150 222 137 150 222 137 150 222 137 150 222 137 150 222 137 150 222 137 150 222 137 150 222 137 150 222 137 150 222 137 150 222 137 150 222 137 150 222 92 96 255 93 97 255 97 101 255 101 105 255 103 107 255 108 112 255 110 114 255 118 122 255 121 125 255 127 131 255 131 134 255 132 136 255 138 142 255 140 143 255 150 154 255 151 154 255 156 159 255 158 161 255 159 162 255 157 160 255 158 161 255 162 164 255 160 163 255 154 157 255 157 160 255 154 157 255 154 157 255 151 154 255 148 151 255 148 152 255 141 146 255 142 146 255 133 138 255 134 139 255 131 135 255 124 129 255 122 127 255 117 122 255 115 120 255 107 113 255 105 111 255 100 106 255 97 103 255 93 99 255 91 97 255 86 93 255 82 89 255 80 87 255 78 85 255 77 83 255 73 81 255 72 79 255 70 78 255 68 75 255 66 73 255 64 71 255 64 71 255 63 70 255 
190 107 137 192 109 140 194 111 141 194 112 142 195 113 143 195 113 144 195 115 145 197 117 147 195 117 147 196 117 147 196 118 149 196 119 149 197 120 150 195 120 150 196 120 151 194 120 150 196 121 152 194 121 152 193 121 152 193 121 151 190 120 151 191 121 152 189 120 151 188 120 151 187 120 150 187 120 151 186 120 150 184 119 150 182 117 148 180 117 148 178 115 146 176 114 146 174 113 144 171 111 143 169 110 141 167 109 140 164 107 139 161 106 137 160 105 137 157 103 135 154 101 133 150 98 131 149 98 130 146 95 128 143 94 126 139 92 124 137 90 123 135 89 122 131 87 119 130 85 119 126 83 117 124 82 115 121 81 114 119 79 112 116 78 111 113 76 109 111 75 108 108 73 106 105 71 105 103 70 104 100 69 103 98 68 101 96 67 100 94 66 99 92 66 99 89 65 98 88 64 97 88 63 97 88 63 96 87 63 96 87 62 96 87 62 95 83 110 70 92 109 80 98 109 86 102 109 90 95 109 84 91 109 80 78 109 67 69 109 57 68 109 54 87 62 95 87 63 95 87 63 95 88 63 95 88 63 95 88 64 95 88 64 95 89 64 95 89 64 95 90 65 95 90 65 95 91 66 96 93 67 96 138 151 222 138 151 222 138 151 222 138 151 222 138 151 222 138 151 222 138 151 222 138 151 222 138 151 222 138 151 222 138 151 222 138 151 222 138 151 222 138 151 222 138 151 222 138 151 222 138 151 222 138 151 222 138 151 222 138 151 222 138 151 222 138 151 222 138 151 222 138 151 222 138 151 222 138 151 222 138 151 222 138 151 222 138 151 222 138 151 222 138 151 222 138 151 222 138 151 222 91 255 123 97 255 132 108 255 143 116 255 151 126 255 161 159 255 134 190 255 151 177 255 209 190 255 222 202 255 234 220 255 250 232 255 255 244 255 255 255 255 255 255 255 255 255 255 255 255 255 255 255 255 255 255 255 255 255 255 255 255 255 255 255 255 255 255 255 255 255 255 255 255 255 255 255 255 255 255 255 255 252 255 255 242 255 255 232 255 255 222 255 255 209 255 245 199 255 236 189 255 227 179 255 218 168 255 208 158 255 199 146 255 188 135 255 179 126 253 171 118 243 162 107 229 153 99 219 145 92 208 139 85 199 132 79 189 126 73 181 121 68 173 117 64 166 113 60 158 109 58 153 107 55 147 104 53 142 102 51 135 99 50 130 98 49 126 97 49 121 96 48 115 95 48 111 94 48 107 94 48 102 93 48 96 92 49 90 92 50 89 92 51 90 92 54 92 93 59 97 94 138 151 222 138 151 222 138 151 222 138 151 222 138 151 222 138 151 222 138 151 222 138 151 222 138 151 222 138 151 222 138 151 222 138 151 222 138 151 222 138 151 222 138 151 222 138 151 222 138 151 222 138 151 222 138 151 222 138 151 222 138 151 222 138 151 222 138 151 222 138 151 222 138 151 222 138 151 222 138 151 222 138 151 222 138 151 222 138 151 222 138 151 222 138 151 222 138 151 222 138 151 222 138 151 222 138 151 222 138 151 222 138 151 222 138 151 222 138 151 222 138 151 222 138 151 222 138 151 222 138 151 222 138 151 222 138 151 222 138 151 222 138 151 222 138 151 222 138 151 222 138 151 222 138 151 222 138 151 222 138 151 222 138 151 222 138 151 222 138 151 222 138 151 222 138 151 222 138 151 222 138 151 222 138 151 222 138 151 222 138 151 222 138 151 222 138 151 222 92 96 255 92 96 255 97 101 255 104 109 255 109 113 255 109 114 255 116 120 255 124 129 255 128 132 255 134 137 255 138 142 255 147 150 255 152 155 255 154 157 255 164 166 255 169 171 255 172 174 255 174 176 255 179 181 255 181 182 255 182 184 255 181 183 255 179 181 255 183 185 255 179 181 255 174 176 255 177 179 255 173 176 255 172 175 255 168 170 255 167 169 255 166 169 255 158 161 255 153 157 255 148 152 255 146 149 255 144 148 255 138 143 255 133 138 255 127 132 255 124 129 255 119 124 255 115 121 255 110 116 255 103 109 255 103 108 255 96 103 255 93 99 255 89 96 255 87 94 255 84 91 255 81 88 255 78 85 255 74 81 255 72 80 255 70 77 255 69 76 255 66 73 255 65 72 255 63 71 255 
182 103 133 183 104 134 183 105 135 184 106 136 183 106 136 185 108 138 184 108 138 184 110 139 185 111 140 185 112 142 185 112 142 185 112 142 185 113 143 184 113 143 184 113 143 184 114 144 185 115 145 184 116 145 183 115 145 182 115 145 182 115 145 181 115 145 180 115 145 179 115 145 177 114 144 177 114 144 175 113 143 173 112 142 171 111 141 169 110 141 168 109 139 165 108 138 164 107 137 161 106 136 159 105 135 158 104 134 155 102 133 151 100 131 150 99 130 148 98 129 146 96 128 142 94 125 140 93 124 138 92 123 136 91 122 132 88 120 129 87 118 127 85 117 125 84 116 121 82 114 119 81 112 117 80 111 114 78 110 112 77 109 108 75 107 107 74 106 104 73 105 102 72 104 100 70 103 98 70 102 96 69 101 93 67 99 92 67 99 91 66 98 91 66 98 90 65 97 90 65 97 89 64 97 89 64 96 88 64 96 73 110 58 86 110 73 111 109 97 125 109 109 139 109 109 139 109 109 129 109 109 121 109 107 99 109 87 80 109 69 71 109 59 67 99 52 89 64 95 89 64 95 89 64 95 89 64 95 89 65 95 90 65 95 90 65 95 90 65 95 91 66 96 91 66 96 92 66 96 93 68 96 139 151 222 139 151 222 139 151 222 139 151 222 139 151 222 139 151 222 139 151 222 139 151 222 139 151 222 139 151 222 138 151 222 138 151 222 138 151 222 138 151 222 138 151 222 138 151 222 138 151 222 138 151 222 138 151 222 138 151 222 138 151 222 138 151 222 138 151 222 138 151 222 138 151 222 138 151 222 138 151 222 138 151 222 138 151 222 138 151 222 138 151 222 138 151 222 90 255 121 92 255 125 99 255 134 110 255 145 106 255 104 119 255 113 150 255 135 185 255 159 236 255 206 187 255 219 199 255 229 215 255 245 227 255 255 237 255 255 246 255 255 255 255 255 255 255 255 255 255 255 255 255 255 255 255 255 255 255 255 255 255 255 255 255 255 255 255 255 255 255 255 255 255 255 255 255 255 247 255 255 239 255 255 231 255 255 221 255 254 212 255 247 200 255 235 191 255 227 183 255 220 173 255 211 161 255 201 152 255 192 141 255 182 132 255 174 122 244 165 115 234 158 105 221 149 97 211 142 90 201 136 84 193 130 78 182 124 73 174 120 68 167 116 65 161 112 61 153 108 58 148 106 56 142 103 54 137 101 52 131 99 51 125 98 50 121 96 49 116 96 49 110 94 48 107 94 48 102 93 48 97 93 48 92 92 49 88 92 50 89 92 51 90 92 53 92 93 56 94 93 60 98 94 138 151 222 138 151 222 138 151 222 138 151 222 138 151 222 138 151 222 138 151 222 138 151 222 138 151 222 138 151 222 138 151 222 138 151 222 138 151 222 138 151 222 138 151 222 138 151 222 138 151 222 138 151 222 138 151 222 138 151 222 138 151 222 138 151 222 139 151 222 139 151 222 139 151 222 139 151 222 139 151 222 139 151 222 139 151 222 139 151 222 139 151 222 139 151 222 139 151 222 139 151 222 139 151 222 139 151 222 139 151 222 139 151 222 139 151 222 139 151 222 139 151 222 139 151 222 139 151 222 139 151 222 139 151 222 139 151 222 139 151 222 139 151 222 139 151 222 139 151 222 139 151 222 139 151 222 139 151 222 139 151 222 139 151 222 139 151 222 139 151 222 139 151 222 139 151 222 139 151 222 139 151 222 139 151 222 139 151 222 92 96 255 93 97 255 97 102 255 100 104 255 106 110 255 117 121 255 123 127 255 125 129 255 133 136 255 143 146 255 147 150 255 156 158 255 159 162 255 170 172 255 173 174 255 175 177 255 186 187 255 189 190 255 193 194 255 196 197 255 199 200 255 202 203 255 202 203 255 200 201 255 199 201 255 203 204 255 200 201 255 195 196 255 197 199 255 191 193 255 192 194 255 187 189 255 183 185 255 180 182 255 174 176 255 170 172 255 162 165 255 158 162 255 156 159 255 150 153 255 144 148 255 136 141 255 135 139 255 128 133 255 124 130 255 118 123 255 111 117 255 111 116 255 105 111 255 101 107 255 96 102 255 94 100 255 89 96 255 87 93 255 83 90 255 79 85 255 76 83 255 73 80 255 71 79 255 69 77 255 67 74 255 66 73 255 
174 99 129 174 100 129 175 102 131 175 102 131 176 103 132 175 103 132 176 105 134 176 105 134 175 105 134 175 106 135 175 106 135 176 108 136 176 107 136 175 107 136 174 108 137 173 108 137 174 109 138 173 109 138 172 109 137 171 109 138 170 108 137 170 109 138 168 109 137 167 108 137 167 108 137 165 107 136 164 107 136 162 106 136 160 105 134 159 104 133 158 104 133 156 103 133 153 102 131 152 101 130 149 99 129 148 99 128 146 97 127 143 96 126 142 95 125 140 94 124 137 93 122 134 91 121 132 90 119 130 88 119 128 87 118 125 86 116 123 85 115 120 83 113 118 82 112 116 80 111 113 79 110 111 78 109 108 77 108 106 75 106 104 74 105 101 73 104 99 72 103 96 71 102 95 70 101 94 69 100 94 69 100 93 68 99 93 68 99 92 67 98 92 67 98 91 66 97 91 66 97 91 65 96 90 65 96 72 110 58 81 110 68 103 109 89 131 109 109 140 109 109 140 109 109 140 109 109 140 109 109 140 109 109 117 109 102 94 109 81 78 109 66 67 105 55 66 89 51 90 65 95 91 65 96 91 66 96 91 66 96 91 66 96 91 66 96 91 66 96 92 66 96 92 67 96 92 67 96 93 68 96 139 152 222 139 152 222 139 152 222 139 152 222 139 152 222 139 152 222 139 152 222 139 152 222 139 152 222 139 152 222 139 152 222 139 152 222 139 152 222 139 152 222 139 152 222 139 152 222 139 152 222 139 152 222 139 152 222 139 152 222 139 152 222 139 152 222 139 152 222 139 152 222 139 152 222 139 152 222 139 152 222 139 152 222 139 152 222 139 152 222 139 152 222 139 152 222 139 152 222 92 255 126 100 255 134 92 255 94 99 255 101 111 255 111 150 255 140 194 255 174 227 255 215 239 255 226 191 255 221 205 255 235 215 255 244 224 255 252 236 255 255 244 255 255 249 255 255 255 255 255 255 255 255 255 255 255 255 255 255 255 255 255 255 255 255 255 255 255 253 255 255 247 255 255 242 255 255 235 255 255 224 255 255 217 255 249 208 255 241 200 255 234 191 255 225 183 255 219 173 255 210 165 255 202 154 255 193 145 255 184 135 255 175 127 245 168 118 234 160 110 224 153 102 212 145 95 203 138 89 194 133 82 185 127 77 176 122 72 169 118 68 161 113 64 154 110 61 147 107 58 142 104 56 136 102 55 132 100 53 125 98 52 121 97 51 116 96 50 111 95 49 105 94 49 101 93 49 97 93 48 92 92 49 88 92 50 89 92 51 90 92 52 91 92 54 92 93 56 94 93 139 152 222 139 152 222 139 152 222 139 152 222 139 152 222 139 152 222 139 152 222 139 152 222 139 152 222 139 152 222 139 152 222 139 152 222 139 152 222 139 152 222 139 152 222 139 152 222 139 152 222 139 152 222 139 152 222 139 152 222 139 152 222 139 152 222 139 152 222 139 152 222 139 152 222 139 152 222 139 152 222 139 152 222 139 152 222 139 152 222 139 152 222 139 152 222 139 152 222 139 152 222 139 152 222 139 152 222 139 152 222 139 152 222 139 152 222 139 152 222 139 152 222 139 152 222 139 152 222 139 152 222 139 152 222 139 152 222 139 152 222 139 152 222 139 152 222 139 152 222 139 152 222 139 152 222 139 152 222 139 152 222 139 152 222 139 152 222 139 152 222 139 152 222 139 152 222 139 152 222 139 152 222 139 152 222 92 96 255 94 97 255 96 100 255 103 107 255 109 113 255 111 115 255 125 129 255 129 133 255 142 144 255 143 146 255 155 157 255 160 162 255 167 169 255 176 178 255 181 183 255 193 194 255 196 197 255 198 199 255 207 207 255 208 209 255 218 217 255 218 218 255 223 223 255 224 223 255 223 223 255 221 221 255 222 222 255 223 223 255 221 221 255 214 214 255 216 217 255 211 212 255 210 211 255 202 203 255 200 202 255 195 197 255 192 193 255 185 187 255 178 180 255 171 173 255 168 170 255 161 164 255 157 160 255 150 154 255 145 149 255 139 144 255 134 139 255 128 132 255 121 126 255 118 124 255 112 117 255 108 114 255 102 108 255 98 105 255 95 102 255 92 98 255 88 94 255 83 90 255 81 87 255 77 84 255 73 80 255 71 78 255 70 77 255 68 75 255 
166 95 124 167 96 125 167 97 126 167 98 126 167 98 127 168 100 128 167 100 128 168 101 130 168 102 130 168 102 131 168 103 131 167 103 131 167 103 132 167 104 132 167 104 132 165 104 132 166 104 133 165 105 133 163 104 133 163 104 132 162 104 132 161 104 132 160 104 132 159 104 132 158 103 132 157 103 131 156 103 131 154 101 130 152 101 130 151 100 129 149 99 128 148 99 128 145 97 126 144 97 125 142 96 125 140 95 124 138 94 123 136 93 122 134 92 121 132 91 120 131 90 119 128 88 118 125 87 116 124 86 116 122 85 115 119 83 113 117 82 112 115 81 111 112 80 110 110 79 108 108 78 107 105 76 106 104 75 105 101 74 104 99 73 103 98 72 102 97 72 102 97 71 101 96 70 100 95 70 100 95 70 99 94 69 99 94 68 98 93 68 98 93 68 98 92 67 97 92 67 97 92 66 96 91 66 96 76 110 61 86 109 72 109 109 93 135 109 109 140 109 109 140 109 109 140 109 109 140 109 109 140 109 109 118 109 102 97 109 82 82 109 69 69 104 56 65 90 51 92 66 96 92 66 96 92 66 96 92 67 96 92 67 96 92 67 96 92 67 96 92 67 96 93 67 96 93 68 96 94 68 96 140 153 222 140 153 222 140 153 222 140 153 222 140 153 222 140 153 222 140 153 222 140 153 222 140 153 222 140 153 222 140 153 222 140 153 222 140 153 222 140 153 222 140 153 222 140 153 222 140 153 222 140 153 222 140 153 222 140 153 222 140 153 222 140 153 222 140 153 222 140 153 222 140 153 222 140 153 222 140 153 222 140 153 222 140 153 222 140 153 222 140 153 222 140 153 222 88 255 120 92 255 126 82 255 83 90 255 92 98 255 100 108 255 110 149 255 142 195 255 179 220 255 208 230 255 217 242 255 228 195 255 224 206 255 235 213 255 241 220 255 248 230 255 255 232 255 255 238 255 255 241 255 255 244 255 255 247 255 255 247 255 255 246 255 255 240 255 255 238 255 255 233 255 255 228 255 255 220 255 250 212 255 243 204 255 236 198 255 230 190 255 223 180 255 214 171 255 206 163 255 199 155 255 192 145 255 183 138 255 176 130 245 169 122 235 162 113 224 154 106 214 148 99 204 141 91 194 134 86 186 129 81 178 124 76 169 119 71 162 115 67 156 112 64 149 109 61 142 105 58 136 103 57 131 101 55 127 99 53 121 98 52 116 97 51 111 95 51 107 94 50 101 93 49 97 92 49 93 92 49 89 92 50 89 92 51 90 92 52 91 92 53 92 92 54 93 93 56 94 93 59 97 94 140 153 222 140 153 222 140 153 222 140 153 222 140 153 222 140 153 222 140 153 222 140 153 222 140 153 222 140 153 222 140 153 222 140 153 222 140 153 222 140 153 222 140 153 222 140 153 222 140 153 222 140 153 222 140 153 222 140 153 222 140 153 222 140 153 222 140 153 222 140 153 222 140 153 222 140 153 222 140 153 222 140 153 222 140 153 222 140 153 222 140 153 222 140 153 222 140 153 222 140 153 222 140 153 222 140 153 222 140 153 222 140 153 222 140 153 222 140 153 222 140 153 222 140 153 222 140 153 222 140 153 222 140 153 222 140 153 222 140 153 222 140 153 222 140 153 222 140 153 222 140 153 222 140 153 222 140 153 222 140 153 222 140 153 222 140 153 222 140 153 222 140 153 222 140 153 222 140 153 222 92 95 255 94 98 255 98 102 255 103 106 255 110 114 255 118 122 255 120 124 255 136 139 255 142 145 255 153 155 255 156 159 255 168 170 255 173 175 255 182 183 255 191 192 255 198 198 255 207 208 255 210 210 255 214 214 255 223 223 255 225 224 255 232 232 255 235 234 255 238 237 255 239 238 255 239 237 255 238 237 255 238 237 255 237 236 255 235 235 255 229 228 255 228 228 255 227 226 255 222 222 255 219 219 255 212 212 255 209 210 255 204 205 255 199 200 255 191 193 255 183 185 255 178 180 255 173 175 255 167 170 255 158 162 255 156 159 255 148 151 255 143 147 255 136 141 255 129 133 255 126 131 255 119 124 255 114 119 255 108 114 255 103 109 255 100 106 255 97 104 255 91 97 255 86 93 255 83 90 255 80 87 255 75 83 255 74 81 255 72 79 255 71 78 255 
159 92 120 160 94 121 160 94 122 160 95 122 160 95 123 160 96 124 159 96 124 160 97 125 159 97 125 159 98 126 158 98 126 159 99 127 159 99 127 159 99 128 158 100 128 157 100 128 156 100 127 155 100 127 155 100 127 154 100 127 153 100 127 152 99 127 151 99 127 150 99 126 149 99 126 148 98 126 146 98 125 145 97 125 143 96 124 141 95 123 141 95 123 139 95 123 138 94 122 136 93 121 134 93 120 133 92 120 130 91 119 128 89 117 126 88 117 125 88 116 123 87 115 120 85 114 118 84 113 117 84 112 115 82 111 112 81 110 110 80 109 109 80 108 107 79 107 104 77 106 102 76 105 102 76 105 100 75 104 100 74 103 99 73 103 98 73 102 98 72 101 97 72 100 97 71 100 96 71 99 96 70 99 95 70 98 95 69 98 95 69 98 94 69 97 94 68 97 94 68 97 93 68 97 70 105 54 76 109 61 86 109 70 104 109 87 118 109 100 135 109 109 140 109 109 140 109 109 140 109 109 140 109 103 117 109 66 96 109 80 84 109 69 71 102 57 66 89 51 65 75 49 93 68 96 93 68 96 93 68 96 93 68 96 93 68 96 93 68 96 93 68 96 94 68 96 94 68 96 94 68 96 21 21 23 15 15 17 21 21 23 15 15 17 21 21 23 15 15 17 21 21 23 15 15 17 21 21 23 21 21 23 21 21 23 16 16 17 21 21 23 21 21 23 21 21 23 16 16 17 21 21 23 16 16 17 21 21 23 16 16 17 21 21 23 21 21 23 16 16 17 21 21 23 21 21 23 21 21 23 16 16 17 21 21 23 21 21 23 16 16 17 21 21 23 87 255 118 88 255 120 92 255 125 80 248 81 88 255 90 96 255 97 108 255 109 141 255 138 179 255 168 210 255 195 218 255 201 228 255 195 183 255 212 193 255 221 199 255 227 208 255 235 212 255 239 219 255 245 220 255 247 226 255 253 226 255 252 230 255 255 229 255 255 228 255 255 223 255 251 223 255 250 217 255 245 212 255 241 205 255 235 196 255 226 190 255 222 183 255 215 176 255 209 168 255 202 160 255 194 152 255 187 146 255 182 138 253 175 131 243 168 123 233 161 116 223 155 109 213 148 102 204 142 95 194 135 90 187 131 84 179 126 79 171 121 74 162 117 70 155 112 67 149 110 64 143 107 61 136 104 59 131 102 57 126 100 55 121 98 54 116 97 53 111 96 52 106 94 52 102 94 51 96 93 50 92 92 50 90 92 51 90 92 52 91 92 53 91 92 53 92 93 54 93 93 55 93 93 56 95 93 58 96 94 60 98 94 21 21 23 16 16 17 21 21 23 21 21 23 16 16 17 21 21 23 21 21 23 21 21 23 16 16 17 21 21 23 21 21 23 16 16 17 21 21 23 16 16 17 21 21 23 16 16 17 21 21 23 21 21 23 21 21 23 16 16 17 21 21 23 21 21 23 21 21 23 15 15 17 21 21 23 15 15 17 21 21 23 15 15 17 21 21 23 15 15 17 21 21 23 15 15 17 21 21 23 15 15 17 15 15 17 15 15 17 21 21 23 15 15 17 15 15 17 21 21 23 21 21 23 21 21 23 15 15 17 15 15 17 15 15 17 21 21 23 15 15 17 21 21 23 15 15 17 20 20 23 15 15 17 21 21 23 15 15 17 21 21 23 15 15 17 20 20 23 20 20 23 20 20 23 93 97 255 95 99 255 100 104 255 107 111 255 113 118 255 123 126 255 134 137 255 138 141 255 154 156 255 159 161 255 173 174 255 177 178 255 186 187 255 194 195 255 202 202 255 214 214 255 218 217 255 230 229 255 236 235 255 238 237 255 246 245 255 246 244 255 253 251 255 255 253 255 255 255 255 255 255 255 255 255 255 255 255 255 255 255 255 255 254 255 252 250 255 248 247 255 246 245 255 243 242 255 234 233 255 235 234 255 227 226 255 222 223 255 217 217 255 212 213 255 204 205 255 196 197 255 191 192 255 183 185 255 177 179 255 170 173 255 164 167 255 158 161 255 151 154 255 145 149 255 137 141 255 133 137 255 127 131 255 121 126 255 114 119 255 109 115 255 105 111 255 102 108 255 96 102 255 91 97 255 88 95 255 85 91 255 80 86 255 77 84 255 75 82 255 72 79 255 
151 90 117 151 90 117 151 91 118 152 91 118 151 92 119 152 93 119 151 93 119 151 93 120 150 94 120 151 94 121 150 94 121 150 95 121 150 95 122 149 95 122 149 96 123 148 96 122 147 95 122 147 96 122 146 96 122 145 96 122 145 95 122 144 95 122 143 95 122 142 95 122 140 94 121 139 94 121 137 94 120 136 93 120 135 93 120 134 93 119 132 92 119 131 91 118 130 90 117 128 90 117 126 89 116 125 88 116 123 87 115 121 86 113 119 85 113 117 85 112 116 84 111 113 83 110 112 82 109 110 82 109 108 81 108 106 80 107 105 79 106 104 78 106 104 78 105 103 77 104 102 76 103 101 75 103 100 74 102 52 21 21 51 20 21 49 18 18 48 17 18 48 17 17 47 16 17 47 16 16 48 18 18 46 15 16 46 15 16 47 17 17 44 13 14 44 13 14 71 41 109 86 57 109 70 99 53 76 109 59 82 109 65 96 109 78 108 109 89 118 109 98 128 109 107 135 109 79 128 109 82 120 109 77 93 109 53 78 100 39 81 109 65 71 95 55 67 84 50 65 72 48 46 15 16 48 18 19 46 15 16 48 18 19 49 18 19 46 15 16 49 18 19 49 18 19 48 18 19 48 18 19 25 25 28 25 25 28 19 19 20 19 19 20 19 19 20 25 25 28 25 25 28 25 25 28 25 25 28 19 19 21 19 19 21 19 19 21 19 19 21 26 26 28 26 26 28 26 26 28 19 19 21 19 19 21 26 26 28 26 26 28 26 26 28 26 26 28 26 26 28 19 19 21 19 19 21 26 26 28 26 26 28 19 19 21 19 19 21 19 19 21 26 26 28 86 255 119 88 255 121 75 236 74 80 240 80 88 249 89 96 255 97 110 255 109 134 255 132 156 255 149 177 255 161 184 255 161 193 255 159 171 255 200 178 255 207 187 255 215 192 255 220 196 255 224 203 255 230 205 255 231 206 255 233 208 255 235 211 255 237 209 255 236 209 255 235 207 255 234 202 255 230 200 255 229 195 255 224 189 255 219 182 255 212 176 255 207 170 255 201 163 255 196 156 255 189 150 255 184 144 255 179 137 247 172 130 238 165 124 230 160 116 220 153 110 211 148 104 203 142 99 196 138 92 185 131 86 177 126 82 170 122 78 163 118 74 156 114 70 149 111 67 143 107 64 137 105 61 131 103 60 126 101 58 121 99 56 116 97 55 111 96 54 106 95 53 103 94 53 98 93 52 92 92 52 91 92 52 91 92 53 92 92 53 92 93 54 93 93 55 93 93 55 93 93 56 94 93 57 95 93 58 96 94 59 97 94 26 26 28 19 19 21 19 19 21 19 19 21 26 26 28 26 26 28 19 19 21 19 19 21 26 26 28 26 26 28 26 26 28 26 26 28 26 26 28 19 19 21 19 19 21 26 26 28 26 26 28 26 26 28 19 19 21 19 19 21 19 19 21 19 19 21 25 25 28 25 25 28 25 25 28 25 25 28 19 19 20 19 19 20 19 19 20 25 25 28 25 25 28 25 25 28 25 25 28 19 19 20 19 19 20 19 19 20 25 25 28 25 25 28 25 25 28 25 25 28 25 25 28 19 19 20 19 19 20 19 19 20 18 18 20 19 19 20 25 25 27 25 25 27 25 25 27 18 18 20 25 25 27 18 18 20 24 24 27 18 18 20 18 18 20 24 24 27 92 95 255 92 96 255 98 102 255 103 107 255 110 113 255 118 121 255 126 129 255 136 139 255 146 149 255 154 156 255 170 171 255 176 177 255 190 190 255 196 196 255 205 205 255 214 213 255 223 222 255 235 234 255 239 237 255 250 248 255 255 255 255 255 254 255 255 255 255 255 255 255 255 255 255 255 255 255 255 255 255 255 255 255 255 255 255 255 255 255 255 255 255 255 255 255 255 255 255 255 255 255 255 255 255 255 254 255 251 249 255 247 246 255 241 240 255 236 235 255 228 228 255 224 223 255 217 217 255 208 209 255 204 205 255 193 194 255 185 187 255 180 182 255 172 175 255 165 168 255 158 161 255 151 155 255 144 148 255 140 144 255 133 137 255 128 132 255 121 126 255 116 121 255 112 118 255 108 114 255 101 107 255 96 102 255 93 99 255 88 95 255 84 90 255 81 87 255 78 85 255 75 82 255 
99 36 36 99 37 37 104 42 42 99 38 38 103 42 42 99 39 39 98 39 39 102 43 43 98 39 39 101 43 44 101 45 45 101 45 45 97 41 42 96 42 42 99 46 46 95 42 41 99 46 46 94 42 42 93 42 42 97 46 46 92 42 41 95 46 46 94 46 46 88 41 41 92 45 45 86 40 40 90 44 44 89 45 46 87 44 45 86 44 45 81 39 39 83 43 43 82 42 43 75 37 37 75 36 37 78 40 41 71 35 35 74 39 40 68 34 34 66 33 33 69 36 37 67 36 37 62 31 31 66 34 35 66 35 36 66 34 36 60 29 30 64 33 34 64 33 34 63 32 34 62 31 33 58 27 28 61 30 32 57 27 28 56 25 26 56 25 26 55 24 25 55 24 25 54 23 24 58 27 29 53 22 24 53 22 23 54 23 24 53 22 23 58 27 29 52 21 22 71 42 109 49 55 39 51 69 19 73 101 55 78 108 60 85 109 66 92 109 72 103 109 82 108 109 87 96 109 56 95 109 55 91 109 51 81 101 42 71 88 33 78 101 60 71 90 53 68 82 50 47 48 16 52 21 22 56 25 27 56 25 27 55 25 27 55 24 26 51 20 21 50 20 21 54 23 25 54 23 24 52 21 23 47 16 17 30 30 33 30 30 33 22 22 24 22 22 24 30 30 33 22 22 24 22 22 24 22 22 24 30 30 33 23 23 25 23 23 25 23 23 25 23 23 25 30 30 33 30 30 33 30 30 33 23 23 25 23 23 25 23 23 25 30 30 33 23 23 25 23 23 25 23 23 25 30 30 33 30 30 33 30 30 33 22 22 25 22 22 25 22 22 25 37 194 35 85 253 116 88 255 119 74 228 73 79 233 78 83 237 83 94 246 93 104 255 102 120 255 117 130 255 126 142 255 133 150 255 135 164 255 137 157 255 186 164 255 192 169 255 197 176 255 204 179 255 206 183 255 210 185 255 212 187 255 213 188 255 215 190 255 217 189 255 216 187 255 215 187 255 214 183 255 211 181 255 209 177 255 206 172 255 201 166 255 195 162 255 192 155 255 186 150 255 182 144 255 176 137 246 170 133 239 166 127 232 161 121 223 156 116 215 150 109 206 145 105 200 141 99 191 135 94 184 131 88 175 125 84 168 122 80 161 118 76 155 114 72 148 111 69 142 108 66 136 106 64 131 104 62 125 101 60 120 99 58 115 98 57 110 97 56 106 95 55 102 94 54 97 93 54 92 93 54 92 93 54 93 93 54 93 93 37 72 107 38 73 107 35 70 107 56 94 93 57 95 93 57 95 93 58 96 94 59 97 94 60 98 94 14 46 14 22 22 24 22 22 24 22 22 24 30 30 33 30 30 33 30 30 33 22 22 24 22 22 24 22 22 24 30 30 33 22 22 24 22 22 24 22 22 24 30 30 33 30 30 33 30 30 33 22 22 24 22 22 24 22 22 24 22 22 24 30 30 33 22 22 24 22 22 24 22 22 24 29 29 32 22 22 24 22 22 24 29 29 32 29 29 32 29 29 32 29 29 32 22 22 24 22 22 24 22 22 24 29 29 32 22 22 24 22 22 24 22 22 24 29 29 32 29 29 32 29 29 32 22 22 24 22 22 24 29 29 31 29 29 31 21 21 23 21 21 23 29 29 31 21 21 23 21 21 23 21 21 23 21 21 23 29 29 31 29 29 31 92 95 255 95 99 255 96 100 255 106 110 255 111 115 255 120 123 255 130 133 255 136 139 255 150 153 255 164 166 255 173 174 255 186 187 255 194 194 255 207 207 255 215 214 255 223 222 255 232 230 255 243 241 255 250 248 255 255 255 255 255 255 255 255 255 255 255 255 255 255 255 255 255 255 255 255 255 255 255 255 255 255 255 255 255 255 255 255 255 255 255 255 255 255 255 255 255 255 255 255 255 255 255 255 255 255 255 255 255 255 255 255 255 255 255 255 255 254 252 255 246 244 255 239 238 255 234 234 255 223 223 255 218 218 255 210 210 255 204 205 255 196 197 255 190 191 255 178 180 255 173 175 255 167 169 255 161 164 255 153 156 255 148 152 255 139 143 255 135 139 255 126 131 255 122 127 255 117 122 255 113 118 255 105 110 255 99 105 255 97 102 255 92 98 255 87 93 255 85 92 255 81 87 255 77 84 255 
99 41 41 105 47 48 99 42 43 98 42 43 98 42 43 104 49 51 104 49 51 104 50 52 98 44 45 97 44 45 96 44 45 102 51 52 102 51 53 95 45 46 101 51 53 100 51 53 100 52 54 92 45 46 92 45 46 91 45 46 97 52 53 89 45 46 95 51 53 94 51 53 93 51 53 91 50 52 84 43 44 82 43 44 81 43 44 87 50 52 86 49 51 85 49 51 77 41 43 81 47 49 73 40 41 72 40 41 77 45 48 70 39 40 69 37 39 75 44 46 75 43 46 74 43 45 74 43 45 67 36 37 73 42 45 73 42 44 66 34 36 65 34 35 71 40 42 70 39 42 63 32 34 69 38 41 66 35 37 68 37 40 68 37 39 67 36 39 61 30 32 67 36 39 67 36 39 58 28 29 66 35 37 58 27 29 59 28 30 64 33 36 64 33 36 53 22 62 57 26 84 55 57 25 55 66 25 59 76 28 67 85 37 71 91 40 71 92 40 78 100 46 81 103 49 75 91 37 75 90 36 71 86 33 66 79 29 61 72 24 62 75 32 59 69 29 53 55 22 52 42 22 55 25 27 61 30 33 55 24 26 61 30 32 60 30 32 54 24 25 59 29 31 53 22 24 53 22 23 54 23 25 26 26 28 26 26 28 26 26 28 35 35 38 35 35 38 35 35 38 35 35 38 35 35 38 26 26 28 35 35 39 35 35 39 26 26 29 26 26 29 26 26 29 26 26 29 35 35 39 35 35 39 35 35 39 26 26 29 35 35 39 35 35 39 35 35 39 35 35 39 26 26 29 26 26 29 26 26 29 26 26 29 35 35 39 35 35 39 35 35 39 35 35 39 85 246 116 86 248 117 72 219 70 57 215 42 103 246 82 95 252 75 95 238 92 104 246 100 110 251 107 115 253 111 121 255 114 137 255 120 146 255 174 151 255 179 156 255 183 161 255 188 163 255 191 166 255 193 169 255 196 171 255 197 172 255 199 174 255 201 173 255 200 172 255 199 171 255 198 168 255 195 167 255 194 161 255 190 158 255 186 153 255 182 148 255 178 144 253 174 140 247 171 135 239 166 128 230 160 123 224 156 119 217 151 114 210 147 110 203 143 104 195 138 99 188 133 95 181 130 90 174 125 85 166 121 81 159 118 78 154 115 74 147 111 71 141 108 69 136 106 66 130 104 64 125 102 62 119 100 61 115 98 59 110 97 58 105 96 57 100 95 56 96 93 56 94 93 56 94 93 56 94 93 38 73 107 47 82 107 67 101 107 70 104 107 53 88 107 40 75 107 34 69 107 59 97 94 59 97 94 60 98 94 61 98 94 34 34 38 34 34 38 34 34 38 34 34 38 26 26 28 26 26 28 26 26 28 26 26 28 34 34 37 34 34 37 34 34 37 34 34 37 26 26 28 34 34 37 34 34 37 34 34 37 25 25 28 25 25 28 25 25 28 25 25 28 34 34 37 34 34 37 25 25 27 33 33 37 33 33 37 33 33 37 33 33 37 33 33 37 25 25 27 25 25 27 25 25 27 25 25 27 25 25 27 25 25 27 25 25 27 25 25 27 33 33 37 33 33 37 33 33 37 33 33 36 33 33 36 33 33 36 33 33 36 24 24 27 24 24 27 24 24 27 24 24 27 24 24 27 24 24 27 24 24 27 24 24 27 24 24 27 33 33 36 33 33 36 91 95 255 93 96 255 99 103 255 100 104 255 111 115 255 117 120 255 126 130 255 137 139 255 143 145 255 162 163 255 175 176 255 181 182 255 198 198 255 206 206 255 218 218 255 222 221 255 232 231 255 240 238 255 254 251 255 255 255 255 255 255 255 255 255 255 255 255 255 255 255 255 255 255 255 255 255 255 255 255 255 255 255 255 255 255 255 255 255 255 255 255 255 255 255 255 255 255 255 255 255 255 255 255 255 255 255 255 255 255 255 255 255 255 255 255 255 255 255 255 255 255 255 255 254 255 247 246 255 241 240 255 235 234 255 226 225 255 220 220 255 212 212 255 203 203 255 198 199 255 186 188 255 180 182 255 173 175 255 168 170 255 159 162 255 150 154 255 147 150 255 140 143 255 132 136 255 127 132 255 120 124 255 115 120 255 110 115 255 105 110 255 101 107 255 97 103 255 91 97 255 88 95 255 84 90 255 80 86 255 
97 44 46 98 44 46 97 44 46 97 45 46 97 45 47 105 54 56 104 54 56 96 46 47 95 46 48 103 55 58 103 55 58 102 55 58 93 47 49 93 47 49 92 47 49 100 56 58 91 47 49 98 55 58 89 47 49 97 56 59 96 56 58 86 47 49 85 46 48 84 46 48 83 46 48 82 46 48 81 45 47 80 45 47 79 45 47 78 44 46 76 43 45 83 52 55 75 43 45 74 43 45 74 42 44 73 42 44 81 50 53 81 50 53 72 41 43 71 40 42 79 48 51 71 40 42 70 39 41 70 39 41 69 38 40 77 46 49 68 37 39 68 37 39 67 36 39 67 36 38 71 40 44 66 35 37 63 32 35 73 43 46 71 40 43 73 42 45 64 33 35 72 41 44 71 41 44 70 39 42 71 40 43 61 31 33 62 31 34 69 38 42 69 39 42 69 39 42 55 24 61 66 34 85 54 52 24 57 64 27 59 69 29 65 77 35 64 77 33 72 86 42 69 84 38 73 87 43 68 81 38 60 67 23 57 63 20 61 70 31 58 63 28 60 62 30 53 49 23 53 35 23 66 35 38 58 28 30 58 28 30 64 34 36 64 34 36 57 27 29 57 26 28 56 26 27 61 31 33 52 22 23 29 29 32 29 29 32 29 29 32 29 29 32 39 39 43 39 39 43 39 39 43 39 39 43 39 39 43 40 40 44 40 40 44 40 40 44 40 40 44 30 30 33 30 30 33 40 40 44 40 40 44 40 40 44 30 30 32 30 30 32 30 30 32 30 30 32 30 30 32 40 40 44 40 40 44 40 40 44 40 40 44 40 40 44 40 40 44 40 40 44 41 181 41 39 185 37 85 240 116 54 192 39 59 197 45 61 217 45 75 235 57 70 205 54 94 230 90 99 234 95 103 236 98 106 238 102 113 241 106 135 255 163 138 255 166 143 255 170 147 255 174 150 255 177 154 255 180 155 255 182 157 255 184 159 255 185 159 255 185 158 255 185 157 255 184 157 255 184 154 255 181 150 255 178 149 255 176 145 255 173 140 248 169 137 242 166 132 236 162 130 231 159 124 223 155 121 218 151 116 210 147 111 204 143 107 197 139 103 191 136 98 184 132 94 177 128 90 171 124 87 165 121 83 157 117 79 151 113 76 146 111 73 140 109 70 133 106 68 129 104 66 123 102 65 119 100 63 113 98 61 108 97 60 104 96 59 99 95 58 96 94 58 96 94 58 96 93 58 96 94 39 73 107 56 90 107 80 113 107 106 138 107 102 134 107 73 107 107 48 83 107 34 69 107 60 98 94 61 98 94 61 99 94 17 49 18 20 53 22 39 39 43 39 39 43 39 39 43 38 38 42 38 38 42 38 38 42 38 38 42 29 29 31 29 29 31 29 29 31 29 29 31 29 29 31 38 38 42 38 38 42 38 38 42 29 29 31 29 29 31 38 38 42 38 38 42 38 38 42 38 38 42 37 37 41 37 37 41 37 37 41 37 37 41 37 37 41 28 28 31 28 28 31 28 28 31 28 28 31 28 28 31 37 37 41 28 28 31 28 28 31 28 28 31 28 28 31 28 28 30 28 28 30 28 28 30 28 28 30 28 28 30 37 37 41 37 37 41 37 37 41 27 27 30 27 27 30 37 37 41 37 37 41 37 37 40 27 27 30 36 36 40 36 36 40 92 95 255 93 97 255 97 101 255 106 109 255 109 113 255 121 124 255 124 127 255 142 144 255 152 154 255 156 158 255 173 174 255 186 186 255 195 195 255 210 209 255 219 218 255 231 230 255 238 237 255 248 246 255 255 254 255 255 255 255 255 255 255 255 255 255 255 255 255 255 255 255 255 255 255 255 255 255 255 255 255 255 255 255 255 255 255 255 255 255 255 255 255 255 255 255 255 255 255 255 255 255 255 255 255 255 255 255 255 255 255 255 255 255 255 255 255 255 255 255 255 255 255 255 255 255 255 255 255 252 251 255 246 245 255 240 239 255 232 231 255 222 222 255 216 216 255 208 208 255 201 202 255 193 194 255 185 186 255 177 179 255 170 172 255 161 163 255 154 157 255 149 152 255 143 146 255 135 138 255 129 133 255 123 128 255 120 124 255 112 117 255 108 113 255 103 109 255 99 104 255 93 98 255 90 96 255 87 93 255 82 88 255 
104 54 58 104 55 58 94 46 48 93 46 48 103 56 59 102 56 59 102 56 59 93 47 49 92 47 49 91 47 49 90 47 49 99 57 60 99 57 60 98 57 60 88 47 49 87 47 49 96 57 60 86 47 49 95 57 60 83 47 49 83 47 49 82 47 49 81 46 48 89 56 59 89 56 59 88 55 58 87 55 58 76 45 47 86 55 58 86 55 58 85 54 57 85 54 57 84 53 57 84 53 56 84 53 56 83 52 56 74 43 45 83 52 55 83 52 55 82 51 54 82 51 54 81 50 53 77 46 49 76 45 49 80 49 52 79 48 52 79 48 52 69 39 41 69 38 41 78 47 50 77 46 49 77 46 49 74 44 47 67 36 39 67 36 38 66 35 38 73 43 46 65 34 36 65 34 36 65 34 37 64 33 36 72 42 45 73 42 46 73 42 45 72 42 45 64 33 35 56 25 46 55 24 56 52 39 23 59 57 30 60 61 31 62 65 32 59 64 29 65 71 35 61 68 31 66 72 36 66 72 36 64 68 35 63 65 33 57 57 27 55 50 25 54 45 24 51 33 21 69 38 41 61 30 32 68 37 41 60 30 32 67 36 39 67 36 39 66 36 39 59 28 30 58 27 29 57 27 28 32 32 36 32 32 36 32 32 36 32 32 36 32 32 36 32 32 36 43 43 48 43 43 48 44 44 48 44 44 48 44 44 48 33 33 36 33 33 36 33 33 36 33 33 36 33 33 36 33 33 36 44 44 48 44 44 48 44 44 48 44 44 48 44 44 48 33 33 36 33 33 36 33 33 36 33 33 36 33 33 36 33 33 36 44 44 49 44 44 48 44 44 48 37 175 37 37 179 36 54 185 41 55 187 41 49 186 34 54 198 39 58 202 42 69 199 54 74 201 58 79 205 62 82 207 65 83 206 66 85 207 68 125 255 152 129 255 156 132 255 159 136 255 162 138 255 164 140 255 166 141 255 167 143 255 169 145 255 171 144 255 170 145 255 171 144 255 170 142 254 169 141 251 167 140 248 166 136 242 163 134 237 161 130 231 157 127 226 155 123 220 152 120 215 148 117 209 145 112 202 142 109 197 139 105 192 135 102 185 132 97 179 128 94 173 125 90 167 122 87 161 119 84 156 116 80 149 113 78 144 110 75 138 108 72 133 106 70 128 104 68 122 102 66 118 100 65 113 99 63 108 97 62 104 96 61 99 95 61 98 95 60 98 94 60 98 94 60 98 94 60 98 94 42 76 107 60 94 107 88 120 107 107 140 107 107 140 107 99 132 107 67 100 107 39 73 107 34 69 97 13 46 14 15 47 15 16 49 17 17 50 18 42 42 47 42 42 47 42 42 47 32 32 35 32 32 35 32 32 35 32 32 35 32 32 35 32 32 35 42 42 46 42 42 46 42 42 46 42 42 46 42 42 46 31 31 34 31 31 34 31 31 34 31 31 34 31 31 34 31 31 34 42 42 46 42 42 46 42 42 46 41 41 45 41 41 45 31 31 34 31 31 33 31 31 33 31 31 33 31 31 33 31 31 33 41 41 45 41 41 45 41 41 45 41 41 45 41 41 45 30 30 33 30 30 33 30 30 33 30 30 33 30 30 33 30 30 33 30 30 33 40 40 44 40 40 44 40 40 44 40 40 44 30 30 32 30 30 32 30 30 32 30 30 32 91 94 255 93 97 255 96 100 255 100 104 255 110 113 255 113 117 255 125 128 255 129 132 255 144 146 255 156 157 255 163 164 255 177 178 255 190 190 255 199 199 255 213 212 255 224 223 255 235 233 255 242 240 255 250 247 255 255 255 255 255 255 255 255 255 255 255 255 255 255 255 255 255 255 255 255 255 255 255 255 255 255 255 255 255 255 255 255 255 255 255 255 255 255 255 255 255 255 255 255 255 255 255 255 255 255 255 255 255 255 255 255 255 255 255 255 255 255 255 255 255 255 255 255 255 255 255 255 255 255 255 255 255 255 255 250 248 255 247 245 255 237 236 255 228 227 255 220 220 255 210 210 255 206 206 255 196 197 255 189 190 255 181 183 255 175 176 255 166 168 255 159 161 255 151 155 255 147 150 255 138 142 255 134 138 255 127 131 255 122 126 255 115 119 255 110 115 255 107 112 255 102 108 255 96 102 255 93 99 255 88 94 255 84 91 255 
92 46 48 102 56 60 101 57 60 100 57 60 100 57 60 89 46 49 88 46 49 88 47 49 87 46 49 97 57 61 96 57 61 96 57 61 95 57 61 94 57 61 84 47 49 83 47 49 82 47 49 81 47 49 80 46 49 79 46 49 78 46 48 77 46 48 77 46 48 77 46 48 87 56 59 87 56 59 87 56 59 87 56 59 86 55 59 76 45 47 75 44 47 75 44 47 85 54 58 85 54 58 85 54 57 84 53 57 84 53 57 84 53 56 83 52 56 83 52 56 83 52 55 72 41 44 82 51 55 82 51 54 81 50 54 80 49 53 80 49 53 68 37 40 70 39 42 67 36 39 77 46 50 77 46 49 77 46 49 67 36 39 67 36 39 66 35 38 66 35 38 66 35 38 66 35 38 75 44 48 75 44 48 66 35 38 66 35 38 65 35 37 74 44 47 74 44 47 74 43 47 51 20 34 55 24 40 52 36 23 54 43 24 55 48 25 60 55 31 60 57 31 57 55 27 57 54 27 56 53 27 60 57 31 55 48 25 58 48 29 57 41 28 56 38 27 71 41 44 62 32 34 71 40 43 62 31 34 62 31 33 69 39 42 61 31 33 68 38 41 60 30 32 67 36 39 58 28 30 48 48 53 48 48 53 47 47 52 35 35 39 35 35 39 35 35 39 36 36 39 36 36 39 36 36 39 48 48 53 48 48 53 48 48 53 48 48 53 48 48 53 48 48 53 48 48 53 36 36 39 36 36 39 36 36 40 36 36 40 36 36 40 36 36 40 48 48 53 48 48 53 48 48 53 48 48 53 48 48 53 48 48 53 48 48 53 36 36 39 36 36 39 38 169 38 40 176 40 54 179 41 54 179 40 60 184 47 49 178 33 66 189 52 65 187 51 69 190 54 77 197 62 82 199 67 80 197 64 82 197 66 75 200 71 78 201 73 77 198 71 82 202 77 84 202 78 85 201 79 85 199 79 87 199 81 87 197 81 84 193 78 86 192 80 86 190 80 85 186 78 131 235 156 129 232 155 127 227 153 124 222 150 121 217 148 119 213 146 116 208 143 112 202 140 110 197 138 106 191 134 103 186 132 100 181 129 97 175 126 94 170 123 91 164 120 88 159 118 84 153 115 82 148 113 79 142 110 76 136 107 74 132 106 24 74 24 22 69 22 21 65 21 17 58 17 19 56 19 18 52 19 17 49 18 17 49 18 17 49 18 18 50 19 15 47 15 18 51 19 19 51 20 47 81 107 68 102 107 95 127 107 107 140 107 107 140 107 102 134 107 74 107 107 51 85 107 35 69 102 18 51 20 19 51 20 19 51 20 19 52 20 34 34 37 34 34 37 46 46 51 46 46 51 46 46 51 46 46 51 46 46 51 46 46 51 46 46 50 34 34 37 34 34 37 34 34 37 34 34 37 34 34 37 34 34 37 45 45 50 45 45 50 45 45 49 45 45 49 45 45 49 45 45 49 45 45 49 33 33 37 33 33 37 33 33 37 33 33 36 33 33 36 33 33 36 44 44 49 44 44 49 44 44 49 44 44 49 44 44 49 44 44 49 44 44 49 33 33 36 33 33 36 33 33 36 33 33 36 32 32 36 32 32 36 44 44 48 44 44 48 43 43 48 43 43 48 43 43 48 43 43 47 32 32 35 32 32 35 32 32 35 32 32 35 91 95 255 95 98 255 99 102 255 104 108 255 113 117 255 120 123 255 133 135 255 137 140 255 153 155 255 166 167 255 173 174 255 189 189 255 199 198 255 210 209 255 223 221 255 227 226 255 242 240 255 251 249 255 255 255 255 255 255 255 255 255 255 255 255 255 255 255 255 255 255 255 255 255 255 255 255 255 255 255 255 255 255 255 255 255 255 255 255 255 255 255 255 255 255 255 255 255 255 255 255 255 255 255 255 255 255 255 255 255 255 255 255 255 255 255 255 255 255 255 255 255 255 255 255 255 255 255 255 255 255 255 255 255 255 254 252 255 246 245 255 238 237 255 229 228 255 223 223 255 211 211 255 207 207 255 197 198 255 190 191 255 183 184 255 177 179 255 168 170 255 160 163 255 154 157 255 149 152 255 141 144 255 135 139 255 128 132 255 123 128 255 117 121 255 112 117 255 108 113 255 104 109 255 97 103 255 94 99 255 91 96 255 85 91 255 
97 56 60 97 56 60 85 45 48 84 45 48 84 46 48 95 57 61 82 45 48 82 46 48 93 57 61 92 56 60 91 57 61 80 46 48 91 56 61 78 45 48 77 45 48 77 45 48 77 45 48 77 46 48 77 45 48 87 56 60 87 56 60 87 56 60 87 56 60 87 56 60 87 56 60 76 45 48 76 45 48 76 45 48 76 45 47 86 55 59 86 55 59 86 55 59 75 44 46 75 44 46 74 43 46 74 43 46 74 43 46 73 43 46 73 42 45 73 42 45 72 42 44 80 49 53 83 52 56 82 51 55 82 51 55 79 48 53 81 50 54 81 50 54 80 49 53 80 49 53 79 48 52 78 47 51 79 48 52 78 47 51 78 47 51 78 47 51 67 37 40 67 37 40 67 36 39 67 36 39 67 36 39 77 46 50 67 36 39 67 36 39 66 36 39 66 36 39 66 36 39 66 35 38 75 45 49 52 34 22 52 35 23 53 35 23 53 36 23 57 42 29 53 39 24 53 39 24 53 40 24 53 38 23 53 37 23 52 35 23 52 34 22 73 43 46 73 42 46 64 33 36 72 42 45 63 33 35 63 33 35 71 41 44 71 40 43 70 39 43 62 31 33 68 38 41 59 29 31 39 39 43 52 52 57 52 52 57 52 52 57 52 52 57 52 52 57 53 53 58 53 53 58 39 39 43 39 39 43 39 39 43 39 39 43 39 39 43 39 39 43 39 39 43 39 39 43 52 52 58 53 53 58 53 53 58 53 53 58 53 53 58 53 53 58 53 53 58 39 39 43 39 39 43 39 39 43 39 39 43 39 39 43 39 39 43 39 39 43 40 40 43 40 162 40 49 175 49 52 181 53 56 173 43 54 172 41 60 177 47 63 179 49 60 177 47 68 183 54 67 180 52 71 183 56 73 184 58 75 184 60 84 204 83 78 196 75 88 204 86 90 205 88 84 196 81 93 203 90 95 203 92 87 193 84 88 192 84 96 198 93 87 187 84 87 184 83 93 189 91 84 178 81 90 182 87 87 176 85 78 165 75 81 166 80 72 154 69 69 150 67 73 152 72 64 140 62 68 142 67 65 137 64 62 132 62 53 121 52 57 121 57 47 110 47 44 105 44 48 106 49 40 94 40 43 95 44 41 90 43 33 79 34 37 81 39 30 70 31 28 65 29 33 67 35 25 58 27 25 57 26 30 63 33 29 61 31 23 55 24 28 61 30 28 61 30 22 55 24 28 61 31 48 83 107 69 102 107 94 126 107 107 140 107 107 140 107 77 111 107 70 103 107 40 75 107 35 70 97 28 61 30 28 60 30 27 60 30 21 54 23 37 37 41 37 37 41 37 37 41 37 37 41 37 37 41 37 37 41 37 37 41 37 37 41 49 49 55 49 49 55 49 49 55 49 49 55 49 49 54 49 49 54 49 49 54 36 36 40 36 36 40 36 36 40 36 36 40 36 36 40 36 36 40 36 36 40 36 36 40 49 49 54 48 48 54 48 48 53 48 48 53 48 48 53 48 48 53 48 48 53 36 36 39 36 36 39 36 36 39 36 36 39 35 35 39 35 35 39 35 35 39 47 47 52 47 47 52 47 47 52 47 47 52 47 47 52 47 47 52 47 47 52 35 35 38 35 35 38 35 35 38 35 35 38 35 35 38 35 35 38 91 95 255 95 99 255 98 102 255 103 106 255 109 112 255 116 119 255 125 128 255 138 141 255 141 143 255 157 158 255 167 168 255 175 176 255 190 190 255 200 199 255 213 212 255 224 222 255 235 233 255 244 241 255 253 250 255 255 255 255 255 255 255 255 255 255 255 255 255 255 255 255 255 255 255 255 255 255 255 255 255 255 255 255 255 255 255 255 255 255 255 255 255 255 255 255 255 255 255 255 255 255 255 255 255 255 255 255 255 255 255 255 255 255 255 255 255 255 255 255 255 255 255 255 255 255 255 255 255 255 255 255 255 255 255 255 255 255 252 250 255 249 247 255 238 236 255 232 231 255 222 221 255 215 214 255 208 208 255 198 198 255 191 192 255 183 184 255 176 178 255 169 171 255 162 165 255 156 158 255 148 151 255 143 146 255 138 142 255 131 134 255 126 130 255 119 123 255 114 119 255 110 115 255 105 110 255 99 104 255 96 102 255 92 97 255 88 94 255 
92 56 60 92 56 60 91 56 60 90 56 60 90 55 60 89 56 60 77 44 47 77 45 48 87 56 60 87 56 60 75 45 48 76 45 48 87 56 60 87 56 60 87 56 60 87 56 60 87 56 60 87 56 60 87 56 60 76 45 48 76 45 48 76 45 48 76 45 48 76 45 48 75 45 48 75 45 48 75 44 47 86 55 59 86 55 59 86 55 59 85 55 59 85 54 58 74 43 46 71 40 43 71 40 43 73 43 46 82 51 55 81 51 55 83 53 57 83 53 57 81 50 54 81 50 54 81 50 54 71 41 44 71 41 44 70 39 42 71 40 43 71 40 43 70 40 43 70 39 42 69 38 41 70 39 42 70 39 42 79 48 53 79 48 52 79 48 52 79 48 52 78 47 52 68 37 40 68 37 40 68 37 40 78 47 51 78 47 51 78 47 51 77 47 51 77 46 51 77 46 50 67 36 39 67 36 39 67 36 39 67 36 39 56 39 27 57 39 28 57 39 28 57 39 28 57 39 28 57 39 28 56 39 28 56 39 27 52 34 22 75 44 48 65 35 37 65 34 37 65 34 37 74 43 47 65 34 36 64 34 36 73 42 45 64 33 35 63 32 35 71 40 44 70 39 42 60 30 32 42 42 46 42 42 46 57 57 62 57 57 62 57 57 62 57 57 62 57 57 62 57 57 63 57 57 63 57 57 63 43 43 47 43 43 47 42 42 47 42 42 47 42 42 46 42 42 47 43 43 47 43 43 47 57 57 63 57 57 63 57 57 63 57 57 63 57 57 63 57 57 63 57 57 63 57 57 63 42 42 47 42 42 47 43 43 47 43 43 47 43 43 47 45 157 46 52 172 54 46 167 47 50 160 37 56 166 43 58 168 45 59 169 46 56 165 43 63 171 50 66 173 53 69 174 55 66 170 52 71 186 71 75 186 74 77 187 76 90 198 90 80 187 79 92 198 92 94 197 93 83 184 82 95 195 95 95 192 94 84 180 82 94 187 93 93 185 93 92 182 92 91 179 90 89 175 89 77 160 75 85 166 85 73 152 72 71 147 70 78 153 78 76 148 76 64 134 63 61 129 61 59 124 59 57 120 57 54 115 54 60 119 62 57 114 59 47 101 48 44 96 45 51 100 53 40 85 41 46 90 49 44 85 47 43 80 45 41 74 43 40 72 42 30 63 32 38 70 41 37 69 40 29 61 30 36 68 39 35 68 38 28 60 30 35 67 38 27 60 29 27 60 29 31 62 96 66 98 107 82 114 107 99 130 107 77 111 107 58 93 107 58 92 107 45 79 107 21 53 63 31 64 34 24 57 26 30 63 33 28 60 30 40 40 44 40 40 44 40 40 44 40 40 44 40 40 44 53 53 59 53 53 59 53 53 59 53 53 58 53 53 58 53 53 58 53 53 58 53 53 58 40 40 43 40 40 43 39 39 43 39 39 43 39 39 43 39 39 43 39 39 43 39 39 43 52 52 57 52 52 57 52 52 57 52 52 57 52 52 57 52 52 57 52 52 57 52 52 57 39 39 42 39 39 42 39 39 42 39 39 42 38 38 42 38 38 42 38 38 42 38 38 42 38 38 42 51 51 56 51 51 56 51 51 56 50 50 55 50 50 55 50 50 55 50 50 55 50 50 55 37 37 41 37 37 41 37 37 41 90 93 255 93 96 255 96 99 255 100 103 255 107 110 255 114 117 255 121 123 255 130 132 255 141 143 255 145 147 255 161 162 255 169 170 255 181 181 255 192 192 255 204 204 255 215 214 255 224 223 255 236 233 255 247 243 255 255 253 255 255 255 255 255 255 255 255 255 255 255 255 255 255 255 255 255 255 255 255 255 255 255 255 255 255 255 255 255 255 255 255 255 255 255 255 255 255 255 255 255 255 255 255 255 255 255 255 255 255 255 255 255 255 255 255 255 255 255 255 255 255 255 255 255 255 255 255 255 255 255 255 255 255 255 255 255 255 255 255 254 255 252 249 255 244 242 255 239 238 255 230 229 255 223 222 255 216 215 255 209 209 255 199 199 255 193 194 255 187 187 255 179 180 255 169 170 255 163 166 255 156 159 255 148 151 255 144 147 255 138 141 255 132 135 255 126 130 255 120 124 255 114 119 255 111 115 255 106 111 255 100 105 255 98 103 255 93 99 255 89 94 255 
87 55 59 86 55 59 86 55 59 85 55 59 86 55 59 74 44 47 74 44 47 74 44 47 75 44 47 75 44 47 75 44 47 75 44 47 86 56 60 86 55 60 86 56 60 87 56 60 87 56 60 86 56 60 86 56 60 75 44 47 86 55 60 86 55 60 86 55 60 86 55 59 86 55 59 86 55 59 86 55 59 86 55 59 86 55 59 74 44 46 74 43 46 74 43 46 74 43 46 71 41 44 71 40 44 73 42 45 71 40 44 71 40 43 83 53 57 72 41 45 71 40 43 71 40 43 70 40 43 72 41 44 70 39 42 71 40 43 71 40 43 71 40 43 70 40 43 70 40 43 81 50 54 80 49 54 80 49 53 80 49 53 80 49 53 79 49 53 79 48 53 79 48 53 79 48 52 69 38 41 68 38 41 68 38 41 68 38 41 68 37 41 68 37 40 68 37 40 68 37 40 78 47 51 78 47 51 78 47 51 67 37 40 67 37 40 77 46 51 56 38 27 56 39 27 56 39 27 56 39 27 76 46 49 67 36 39 66 36 39 66 36 39 66 35 38 75 45 48 75 44 48 75 44 48 65 35 37 65 34 37 74 43 47 73 43 46 64 33 36 64 33 35 71 40 43 68 37 40 61 61 67 61 61 67 61 61 67 61 61 67 46 46 50 45 45 50 45 45 50 46 46 50 46 46 50 46 46 50 46 46 50 46 46 50 46 46 50 61 61 67 61 61 67 61 61 67 61 61 68 61 61 68 61 61 68 61 61 68 61 61 67 61 61 67 46 46 50 46 46 50 46 46 50 46 46 50 46 46 51 46 46 51 46 46 50 46 46 50 46 46 50 61 61 67 52 162 54 55 166 56 48 150 35 53 155 41 51 152 38 52 153 39 52 154 39 54 154 41 55 154 42 58 155 44 64 160 51 66 174 67 80 185 82 82 186 83 83 185 84 84 185 86 85 185 86 75 172 75 87 183 88 88 182 88 88 180 88 77 166 76 87 176 88 87 172 87 85 169 86 84 166 85 72 151 72 82 159 83 80 154 81 67 139 67 65 136 65 64 132 64 72 137 73 69 133 71 67 129 69 65 125 67 63 121 65 61 116 63 59 111 61 47 97 49 45 93 47 43 88 45 51 93 54 49 88 52 37 74 39 45 79 48 44 77 47 43 75 46 42 74 45 33 65 35 41 73 44 40 72 43 39 72 42 30 63 33 39 71 42 38 71 42 38 71 41 38 70 41 24 57 71 35 66 94 45 77 107 60 91 107 62 93 107 48 84 107 43 75 103 35 67 91 29 61 80 34 67 37 27 59 29 33 66 36 32 65 35 57 57 63 43 43 47 43 43 47 43 43 47 43 43 47 43 43 47 42 42 47 42 42 46 42 42 46 42 42 46 57 57 62 57 57 62 57 57 62 56 56 62 56 56 62 56 56 62 56 56 61 56 56 61 56 56 61 42 42 46 42 42 46 42 42 46 42 42 46 42 42 46 42 42 46 41 41 45 41 41 45 41 41 45 55 55 60 55 55 60 55 55 60 55 55 60 54 54 60 54 54 60 54 54 60 54 54 60 54 54 60 54 54 60 41 41 44 41 41 44 40 40 44 40 40 44 40 40 44 40 40 44 40 40 44 40 40 44 40 40 44 53 53 58 53 53 58 53 53 58 89 93 255 93 96 255 94 98 255 102 105 255 110 113 255 115 118 255 122 125 255 131 133 255 141 143 255 149 151 255 163 164 255 170 171 255 182 182 255 171 190 255 181 205 255 196 231 255 227 225 255 235 233 255 244 242 255 255 252 255 255 255 255 255 255 255 255 255 255 255 255 255 255 255 255 255 255 255 255 255 255 255 255 255 255 255 255 255 255 255 255 255 255 255 255 255 255 255 255 255 255 255 255 255 255 255 255 255 255 255 255 255 255 255 255 255 255 255 255 255 255 255 255 255 255 255 255 255 255 255 255 255 255 255 255 255 255 255 253 250 255 248 246 255 241 239 255 232 230 255 226 224 255 219 218 255 212 212 255 207 206 255 198 198 255 191 192 255 184 185 255 175 176 255 168 169 255 161 163 255 157 159 255 149 151 255 143 146 255 137 140 255 130 133 255 125 129 255 120 124 255 115 119 255 111 115 255 105 110 255 100 105 255 97 102 255 93 98 255 89 94 255 
74 43 46 74 43 46 74 43 46 85 55 59 85 55 59 86 55 59 86 55 59 86 55 59 86 55 60 86 55 60 86 55 59 74 43 47 74 44 47 75 44 47 74 44 47 74 44 47 74 44 47 74 44 47 74 44 47 74 44 47 86 55 59 86 55 59 86 55 59 85 55 59 85 55 59 85 55 59 85 54 59 85 54 59 85 54 59 85 54 59 83 52 57 84 54 58 83 52 56 84 53 58 84 53 58 84 53 57 82 52 56 82 51 56 83 52 57 83 52 57 83 52 56 82 51 55 71 41 44 71 41 44 70 40 43 71 40 43 82 51 55 81 51 55 81 50 55 81 50 54 81 50 54 80 50 54 80 49 54 80 49 54 80 49 54 80 49 54 80 49 53 69 39 42 69 39 42 69 38 42 69 38 41 69 38 41 69 38 41 69 38 41 69 38 41 68 38 41 79 48 52 79 48 52 78 48 52 78 48 52 78 47 52 78 47 52 78 47 51 78 47 51 78 47 51 78 47 51 77 47 51 77 46 51 67 36 39 67 36 39 67 36 39 67 36 39 67 36 39 76 45 49 76 45 49 75 45 48 66 35 38 66 35 37 74 44 47 74 43 47 73 42 46 63 32 35 48 48 53 48 48 53 49 49 54 49 49 54 49 49 54 49 49 54 49 49 54 48 48 53 48 48 53 65 65 72 65 65 72 65 65 72 65 65 72 65 65 72 65 65 72 65 65 72 65 65 71 66 66 72 49 49 54 49 49 54 49 49 54 49 49 54 49 49 54 49 49 54 49 49 54 48 48 53 49 49 54 49 49 54 65 65 72 65 65 72 65 65 72 65 65 72 65 65 72 52 154 54 55 158 57 58 164 60 47 142 35 48 142 35 49 142 36 54 147 42 55 148 43 56 148 44 58 148 45 71 173 74 72 173 75 62 161 64 76 173 78 77 173 79 78 172 80 78 171 80 67 158 68 80 169 81 80 168 82 80 164 81 79 162 81 79 159 80 78 157 80 77 153 79 76 150 78 75 147 77 63 133 63 61 129 61 60 125 60 58 122 59 68 129 70 66 125 68 64 120 66 62 117 65 61 113 63 59 110 62 57 105 60 56 101 59 54 97 57 42 83 44 41 79 43 39 75 41 38 70 40 46 79 50 46 78 49 45 77 48 44 76 47 43 76 47 43 75 46 42 74 46 42 74 45 41 73 44 32 64 34 40 73 44 40 73 44 40 72 43 40 72 43 23 55 62 32 64 84 34 66 89 43 75 100 46 78 103 44 76 101 31 63 83 30 62 79 26 58 64 28 61 31 36 68 39 35 67 37 34 66 36 61 61 67 61 61 67 61 61 67 61 61 67 60 60 67 45 45 50 45 45 49 45 45 49 45 45 49 45 45 49 45 45 49 45 45 49 45 45 49 45 45 49 45 45 49 60 60 66 59 59 65 59 59 65 59 59 65 59 59 65 59 59 65 59 59 65 59 59 65 59 59 65 44 44 48 44 44 48 44 44 48 44 44 48 43 43 48 43 43 48 43 43 48 43 43 47 43 43 47 43 43 47 43 43 47 57 57 63 57 57 63 57 57 63 57 57 63 57 57 63 57 57 62 57 57 62 57 57 62 57 57 62 42 42 46 42 42 46 42 42 46 42 42 46 42 42 46 41 39 209 91 94 255 94 97 255 96 100 255 102 106 255 109 112 255 113 116 255 122 125 255 130 132 255 136 138 255 147 148 255 160 161 255 139 150 255 149 159 255 160 170 255 173 182 255 182 190 255 219 237 255 248 255 255 255 255 255 249 246 255 255 255 255 255 255 255 255 255 255 255 255 255 255 255 255 255 255 255 255 255 255 255 255 255 255 255 255 255 255 255 255 255 255 255 255 255 255 255 255 255 255 255 255 255 255 255 255 255 255 255 255 255 255 255 255 255 255 255 255 255 255 255 255 255 255 255 255 255 255 255 255 255 255 255 255 255 255 255 250 247 255 247 244 255 237 235 255 230 228 255 223 221 255 216 215 255 211 210 255 202 202 255 195 195 255 189 189 255 182 182 255 175 176 255 167 168 255 163 165 255 156 158 255 150 153 255 143 146 255 137 140 255 131 134 255 126 130 255 121 124 255 116 120 255 111 115 255 107 111 255 101 105 255 98 102 255 93 98 255 91 96 255 
73 43 46 73 43 46 85 54 59 85 54 59 85 54 59 85 54 59 85 54 59 85 55 59 85 55 59 85 55 59 74 43 46 74 43 46 74 43 46 74 43 47 74 43 47 74 43 46 74 43 46 74 43 46 74 43 46 74 43 46 85 54 59 74 43 46 74 43 46 74 43 46 72 41 45 73 43 46 72 41 45 73 43 46 73 42 46 72 41 44 72 41 44 73 42 45 83 52 56 83 52 56 84 53 57 83 53 57 82 52 56 83 52 57 82 52 56 82 51 56 82 51 56 82 51 56 71 41 44 70 40 43 70 40 43 71 40 43 81 51 55 81 51 55 81 51 55 81 50 55 81 50 55 81 50 55 81 50 54 81 50 54 81 50 54 70 39 42 70 39 42 69 39 42 69 39 42 69 39 42 69 39 42 69 39 42 69 39 42 69 38 42 69 38 41 79 49 53 79 48 53 79 48 53 79 48 53 79 48 52 79 48 52 79 48 52 79 48 52 78 48 52 78 47 52 78 47 52 78 47 51 78 47 51 78 47 51 67 37 40 67 37 40 67 36 40 67 36 39 77 46 50 77 46 50 76 45 49 66 35 38 66 35 38 75 44 48 65 34 37 64 33 36 69 69 76 69 69 76 69 69 76 52 52 57 69 69 76 52 52 57 52 52 57 52 52 57 52 52 57 52 52 57 69 69 76 69 69 76 52 52 57 52 52 57 52 52 57 69 69 76 69 69 76 52 52 57 52 52 57 69 69 76 69 69 76 69 69 76 69 69 76 69 69 76 69 69 76 52 52 57 69 69 76 69 69 76 52 52 57 52 52 57 52 52 57 52 52 57 52 52 56 52 52 56 36 122 37 43 137 45 46 142 48 59 156 61 50 136 38 50 136 39 51 136 39 52 137 40 53 136 40 54 137 42 67 161 70 56 149 58 69 161 72 70 160 72 70 159 73 59 147 61 59 144 61 59 142 60 60 142 61 72 151 74 60 138 62 60 136 61 60 134 61 59 131 60 70 140 72 69 137 71 68 134 71 68 132 70 66 128 69 65 124 68 53 110 55 51 106 53 50 103 52 49 99 51 47 96 49 46 92 48 45 88 47 44 85 46 42 82 45 41 78 43 40 74 42 49 81 53 48 80 51 47 80 51 46 79 50 45 78 49 45 77 49 35 67 37 34 66 37 34 66 36 34 66 36 43 75 46 33 66 36 33 65 35 33 65 35 32 65 35 41 74 45 41 73 44 24 57 49 25 57 68 31 64 79 29 61 77 29 61 77 28 60 74 24 57 65 21 54 52 30 62 32 37 70 41 29 61 31 28 60 30 25 58 27 48 48 53 48 48 53 48 48 52 48 48 52 48 48 52 47 47 52 64 64 70 64 64 70 47 47 52 63 63 69 63 63 69 63 63 69 63 63 69 63 63 69 63 63 69 47 47 52 47 47 51 62 62 68 62 62 68 46 46 51 46 46 51 46 46 51 62 62 68 62 62 68 46 46 51 46 46 50 46 46 50 46 46 50 46 46 50 61 61 67 46 46 50 61 61 67 61 61 67 60 60 67 60 60 67 45 45 50 45 45 49 60 60 66 60 60 66 60 60 66 60 60 66 45 45 49 60 60 66 44 44 49 44 44 49 44 44 49 44 44 49 44 44 48 47 45 211 41 40 208 92 95 255 96 99 255 97 101 255 103 106 255 111 114 255 115 118 255 124 127 255 128 130 255 138 140 255 147 148 255 127 138 255 136 146 255 145 155 255 155 164 255 168 177 255 177 186 255 215 222 255 243 253 255 255 255 255 255 255 255 252 249 255 255 255 255 255 255 255 255 255 255 255 255 255 255 255 255 255 255 255 255 255 255 255 255 255 255 255 255 255 255 255 255 255 255 255 255 255 255 255 255 255 255 255 255 255 255 255 255 255 255 255 255 255 255 255 255 255 255 255 255 255 255 255 255 255 255 255 255 255 255 255 253 255 251 248 255 245 243 255 238 235 255 232 230 255 224 222 255 218 216 255 211 210 255 204 203 255 197 197 255 191 192 255 183 183 255 179 180 255 170 171 255 164 165 255 158 160 255 151 154 255 147 149 255 140 143 255 134 137 255 129 133 255 126 129 255 119 123 255 114 118 255 110 114 255 104 109 255 101 105 255 97 102 255 94 99 255 91 96 255 
85 54 59 73 42 46 73 42 46 73 42 46 73 42 46 73 42 46 73 43 46 73 43 46 73 43 46 73 43 46 85 54 59 85 54 59 85 54 59 84 53 58 85 54 59 85 54 59 84 53 58 85 54 59 85 54 59 84 53 58 85 54 59 73 42 46 72 41 45 73 42 45 72 41 45 72 41 45 72 41 45 72 41 44 72 41 44 72 41 44 72 41 44 72 42 45 72 41 44 72 41 44 84 53 57 83 53 57 82 52 56 71 41 44 71 40 44 71 40 44 71 40 44 71 41 44 71 41 44 71 40 43 71 40 43 71 40 43 71 40 43 71 40 43 71 40 43 70 40 43 81 51 55 81 51 55 81 51 55 70 40 43 70 39 43 70 39 42 70 39 42 70 39 42 70 39 42 70 39 42 69 39 42 69 39 42 69 39 42 69 39 42 80 49 53 80 49 53 80 49 53 80 49 53 79 49 53 79 48 53 79 48 53 79 48 53 79 48 52 79 48 52 79 48 52 79 48 52 78 48 52 78 47 52 78 47 52 68 37 40 68 37 40 68 37 40 67 37 40 67 37 40 77 46 50 77 46 50 76 46 49 76 45 49 75 45 49 65 35 37 64 34 36 54 54 60 54 54 60 54 54 60 54 54 60 54 54 59 55 55 60 54 54 60 54 54 60 54 54 60 54 54 60 54 54 59 73 73 80 73 73 80 73 73 80 73 73 80 72 72 80 72 72 80 72 72 80 73 73 80 73 73 80 73 73 80 73 73 80 54 54 60 54 54 59 54 54 59 54 54 60 54 54 60 54 54 60 54 54 59 54 54 59 54 54 59 54 54 59 54 54 59 54 54 59 72 72 80 44 129 45 45 133 47 57 147 60 48 138 50 49 126 37 49 126 37 50 127 38 51 139 53 52 139 54 52 139 54 52 137 54 64 148 67 65 147 67 65 146 68 54 133 56 54 132 56 66 142 69 66 140 69 66 139 69 66 136 68 66 135 68 54 122 56 54 119 55 53 116 55 52 113 54 62 122 65 62 119 65 61 116 64 49 102 51 48 99 50 47 95 49 46 93 48 45 89 47 44 85 46 43 82 45 42 79 44 40 75 43 40 72 42 39 71 42 38 71 41 37 70 40 47 80 51 46 79 50 46 78 50 36 68 39 35 68 38 34 67 37 34 67 37 44 76 47 43 76 47 43 76 47 43 75 47 43 75 46 33 66 36 33 66 36 42 74 46 42 74 45 42 74 45 21 54 50 27 59 61 28 60 65 27 60 65 27 59 64 24 57 50 39 72 43 31 63 33 39 71 42 30 62 32 29 62 31 67 67 74 50 50 55 50 50 55 50 50 55 50 50 55 50 50 55 50 50 55 50 50 55 49 49 54 49 49 54 49 49 54 49 49 54 49 49 54 66 66 72 66 66 72 66 66 72 66 66 72 65 65 72 65 65 71 65 65 71 65 65 71 65 65 71 65 65 71 65 65 71 48 48 53 48 48 53 48 48 53 48 48 53 48 48 53 48 48 53 47 47 52 47 47 52 47 47 52 47 47 52 47 47 52 47 47 52 63 63 69 63 63 69 63 63 69 63 63 69 63 63 69 63 63 69 62 62 69 62 62 69 62 62 69 62 62 68 62 62 68 62 62 68 46 46 51 52 51 205 44 43 207 92 96 255 96 99 255 97 100 255 103 106 255 110 113 255 112 115 255 125 127 255 129 130 255 111 122 255 117 129 255 128 138 255 134 144 255 144 154 255 152 161 255 166 175 255 179 187 255 199 206 255 228 234 255 255 255 255 255 255 255 255 255 255 249 246 255 253 249 255 255 255 255 255 255 255 255 255 255 255 255 255 255 255 255 255 255 255 255 255 255 255 255 255 255 255 255 255 255 255 255 255 255 255 255 255 255 255 255 255 255 255 255 255 255 255 255 255 255 255 255 255 255 255 255 255 255 255 255 255 255 252 255 250 247 255 246 243 255 238 235 255 231 228 255 226 224 255 219 218 255 211 210 255 208 207 255 198 198 255 193 193 255 188 188 255 181 182 255 175 176 255 170 171 255 161 162 255 156 158 255 149 151 255 145 147 255 139 141 255 134 137 255 128 131 255 124 127 255 117 121 255 113 117 255 110 113 255 105 109 255 103 107 255 98 103 255 94 99 255 91 96 255 
73 42 46 73 42 46 73 42 46 73 42 46 73 42 46 73 42 45 73 42 46 73 42 46 73 42 46 85 54 58 85 54 58 85 54 58 84 54 58 84 54 58 84 53 58 84 53 58 84 53 58 84 54 58 84 53 58 84 53 58 84 53 58 84 53 58 73 42 45 72 41 45 72 41 45 72 41 45 72 42 45 72 41 45 72 42 45 72 41 45 72 41 45 83 53 57 83 52 57 83 52 57 83 52 57 83 52 57 71 41 44 72 41 44 71 41 44 71 41 44 71 41 44 71 40 44 71 40 44 71 40 44 71 40 43 71 40 43 71 40 43 71 40 43 71 40 43 70 40 43 81 51 55 81 51 55 81 51 55 81 51 55 70 40 43 70 40 43 70 40 43 70 39 43 70 39 42 70 39 42 70 39 42 70 39 42 70 39 42 70 39 42 80 49 54 80 49 54 80 49 54 80 49 53 80 49 53 80 49 53 80 49 53 79 49 53 79 49 53 79 48 53 79 48 53 79 48 52 79 48 52 79 48 52 79 48 52 78 48 52 68 37 40 68 37 40 68 37 40 68 37 40 77 47 51 77 46 51 67 36 39 76 45 49 76 45 49 75 44 48 76 76 84 76 76 84 76 76 84 76 76 84 76 76 84 76 76 84 76 76 84 57 57 62 57 57 62 57 57 62 57 57 62 57 57 62 57 57 63 57 57 62 57 57 62 57 57 62 57 57 62 57 57 62 57 57 62 57 57 62 76 76 84 76 76 84 76 76 84 76 76 83 76 76 83 76 76 83 76 76 84 76 76 84 76 76 84 76 76 83 75 75 83 75 75 83 56 56 62 56 56 62 57 57 62 57 57 62 41 116 43 53 130 56 45 126 47 57 138 60 46 128 49 47 129 49 48 129 50 48 129 50 49 129 51 49 127 51 60 137 64 49 126 52 49 124 52 49 123 52 50 122 52 50 121 52 50 119 52 51 118 53 61 127 65 50 114 52 50 112 52 49 110 51 49 108 51 48 105 50 48 103 50 47 100 49 47 97 49 56 104 59 55 100 59 54 97 58 54 94 57 53 91 56 51 87 55 51 84 54 50 82 54 49 82 54 49 81 53 49 81 53 48 81 52 48 80 52 47 79 51 47 79 51 36 68 39 36 68 39 35 68 38 35 68 38 35 67 37 34 67 37 34 67 37 34 67 37 44 76 47 34 67 37 34 66 36 33 66 36 33 66 36 33 66 36 33 66 36 33 66 36 22 55 36 22 55 39 24 56 47 23 56 45 22 55 39 32 64 34 31 64 34 40 72 43 31 63 33 38 71 42 29 62 32 52 52 57 52 52 57 52 52 57 52 52 57 69 69 76 69 69 76 69 69 76 69 69 76 69 69 76 69 69 76 69 69 75 68 68 75 68 68 75 68 68 75 68 68 75 68 68 75 51 51 56 51 51 56 51 51 56 51 51 56 51 51 55 51 51 55 51 51 55 50 50 55 50 50 55 50 50 55 50 50 55 50 50 55 50 50 55 66 66 73 66 66 73 66 66 73 66 66 73 66 66 73 66 66 73 66 66 72 66 66 72 66 66 72 66 66 72 65 65 72 65 65 72 48 48 53 48 48 53 48 48 53 48 48 53 48 48 53 48 48 53 48 48 53 53 51 206 47 45 202 48 47 215 93 96 255 96 99 255 99 102 255 105 107 255 109 111 255 113 116 255 123 125 255 126 129 255 108 119 255 113 123 255 124 134 255 133 143 255 138 148 255 149 158 255 157 166 255 172 180 255 183 191 255 210 217 255 225 231 255 230 242 255 225 255 255 255 255 255 245 241 255 252 248 255 255 254 255 255 255 255 255 255 255 255 255 255 255 255 255 255 255 255 255 255 255 255 255 255 255 255 255 255 255 255 255 255 255 255 255 255 255 255 255 255 255 255 255 255 255 255 255 255 255 254 255 255 251 255 248 245 255 245 241 255 241 238 255 235 233 255 228 226 255 224 222 255 219 217 255 213 212 255 205 204 255 200 199 255 194 194 255 187 187 255 181 182 255 176 176 255 169 170 255 164 165 255 157 158 255 151 153 255 146 148 255 141 144 255 135 138 255 132 134 255 125 128 255 122 126 255 117 120 255 111 115 255 108 112 255 104 108 255 100 105 255 97 101 255 92 97 255 90 95 253 
73 42 46 73 42 46 73 42 46 73 42 46 73 42 46 73 42 46 73 42 45 73 42 45 73 42 45 84 54 58 84 54 58 84 54 58 84 54 58 84 54 58 84 54 58 84 53 58 84 53 58 84 53 58 84 53 58 84 53 58 84 53 58 84 53 58 72 42 45 72 41 45 83 53 57 83 53 57 83 53 57 83 53 57 83 53 57 83 53 57 83 53 57 83 53 57 83 52 57 83 52 57 83 52 57 83 52 57 83 52 57 83 52 56 72 41 44 71 41 44 71 41 44 71 41 44 71 40 44 71 40 44 71 40 44 71 40 44 71 40 43 71 40 43 82 51 56 82 51 55 82 51 55 82 51 55 81 51 55 81 51 55 81 51 55 81 51 55 81 51 55 81 51 55 81 50 55 81 50 55 70 39 42 70 39 42 81 50 54 80 50 54 80 50 54 80 50 54 80 49 54 80 49 54 80 49 54 80 49 54 80 49 53 80 49 53 80 49 53 79 49 53 79 49 53 79 48 53 79 48 53 79 48 53 79 48 52 79 48 52 68 38 41 68 37 41 68 37 40 78 47 51 78 47 51 67 37 40 67 36 39 76 46 49 75 44 48 59 59 65 59 59 65 59 59 65 80 80 87 80 80 87 79 79 87 79 79 87 79 79 87 80 80 87 79 79 87 79 79 87 79 79 87 79 79 87 79 79 87 79 79 87 79 79 87 79 79 87 59 59 65 59 59 65 59 59 65 59 59 65 59 59 65 59 59 65 59 59 65 59 59 65 59 59 65 59 59 65 59 59 65 59 59 65 59 59 65 59 59 65 79 79 86 79 79 86 79 79 86 79 79 87 79 79 86 79 79 86 79 79 86 49 113 52 43 113 45 55 127 58 55 128 59 45 119 48 56 129 60 56 128 60 57 128 60 57 127 60 57 126 61 57 126 61 46 114 49 46 112 49 46 111 49 47 110 49 46 108 49 58 118 61 57 116 61 58 115 61 57 112 60 56 108 59 45 95 47 44 92 46 44 91 46 43 87 45 53 96 57 53 93 56 52 91 56 51 88 55 51 85 55 50 82 54 49 82 54 49 81 53 49 81 53 48 81 53 48 81 52 48 80 52 47 80 51 47 79 51 46 79 51 46 79 50 46 78 50 35 68 38 35 68 38 35 68 38 35 68 38 45 77 49 44 77 48 44 77 48 44 77 48 44 77 48 34 67 37 34 66 37 34 66 36 33 66 36 33 66 36 43 75 46 42 75 46 42 75 46 42 74 45 42 74 45 41 74 45 32 65 35 41 73 44 40 73 44 31 64 33 38 71 41 72 72 80 72 72 80 72 72 80 72 72 80 72 72 79 72 72 79 72 72 79 54 54 59 54 54 59 54 54 59 53 53 59 53 53 58 53 53 58 53 53 58 53 53 58 53 53 58 53 53 58 53 53 58 53 53 58 53 53 58 52 52 58 70 70 77 70 70 77 70 70 77 70 70 77 69 69 77 69 69 76 69 69 76 69 69 76 69 69 76 69 69 76 69 69 76 69 69 75 69 69 75 69 69 75 51 51 56 51 51 56 51 51 56 51 51 56 51 51 56 51 51 56 51 51 55 51 51 55 51 51 55 50 50 55 50 50 55 50 50 55 50 50 55 67 67 73 67 67 73 47 46 199 53 52 217 52 50 220 50 48 220 98 102 255 103 105 255 107 110 255 112 115 255 120 122 255 97 109 255 93 102 255 96 105 255 108 116 255 115 122 255 133 140 255 161 166 255 153 161 255 162 170 255 170 178 255 180 188 255 187 195 255 196 203 255 201 218 255 255 248 255 255 232 255 240 236 255 244 241 255 248 245 255 254 250 255 255 251 255 255 252 255 255 255 255 255 254 255 255 255 255 255 255 255 255 255 255 255 255 255 255 255 255 255 255 255 255 252 255 253 250 255 251 248 255 249 245 255 245 242 255 239 236 255 235 232 255 230 228 255 225 223 255 222 220 255 214 212 255 209 208 255 204 203 255 198 197 255 192 192 255 187 186 255 181 181 255 175 175 255 171 172 255 163 164 255 160 162 255 153 155 255 148 150 255 144 146 255 138 140 255 132 134 255 128 131 255 124 127 255 118 121 255 115 118 255 112 116 255 107 111 255 104 108 255 100 104 255 96 101 255 94 98 255 91 96 250 
84 54 59 84 54 59 84 54 59 84 54 59 84 54 58 84 54 58 84 54 58 84 54 58 84 54 58 72 42 45 72 42 45 72 42 45 72 42 45 72 42 45 72 42 45 73 42 45 72 42 45 72 42 45 72 42 45 72 42 45 72 42 45 72 42 45 72 42 45 84 53 58 84 53 58 83 53 57 84 53 57 84 53 57 83 53 57 83 53 57 83 53 57 83 53 57 83 53 57 83 52 57 83 52 57 83 52 57 83 52 57 83 52 57 83 52 57 83 52 56 71 41 44 71 41 44 71 41 44 71 41 44 71 40 44 82 52 56 82 52 56 82 51 56 82 51 56 82 51 56 82 51 56 82 51 56 82 51 55 82 51 55 81 51 55 81 51 55 81 51 55 81 51 55 81 51 55 81 51 55 81 50 55 81 50 55 70 39 43 70 39 42 70 39 42 70 39 42 70 39 42 70 39 42 70 39 42 80 49 54 80 49 54 69 39 42 80 49 53 80 49 53 80 49 53 80 49 53 69 38 41 69 38 41 79 48 53 69 38 41 79 48 52 79 48 52 79 48 52 78 47 52 78 47 52 68 37 40 67 37 40 67 36 39 62 62 68 62 62 68 62 62 68 61 61 68 61 61 68 62 62 68 61 61 68 61 61 68 61 61 68 61 61 68 62 62 68 61 61 68 61 61 68 61 61 68 61 61 67 82 82 91 82 82 91 82 82 90 82 82 90 82 82 90 82 82 90 82 82 90 82 82 90 82 82 90 82 82 90 82 82 90 82 82 90 82 82 90 82 82 90 61 61 67 61 61 67 61 61 67 61 61 67 61 61 67 61 61 67 61 61 67 61 61 67 61 61 67 61 61 67 61 61 67 49 108 53 42 104 44 43 106 45 54 118 58 54 118 58 54 117 58 55 118 59 55 117 58 55 116 58 55 116 59 55 115 59 44 103 47 44 101 46 54 108 58 54 107 58 54 105 58 54 104 58 54 103 57 53 100 57 53 98 57 53 96 56 52 93 56 52 91 55 40 77 43 51 86 55 50 82 54 50 82 54 49 82 53 49 81 53 49 81 53 48 81 52 48 81 52 48 80 52 48 80 52 47 80 51 47 80 51 47 79 51 46 79 51 46 79 50 46 79 50 46 78 50 35 68 38 45 78 49 45 78 49 45 78 49 45 78 49 45 77 49 44 77 48 44 77 48 44 77 48 44 77 48 44 77 48 34 67 37 34 66 36 43 76 47 43 75 47 43 75 46 42 75 46 42 75 46 42 74 46 42 74 45 41 74 45 32 65 35 32 64 34 40 72 43 56 56 62 56 56 61 56 56 61 56 56 61 56 56 61 56 56 61 55 55 61 55 55 61 55 55 61 55 55 61 55 55 61 74 74 81 74 74 81 73 73 81 73 73 81 73 73 81 73 73 80 73 73 80 73 73 80 72 72 80 72 72 80 72 72 80 72 72 80 72 72 80 72 72 79 54 54 59 54 54 59 54 54 59 54 54 59 54 54 59 53 53 58 53 53 58 53 53 58 53 53 58 53 53 58 53 53 58 53 53 58 53 53 58 53 53 58 53 53 58 70 70 77 70 70 77 70 70 77 70 70 77 69 69 76 69 69 76 69 69 76 69 69 76 69 69 76 69 69 76 69 69 76 48 47 198 51 49 211 57 56 222 58 56 226 54 52 223 55 52 225 107 110 255 112 115 255 117 120 255 80 90 254 92 101 255 96 105 255 103 111 255 101 109 255 114 122 255 122 129 255 132 139 255 138 145 255 144 150 255 168 176 255 171 179 255 179 186 255 186 202 255 227 196 255 239 197 255 227 224 255 234 231 255 235 232 255 241 238 255 245 241 255 244 241 255 246 242 255 248 244 255 250 246 255 250 246 255 250 246 255 248 244 255 246 242 255 247 244 255 242 239 255 240 237 255 237 234 255 236 233 255 230 227 255 226 223 255 225 223 255 219 217 255 214 212 255 211 209 255 205 204 255 201 200 255 193 193 255 190 189 255 185 185 255 179 179 255 176 176 255 170 171 255 163 164 255 159 160 255 155 157 255 149 151 255 145 146 255 139 142 255 134 137 255 129 131 255 125 128 255 122 125 255 116 119 255 112 116 255 110 113 255 104 108 255 102 105 255 99 103 255 95 99 253 93 98 250 90 95 245 
84 54 59 84 54 59 84 54 58 84 54 58 84 54 58 84 54 58 84 54 58 84 54 58 73 42 45 72 42 45 72 42 45 72 42 45 72 42 45 72 42 45 72 42 45 72 42 45 72 42 45 72 42 45 72 42 45 72 42 45 72 42 45 72 42 45 72 42 45 84 53 58 84 53 58 83 53 57 83 53 57 83 53 57 83 53 57 83 53 57 83 53 57 83 53 57 83 53 57 83 52 57 83 52 57 83 52 57 83 52 57 83 52 57 83 52 57 83 52 57 83 52 56 83 52 56 82 52 56 82 52 56 82 52 56 82 52 56 82 52 56 82 52 56 82 52 56 82 51 56 82 51 56 82 51 56 82 51 56 82 51 55 82 51 55 81 51 55 81 51 55 81 51 55 81 51 55 81 51 55 70 40 43 70 40 43 70 40 43 70 39 43 70 39 43 70 39 42 70 39 42 70 39 42 70 39 42 70 39 42 70 39 42 69 39 42 69 39 42 69 39 42 69 39 42 69 39 42 69 39 42 69 38 41 69 38 41 69 38 41 79 48 53 79 48 52 79 48 52 79 48 52 68 37 40 68 37 40 77 47 51 67 36 39 85 85 94 85 85 94 85 85 94 85 85 94 85 85 94 85 85 93 85 85 94 85 85 94 85 85 94 85 85 93 85 85 93 64 64 70 64 64 70 64 64 70 64 64 70 63 63 70 64 64 70 64 64 70 63 63 70 63 63 70 63 63 70 63 63 70 63 63 70 63 63 70 63 63 69 63 63 69 63 63 69 84 84 93 84 84 93 84 84 93 84 84 93 84 84 93 84 84 93 84 84 92 84 84 93 84 84 92 84 84 92 84 84 92 84 84 92 84 84 92 36 81 39 40 92 42 39 90 42 52 105 55 52 105 56 52 105 56 52 106 56 53 106 56 52 105 56 53 104 56 42 93 44 41 91 44 41 89 44 52 98 56 52 97 56 52 95 55 51 94 55 51 92 55 51 90 55 50 88 54 50 86 54 39 72 42 39 71 41 38 71 41 38 71 41 38 71 41 38 70 41 38 70 41 37 70 40 37 70 40 37 70 40 37 69 40 37 69 40 37 69 40 36 69 39 36 69 39 36 69 39 36 69 39 36 68 39 36 68 39 36 68 39 35 68 39 35 68 38 35 68 38 45 78 49 45 78 49 45 78 49 45 77 48 44 77 48 44 77 48 44 77 48 44 77 48 34 67 37 34 67 37 34 66 37 43 76 47 43 75 47 43 75 46 43 75 46 42 75 46 42 74 46 42 74 45 32 65 35 32 65 34 30 63 33 77 77 85 77 77 85 77 77 85 77 77 85 77 77 84 77 77 84 77 77 84 76 76 84 76 76 84 76 76 84 76 76 84 76 76 84 76 76 83 56 56 62 56 56 62 56 56 62 56 56 62 56 56 62 56 56 62 56 56 61 56 56 61 56 56 61 56 56 61 56 56 61 55 55 61 55 55 61 55 55 61 55 55 61 55 55 61 73 73 81 73 73 81 73 73 81 73 73 81 73 73 81 73 73 80 73 73 80 73 73 80 73 73 80 72 72 80 72 72 80 72 72 79 72 72 79 72 72 79 72 72 79 54 54 59 54 54 59 54 54 59 53 53 58 53 53 58 53 53 58 53 53 58 56 55 203 52 51 206 53 52 211 56 55 219 58 57 225 62 59 230 70 68 240 67 65 237 72 69 244 72 69 243 82 92 254 93 102 255 102 111 255 105 113 255 113 121 255 115 123 255 121 129 255 133 140 255 135 142 255 148 154 255 154 160 255 155 161 255 171 182 255 192 174 255 205 178 255 214 212 255 220 218 255 224 221 255 225 222 255 228 225 255 232 229 255 233 230 255 233 230 255 237 234 255 233 231 255 232 229 255 234 231 255 236 233 255 234 230 255 231 227 255 230 227 255 227 224 255 224 222 255 218 216 255 218 215 255 213 212 255 209 207 255 207 205 255 200 199 255 196 194 255 191 190 255 189 189 255 182 182 255 179 178 255 173 173 255 169 169 255 163 163 255 158 158 255 154 155 255 148 150 255 144 145 255 140 142 255 135 136 255 131 133 255 126 129 255 122 125 255 119 121 255 115 118 255 111 114 255 107 110 255 104 107 255 102 105 255 98 102 253 94 98 248 92 96 244 90 94 241 
84 54 58 84 54 58 84 54 58 84 54 58 84 54 58 84 54 58 84 54 58 84 54 58 72 42 45 72 42 45 72 42 45 72 42 45 72 42 45 72 42 45 72 42 45 72 42 45 72 42 45 72 42 45 72 42 45 72 42 45 72 42 45 72 42 45 72 42 45 72 42 45 84 53 58 83 53 57 83 53 57 83 53 57 83 53 57 83 53 57 83 53 57 83 53 57 83 53 57 83 53 57 83 52 57 83 52 57 83 52 57 83 52 57 71 41 44 71 41 44 71 41 44 71 41 44 71 41 44 71 41 44 71 41 44 82 52 56 82 52 56 82 52 56 82 52 56 82 52 56 82 51 56 82 51 56 82 51 56 82 51 56 82 51 55 82 51 55 82 51 55 81 51 55 81 51 55 70 40 43 70 40 43 70 40 43 70 40 43 70 40 43 70 40 43 70 39 43 70 39 42 70 39 42 70 39 42 70 39 42 70 39 42 70 39 42 69 39 42 69 39 42 69 39 42 69 39 42 69 39 42 69 39 42 69 38 42 69 38 41 79 49 53 79 48 53 79 48 52 79 48 52 68 37 41 78 47 51 67 36 40 88 88 97 88 88 97 88 88 96 87 87 96 88 88 97 88 88 96 87 87 96 87 87 96 66 66 72 66 66 72 65 65 72 65 65 72 65 65 72 66 66 72 65 65 72 65 65 72 65 65 72 65 65 72 65 65 72 65 65 72 65 65 72 65 65 71 65 65 71 65 65 72 65 65 71 87 87 96 87 87 95 87 87 95 87 87 96 87 87 95 87 87 95 86 86 95 86 86 95 86 86 95 86 86 95 86 86 95 86 86 95 86 86 95 86 86 95 86 86 95 86 86 95 64 64 71 35 70 38 47 86 51 39 83 42 50 94 54 50 94 54 51 96 55 40 84 43 40 84 43 40 84 43 40 83 43 39 81 42 39 80 42 39 78 42 39 76 42 49 85 53 49 84 53 49 83 53 49 81 53 48 81 53 48 81 53 37 70 41 37 70 40 37 70 40 37 70 40 37 70 40 37 70 40 37 69 40 37 69 40 37 69 40 36 69 40 36 69 40 36 69 40 36 69 40 36 69 39 36 69 39 36 69 39 36 69 39 36 68 39 36 68 39 36 68 39 35 68 39 35 68 38 35 68 38 45 78 49 45 78 49 45 78 49 45 78 49 45 77 48 44 77 48 34 67 37 34 67 37 34 67 37 34 67 37 34 67 37 34 66 37 34 66 36 33 66 36 43 75 46 42 75 46 42 75 46 33 65 35 41 74 45 31 64 34 59 59 65 79 79 87 79 79 87 79 79 87 79 79 87 79 79 87 79 79 86 79 79 86 78 78 86 78 78 86 78 78 86 78 78 86 78 78 86 78 78 86 78 78 85 78 78 85 77 77 85 58 58 64 58 58 63 57 57 63 57 57 63 57 57 63 57 57 63 57 57 63 57 57 62 57 57 62 57 57 62 57 57 62 57 57 62 57 57 62 56 56 62 56 56 62 56 56 62 56 56 62 75 75 82 75 75 82 75 75 82 75 75 82 74 74 82 74 74 82 74 74 82 74 74 82 74 74 81 74 74 81 74 74 81 74 74 81 73 73 81 73 73 81 73 73 81 73 73 81 55 55 60 54 54 60 57 56 200 52 51 200 55 53 210 66 65 226 68 66 230 72 70 236 70 67 236 79 77 247 77 75 245 85 83 255 81 91 249 85 95 253 90 99 255 95 105 255 101 110 255 106 115 255 120 128 255 125 133 255 130 137 255 137 145 255 147 154 255 146 153 255 163 144 255 168 149 255 166 146 255 202 200 255 205 203 255 210 208 255 212 210 255 214 212 255 218 215 255 219 216 255 221 218 255 223 220 255 221 219 255 222 220 255 221 218 255 220 218 255 219 216 255 217 214 255 217 214 255 213 211 255 211 209 255 209 207 255 204 202 255 201 200 255 197 196 255 196 194 255 191 190 255 186 185 255 184 183 255 179 179 255 174 174 255 170 171 255 166 166 255 161 161 255 157 158 255 152 153 255 147 148 255 143 145 255 138 140 255 135 137 255 131 133 255 127 129 255 123 125 255 118 121 255 115 118 255 112 115 255 107 110 255 105 108 255 102 106 255 99 103 251 95 99 246 93 97 242 91 95 239 88 92 233 
84 54 58 84 54 58 84 54 58 84 54 58 84 54 58 84 54 58 84 54 58 84 54 58 72 42 45 72 42 45 72 42 45 72 42 45 72 42 45 72 42 45 72 42 45 72 42 45 72 42 45 72 42 45 72 42 45 72 42 45 72 42 45 72 42 45 72 42 45 72 42 45 72 41 45 83 53 57 83 53 57 83 53 57 83 53 57 83 53 57 83 53 57 83 53 57 83 53 57 83 53 57 72 41 44 72 41 44 72 41 44 71 41 44 71 41 44 71 41 44 71 41 44 71 41 44 71 41 44 71 41 44 71 41 44 71 41 44 71 41 44 71 40 44 82 52 56 82 52 56 82 52 56 82 51 56 82 51 56 82 51 56 82 51 56 82 51 56 82 51 55 82 51 55 70 40 43 70 40 43 70 40 43 70 40 43 70 40 43 70 40 43 70 40 43 70 40 43 70 40 43 70 39 43 70 39 42 70 39 42 70 39 42 70 39 42 70 39 42 70 39 42 69 39 42 69 39 42 69 39 42 69 39 42 69 39 42 69 39 42 79 49 53 79 48 53 79 48 53 79 48 52 78 48 52 67 67 74 67 67 74 67 67 74 67 67 74 67 67 74 67 67 74 67 67 74 90 90 99 90 90 99 90 90 99 90 90 99 90 90 99 90 90 99 90 90 99 90 90 99 90 90 98 90 90 99 90 90 98 90 90 98 89 89 98 90 90 98 90 90 98 89 89 98 89 89 98 67 67 73 67 67 73 67 67 73 67 67 73 67 67 73 67 67 73 67 67 73 67 67 73 66 66 73 66 66 73 66 66 73 66 66 73 66 66 73 66 66 73 66 66 73 66 66 72 66 66 72 88 88 97 88 88 97 88 88 97 88 88 97 44 77 48 36 69 39 47 80 51 37 71 40 38 74 41 38 73 41 37 73 41 37 70 41 37 70 41 37 70 41 37 70 41 37 70 41 37 70 41 37 70 41 37 70 41 48 81 53 48 81 53 37 70 40 37 70 40 37 70 40 37 70 40 37 70 40 37 70 40 37 69 40 37 69 40 37 69 40 37 69 40 36 69 40 36 69 40 36 69 40 36 69 40 36 69 39 36 69 39 36 69 39 36 69 39 36 69 39 36 68 39 36 68 39 36 68 39 35 68 39 35 68 38 35 68 38 35 68 38 35 68 38 45 78 49 45 78 49 35 67 38 35 67 37 34 67 37 34 67 37 34 67 37 34 67 37 34 67 37 34 67 37 34 66 36 34 66 36 33 66 36 33 66 36 42 75 46 33 65 35 40 73 44 81 81 90 81 81 90 81 81 89 81 81 89 60 60 66 60 60 66 60 60 66 60 60 66 60 60 66 60 60 66 60 60 66 60 60 66 60 60 66 60 60 66 60 60 66 59 59 65 59 59 65 59 59 65 59 59 65 59 59 65 59 59 65 79 79 86 79 79 86 79 79 86 78 78 86 78 78 86 78 78 86 78 78 86 78 78 86 78 78 85 78 78 85 77 77 85 77 77 85 77 77 85 77 77 84 77 77 84 77 77 84 77 77 84 57 57 63 57 57 62 57 57 62 57 57 62 57 57 62 57 57 62 57 57 62 57 57 62 56 56 62 56 56 62 56 56 62 56 56 62 56 56 61 56 56 61 56 56 61 48 47 182 60 59 205 56 54 207 58 56 212 60 59 218 73 71 234 75 73 236 82 79 245 78 76 242 80 77 244 73 83 236 81 90 245 84 94 248 88 97 251 92 101 255 100 109 255 108 117 255 110 118 255 114 123 255 122 130 255 128 136 255 148 130 255 155 136 255 155 136 255 187 186 255 192 190 255 194 193 255 198 196 255 200 198 255 202 200 255 205 203 255 207 205 255 205 203 255 210 208 255 209 206 255 208 205 255 207 205 255 207 205 255 207 205 255 205 203 255 204 202 255 201 199 255 197 195 255 196 195 255 192 191 255 190 189 255 187 186 255 185 184 255 180 179 255 177 176 255 174 174 255 170 170 255 166 166 255 162 163 255 157 157 255 155 156 255 149 150 255 146 147 255 141 143 255 138 140 255 133 135 255 129 131 255 125 128 255 122 124 255 119 122 255 116 119 255 112 115 255 109 112 255 105 109 255 103 106 253 99 103 248 98 101 246 94 98 240 91 95 235 90 94 233 87 92 229 
84 54 58 84 54 58 84 54 58 84 54 58 84 54 58 84 54 58 84 54 58 84 54 58 72 42 45 72 42 45 72 42 45 72 42 45 72 42 45 72 42 45 72 42 45 72 42 45 72 42 45 72 42 45 72 42 45 72 42 45 72 42 45 72 42 45 72 42 45 72 41 45 72 41 45 83 53 57 83 53 57 83 53 57 72 41 45 72 41 45 72 41 45 72 41 45 72 41 44 72 41 44 72 41 44 72 41 44 72 41 44 71 41 44 71 41 44 71 41 44 71 41 44 71 41 44 71 41 44 71 41 44 71 41 44 71 41 44 71 41 44 71 41 44 71 40 44 71 40 44 71 40 44 82 52 56 82 51 56 82 51 56 82 51 56 82 51 56 71 40 43 71 40 43 71 40 43 70 40 43 70 40 43 70 40 43 70 40 43 70 40 43 70 40 43 70 40 43 70 40 43 70 40 43 70 39 43 70 39 42 70 39 42 70 39 42 70 39 42 70 39 42 70 39 42 69 39 42 69 39 42 69 39 42 69 39 42 80 49 53 80 49 53 79 48 53 69 38 41 79 48 52 78 47 51 69 69 76 69 69 76 69 69 76 69 69 76 92 92 101 92 92 101 92 92 101 92 92 101 92 92 101 92 92 101 92 92 101 92 92 101 92 92 101 92 92 101 92 92 101 92 92 101 92 92 101 92 92 101 92 92 101 91 91 100 91 91 100 68 68 75 68 68 75 68 68 75 68 68 75 68 68 75 68 68 75 68 68 75 68 68 75 68 68 75 68 68 74 68 68 75 68 68 75 68 68 74 68 68 74 68 68 74 68 68 74 68 68 74 68 68 74 90 90 99 90 90 99 90 90 99 90 90 99 90 90 99 90 90 99 90 90 99 90 90 99 46 79 50 36 69 40 37 69 40 37 70 40 37 70 40 37 70 40 37 70 40 37 70 40 37 70 41 37 70 41 37 70 40 37 70 40 37 70 40 37 70 40 48 81 52 37 70 40 37 70 40 37 70 40 37 70 40 37 70 40 37 69 40 37 69 40 37 69 40 37 69 40 36 69 40 36 69 40 36 69 40 36 69 39 36 69 39 36 69 39 36 69 39 36 69 39 36 69 39 36 69 39 36 68 39 36 68 39 36 68 39 35 68 39 35 68 38 35 68 38 35 68 38 35 68 38 45 78 49 35 68 38 35 67 38 35 67 38 35 67 37 34 67 37 34 67 37 34 67 37 34 67 37 34 67 37 34 66 36 34 66 36 33 66 36 33 66 36 42 74 45 83 83 92 83 83 92 83 83 92 83 83 91 83 83 91 83 83 91 83 83 91 82 82 91 61 61 68 61 61 68 61 61 67 61 61 67 61 61 67 61 61 67 61 61 67 61 61 67 61 61 67 61 61 67 61 61 67 60 60 67 60 60 66 60 60 66 60 60 66 60 60 66 60 60 66 60 60 66 80 80 88 80 80 88 80 80 88 80 80 87 79 79 87 79 79 87 79 79 87 79 79 87 79 79 87 79 79 86 79 79 86 79 79 86 78 78 86 78 78 86 78 78 86 78 78 86 78 78 85 58 58 64 58 58 64 58 58 64 58 58 64 58 58 63 58 58 63 58 58 63 57 57 63 57 57 63 57 57 63 57 57 63 45 44 165 58 57 191 53 52 195 64 62 212 65 64 214 60 58 212 62 61 218 65 63 220 79 77 238 74 72 234 78 75 238 84 81 245 86 83 247 79 89 239 83 93 243 89 98 248 96 105 255 99 108 255 103 112 255 105 114 255 117 125 255 134 117 255 139 121 255 138 121 255 151 146 255 151 145 255 145 139 255 147 141 255 153 147 255 147 141 255 149 142 255 151 145 255 147 140 255 148 141 255 149 142 255 147 140 255 194 192 255 196 194 255 195 193 255 193 191 255 194 192 255 191 189 255 190 188 255 188 187 255 186 185 255 182 181 255 182 181 255 177 176 255 175 174 255 172 172 255 169 168 255 164 164 255 162 163 255 158 158 255 154 155 255 151 151 255 146 147 255 142 143 255 140 142 255 135 137 255 133 135 255 128 130 255 127 129 255 123 125 255 119 122 255 116 118 255 112 115 255 110 113 255 107 110 255 104 107 251 101 104 246 98 102 243 95 99 238 94 97 235 92 95 231 89 93 227 87 91 224 
72 42 45 84 54 58 84 54 58 84 54 58 84 54 58 84 54 58 84 54 58 84 54 58 72 42 45 72 42 45 72 42 45 72 42 45 72 42 45 72 42 45 72 42 45 72 42 45 72 42 45 72 42 45 72 42 45 72 42 45 72 42 45 84 53 58 84 53 58 84 53 58 83 53 57 83 53 57 72 41 45 72 41 45 72 41 45 72 41 45 72 41 45 72 41 45 72 41 44 72 41 44 72 41 44 72 41 44 72 41 44 71 41 44 71 41 44 71 41 44 71 41 44 71 41 44 71 41 44 71 41 44 71 41 44 71 41 44 71 41 44 71 41 44 71 41 44 71 40 44 71 40 44 71 40 44 71 40 44 71 40 43 71 40 43 82 51 56 71 40 43 71 40 43 71 40 43 71 40 43 70 40 43 70 40 43 70 40 43 70 40 43 70 40 43 70 40 43 70 40 43 70 40 43 70 40 43 70 39 43 70 39 42 70 39 42 70 39 42 70 39 42 70 39 42 70 39 42 69 39 42 69 39 42 69 39 42 80 49 53 69 38 42 69 38 41 69 38 41 78 47 51 94 94 104 70 70 78 70 70 77 70 70 78 70 70 77 70 70 77 70 70 77 70 70 77 70 70 77 70 70 77 70 70 77 70 70 77 70 70 77 70 70 77 70 70 77 70 70 77 70 70 77 70 70 77 70 70 77 70 70 77 93 93 103 93 93 103 93 93 103 93 93 103 93 93 103 93 93 102 93 93 102 93 93 102 93 93 102 93 93 102 93 93 102 93 93 102 93 93 102 93 93 102 92 92 102 92 92 102 92 92 101 92 92 102 69 69 76 69 69 76 69 69 75 69 69 75 69 69 75 69 69 75 69 69 75 69 69 75 68 68 75 68 68 75 68 68 75 46 79 50 47 79 51 36 69 40 37 69 40 37 70 40 37 70 40 37 70 40 37 70 40 37 70 40 37 70 40 37 70 40 37 70 40 48 80 52 48 80 52 48 80 52 48 80 52 47 80 52 47 80 52 37 69 40 37 69 40 37 69 40 37 69 40 36 69 40 36 69 40 36 69 40 36 69 40 36 69 39 36 69 39 36 69 39 36 69 39 36 69 39 36 69 39 36 69 39 36 68 39 36 68 39 36 68 39 35 68 39 46 78 49 45 78 49 45 78 49 45 78 49 45 78 49 45 78 49 35 67 38 35 67 38 35 67 37 34 67 37 34 67 37 34 67 37 34 67 37 34 67 37 34 66 36 34 66 36 43 75 46 42 75 46 64 64 70 64 64 70 64 64 70 64 64 70 63 63 70 63 63 69 63 63 69 63 63 69 63 63 69 63 63 69 63 63 69 84 84 92 83 83 92 83 83 92 83 83 92 83 83 92 83 83 91 83 83 91 83 83 91 83 83 91 83 83 91 82 82 91 82 82 90 82 82 90 82 82 90 82 82 90 82 82 90 81 81 90 81 81 90 61 61 67 61 61 67 60 60 67 60 60 66 60 60 66 60 60 66 60 60 66 60 60 66 60 60 66 60 60 66 60 60 66 60 60 66 60 60 66 59 59 65 59 59 65 59 59 65 59 59 65 59 59 65 59 59 65 79 79 87 79 79 86 78 78 86 78 78 86 78 78 86 78 78 86 78 78 86 78 78 86 49 48 176 60 59 198 62 61 204 55 54 200 58 57 206 71 69 222 73 71 225 76 74 230 80 78 236 73 71 228 89 87 246 92 90 250 86 84 244 78 88 234 82 92 238 84 94 240 91 100 247 95 105 250 113 109 255 130 125 255 134 130 255 138 133 255 132 127 255 146 141 255 151 146 255 154 149 255 157 151 255 158 152 255 161 156 255 164 158 255 153 147 255 166 160 255 164 158 255 153 147 255 152 146 255 150 144 255 150 143 255 148 142 255 147 141 255 148 142 255 141 135 255 136 130 255 134 128 255 133 127 255 132 126 255 127 122 255 125 119 255 121 116 253 113 108 243 112 107 242 157 158 255 153 153 255 149 149 255 145 145 255 143 144 255 140 141 255 137 138 255 133 134 255 131 132 255 128 130 255 124 125 255 120 122 255 118 120 255 115 117 255 112 115 255 109 112 255 106 109 251 104 106 246 101 104 243 98 102 238 96 99 235 95 98 233 92 95 228 91 94 226 88 92 221 86 90 217 
72 42 45 72 42 45 72 42 45 72 42 45 72 42 45 72 42 45 72 42 45 84 54 58 84 53 58 84 53 58 84 53 58 84 53 58 84 53 58 84 53 58 84 53 58 84 53 58 84 53 58 84 53 58 84 53 58 84 53 58 84 53 58 84 53 58 84 53 58 84 53 58 83 53 57 83 53 57 83 53 57 83 53 57 72 41 45 72 41 45 72 41 45 72 41 44 72 41 44 72 41 44 72 41 44 72 41 44 72 41 44 71 41 44 71 41 44 71 41 44 71 41 44 71 41 44 71 41 44 71 41 44 71 41 44 71 41 44 71 41 44 71 41 44 71 41 44 71 40 44 71 40 44 71 40 44 71 40 44 82 51 56 82 51 56 82 51 56 82 51 56 82 51 56 82 51 56 71 40 43 70 40 43 70 40 43 70 40 43 70 40 43 70 40 43 70 40 43 70 40 43 70 40 43 70 40 43 70 40 43 70 39 43 70 39 43 70 39 42 70 39 42 70 39 42 70 39 42 80 49 54 80 49 54 69 39 42 69 39 42 69 38 42 79 48 52 72 72 79 72 72 79 72 72 79 72 72 79 72 72 79 72 72 79 72 72 79 72 72 79 72 72 79 71 71 79 72 72 79 71 71 79 71 71 79 71 71 79 71 71 79 71 71 79 71 71 78 71 71 78 71 71 78 95 95 105 95 95 105 95 95 104 95 95 105 95 95 104 95 95 104 95 95 104 95 95 104 95 95 104 95 95 104 94 94 104 94 94 104 94 94 104 94 94 104 94 94 104 94 94 104 94 94 104 94 94 103 94 94 103 94 94 103 70 70 77 70 70 77 70 70 77 70 70 77 70 70 77 70 70 77 70 70 77 70 70 77 70 70 77 70 70 77 70 70 77 69 69 76 69 69 76 69 69 76 46 79 50 36 69 39 37 69 40 37 69 40 37 69 40 37 69 40 37 69 40 37 70 40 37 70 40 47 80 52 47 80 52 47 80 52 47 80 52 47 80 52 47 80 52 47 80 52 47 80 52 47 80 52 47 80 51 47 80 51 47 80 51 47 80 51 47 80 51 47 79 51 47 79 51 46 79 51 46 79 51 46 79 51 46 79 51 46 79 50 46 79 50 46 79 50 46 79 50 46 79 50 46 78 50 46 78 49 45 78 49 45 78 49 45 78 49 45 78 49 45 78 49 45 78 49 35 67 38 35 67 37 34 67 37 34 67 37 34 67 37 34 67 37 34 67 37 34 66 36 42 75 46 65 65 71 65 65 71 65 65 71 65 65 71 65 65 71 65 65 71 64 64 71 64 64 71 64 64 70 64 64 70 64 64 70 64 64 70 64 64 70 64 64 70 85 85 93 85 85 93 85 85 93 85 85 93 84 84 93 84 84 93 84 84 93 84 84 93 84 84 92 84 84 92 84 84 92 83 83 92 83 83 92 83 83 92 83 83 91 83 83 91 83 83 91 83 83 91 83 83 91 82 82 91 61 61 68 61 61 68 61 61 67 61 61 67 61 61 67 61 61 67 61 61 67 61 61 67 61 61 67 61 61 67 60 60 67 60 60 66 60 60 66 60 60 66 60 60 66 60 60 66 60 60 66 60 60 66 60 60 66 60 60 66 80 80 87 80 80 87 79 79 87 79 79 87 47 46 167 49 48 175 52 51 185 53 52 189 66 64 208 69 67 215 70 69 218 63 61 211 65 64 214 70 68 221 73 71 224 76 74 228 79 76 231 85 83 239 88 85 241 91 88 245 96 93 250 99 96 252 103 99 255 120 116 255 124 120 255 127 123 255 131 127 255 124 119 255 126 122 255 141 136 255 143 138 255 134 129 255 137 132 255 138 133 255 139 134 255 154 149 255 155 149 255 157 151 255 157 151 255 156 151 255 146 141 255 144 138 255 142 137 255 154 148 255 140 135 255 139 134 255 137 131 255 145 140 255 133 128 255 129 124 255 128 122 255 134 129 255 121 117 250 118 113 246 113 109 240 111 107 237 106 102 231 110 106 234 99 96 222 96 92 218 97 94 218 88 85 208 85 82 203 87 84 205 81 78 198 74 71 188 77 74 191 69 66 181 69 66 181 67 64 176 62 60 171 56 54 162 54 52 159 51 49 155 53 51 156 47 45 148 43 42 143 46 44 144 41 40 139 38 37 134 
72 42 45 72 42 45 72 42 45 72 42 45 72 42 45 72 42 45 72 42 45 84 53 58 84 53 58 84 53 58 84 53 58 84 53 58 84 53 58 84 53 58 84 53 58 84 53 58 84 53 58 84 53 58 84 53 58 84 53 58 84 53 58 84 53 58 84 53 58 83 53 57 83 53 57 83 53 57 83 53 57 83 53 57 83 53 57 72 41 45 72 41 45 72 41 44 72 41 44 72 41 44 72 41 44 72 41 44 72 41 44 71 41 44 71 41 44 71 41 44 71 41 44 71 41 44 71 41 44 71 41 44 71 41 44 71 41 44 71 41 44 71 41 44 71 41 44 71 41 44 71 40 44 82 52 56 82 52 56 82 52 56 82 51 56 82 51 56 82 51 56 82 51 56 82 51 56 82 51 55 82 51 55 82 51 55 81 51 55 81 51 55 81 51 55 81 51 55 81 51 55 81 51 55 81 51 55 81 50 55 81 50 55 81 50 55 81 50 54 81 50 54 81 50 54 80 50 54 80 49 54 69 39 42 69 39 42 69 38 41 97 97 107 98 98 107 97 97 107 97 97 107 97 97 107 97 97 107 97 97 107 97 97 107 97 97 107 97 97 107 97 97 107 97 97 107 97 97 107 97 97 107 97 97 107 97 97 107 97 97 107 97 97 107 72 72 80 72 72 80 72 72 80 72 72 80 72 72 79 72 72 79 72 72 79 72 72 79 72 72 79 72 72 79 72 72 79 72 72 79 72 72 79 72 72 79 72 72 79 72 72 79 72 72 79 72 72 79 71 71 79 71 71 79 71 71 79 95 95 105 95 95 105 95 95 105 95 95 105 95 95 105 95 95 105 95 95 104 95 95 104 95 95 104 95 95 104 95 95 104 94 94 104 94 94 104 94 94 104 94 94 104 94 94 103 94 94 103 44 76 47 36 69 39 36 69 40 36 69 40 37 69 40 37 69 40 37 69 40 47 80 52 47 80 52 47 80 52 47 80 52 47 80 52 47 80 52 47 80 52 47 80 51 47 80 51 47 80 51 47 80 51 47 80 51 47 80 51 47 80 51 47 79 51 47 79 51 46 79 51 46 79 51 46 79 51 46 79 51 46 79 50 46 79 50 46 79 50 46 79 50 46 79 50 46 78 50 46 78 50 45 78 49 45 78 49 45 78 49 45 78 49 45 78 49 45 78 49 45 78 49 45 77 49 35 67 37 34 67 37 34 67 37 34 67 37 34 67 37 34 66 37 41 74 45 88 88 97 88 88 97 88 88 97 88 88 97 88 88 97 88 88 96 87 87 96 87 87 96 87 87 96 87 87 96 87 87 96 87 87 96 87 87 95 86 86 95 86 86 95 86 86 95 86 86 95 65 65 71 64 64 71 64 64 70 64 64 70 64 64 70 64 64 70 64 64 70 64 64 70 64 64 70 64 64 70 64 64 70 63 63 69 63 63 69 63 63 69 63 63 69 63 63 69 63 63 69 63 63 69 62 62 69 62 62 69 62 62 69 83 83 92 83 83 91 83 83 91 83 83 91 83 83 91 83 83 91 82 82 91 82 82 91 82 82 90 82 82 90 82 82 90 82 82 90 82 82 90 82 82 90 81 81 89 81 81 89 81 81 89 81 81 89 81 81 89 81 81 89 81 81 89 45 44 154 57 57 178 50 49 176 52 51 182 64 62 200 57 55 195 57 56 197 60 58 202 62 60 206 65 64 211 78 76 225 81 79 229 83 81 232 87 85 236 90 87 239 93 91 242 98 95 247 103 100 253 104 101 253 109 106 255 102 98 249 106 102 253 108 105 255 121 117 255 124 120 255 128 124 255 129 124 255 132 128 255 124 120 255 124 120 255 126 122 255 128 123 255 141 136 255 142 137 255 143 138 255 143 138 255 143 138 255 143 138 255 143 138 255 131 126 255 129 124 255 129 124 255 139 134 255 136 131 255 124 120 255 121 117 250 120 115 248 129 124 255 124 120 252 123 119 250 110 106 234 106 103 230 104 100 226 102 98 222 109 105 231 96 93 215 92 89 210 99 96 217 96 93 212 93 90 208 81 78 194 88 85 201 85 82 197 82 79 192 78 76 187 74 72 182 65 63 170 70 68 176 68 66 172 66 64 168 62 61 164 61 59 160 51 49 148 56 55 152 55 53 149 52 51 146 
72 42 45 72 42 45 72 42 45 72 42 45 72 42 45 72 42 45 72 42 45 72 42 45 84 53 58 84 53 58 84 53 58 84 53 58 84 53 58 84 53 58 84 53 58 84 53 58 84 53 58 84 53 58 84 53 58 84 53 58 84 53 58 84 53 58 83 53 57 83 53 57 83 53 57 83 53 57 83 53 57 83 53 57 83 53 57 83 53 57 72 41 44 72 41 44 72 41 44 72 41 44 72 41 44 72 41 44 72 41 44 71 41 44 71 41 44 71 41 44 71 41 44 71 41 44 71 41 44 71 41 44 71 41 44 71 41 44 71 41 44 71 41 44 71 41 44 82 52 56 82 52 56 82 52 56 82 52 56 82 52 56 82 51 56 82 51 56 82 51 56 82 51 56 82 51 56 82 51 56 82 51 55 82 51 55 82 51 55 81 51 55 81 51 55 81 51 55 81 51 55 81 51 55 81 51 55 81 51 55 81 50 55 81 50 55 81 50 54 81 50 54 81 50 54 80 50 54 69 39 42 69 39 42 69 39 42 99 99 109 99 99 109 99 99 109 99 99 109 99 99 109 99 99 109 99 99 109 99 99 109 99 99 109 99 99 109 99 99 109 98 98 108 98 98 108 98 98 108 98 98 108 98 98 108 98 98 108 73 73 81 73 73 81 73 73 81 73 73 81 73 73 81 73 73 80 73 73 81 73 73 80 73 73 80 73 73 80 73 73 80 73 73 80 73 73 80 73 73 80 73 73 80 73 73 80 73 73 80 73 73 80 73 73 80 73 73 80 72 72 80 97 97 106 97 97 106 97 97 106 96 96 106 96 96 106 96 96 106 96 96 106 96 96 106 96 96 106 96 96 106 96 96 106 96 96 105 96 96 105 96 96 105 96 96 105 95 95 105 95 95 105 95 95 105 95 95 105 95 95 105 95 95 105 46 79 50 36 69 39 36 69 39 47 80 51 47 80 51 47 80 51 47 80 51 47 80 51 47 80 51 47 80 51 47 80 51 47 80 51 47 80 51 47 80 51 47 80 51 47 80 51 47 80 51 47 79 51 47 79 51 46 79 51 46 79 51 46 79 51 46 79 51 46 79 51 46 79 50 46 79 50 46 79 50 46 79 50 46 79 50 46 79 50 46 78 50 45 78 49 45 78 49 45 78 49 45 78 49 45 78 49 45 78 49 45 78 49 45 78 49 45 77 48 44 77 48 44 77 48 34 67 37 34 67 37 43 76 47 90 90 99 90 90 98 89 89 98 89 89 98 89 89 98 89 89 98 89 89 98 89 89 98 89 89 98 88 88 97 88 88 97 88 88 97 88 88 97 88 88 97 88 88 97 88 88 97 88 88 96 87 87 96 87 87 96 87 87 96 87 87 96 65 65 71 65 65 71 65 65 71 65 65 71 65 65 71 65 65 71 65 65 71 64 64 71 64 64 71 64 64 71 64 64 70 64 64 70 64 64 70 64 64 70 64 64 70 64 64 70 64 64 70 63 63 70 63 63 70 63 63 69 63 63 69 84 84 93 84 84 92 84 84 92 84 84 92 84 84 92 83 83 92 83 83 92 83 83 92 83 83 91 83 83 91 83 83 91 83 83 91 83 83 91 83 83 91 82 82 91 82 82 91 82 82 90 82 82 90 82 82 90 82 82 90 56 55 171 58 57 177 59 58 182 61 60 190 63 62 196 65 64 201 58 56 195 69 67 207 72 70 213 74 72 216 75 74 218 78 76 221 81 79 225 83 81 227 86 84 231 90 88 235 92 90 237 96 93 241 97 95 242 103 100 247 105 102 249 109 106 253 99 96 242 102 98 243 104 100 246 107 103 247 108 104 248 110 106 250 122 118 255 125 121 255 126 121 255 126 122 255 128 124 255 127 123 255 128 123 255 120 116 254 119 115 251 120 116 252 119 115 250 119 115 250 128 124 255 127 123 255 126 122 255 125 121 253 121 118 248 110 106 236 108 104 232 107 103 231 104 100 226 113 110 236 110 107 231 108 104 228 107 104 226 103 100 221 100 97 218 98 95 214 86 83 200 84 81 197 91 88 204 88 85 199 86 83 196 82 80 191 72 70 180 79 77 185 75 73 180 73 71 177 72 70 174 69 67 170 58 57 156 57 55 154 63 61 159 60 59 154 51 50 144 49 48 141 48 47 137 
72 42 45 72 42 45 72 42 45 72 42 45 72 42 45 72 42 45 72 42 45 72 42 45 84 53 58 84 53 58 84 53 58 84 53 58 84 53 58 84 53 58 84 53 58 84 53 58 84 53 58 84 53 58 84 53 58 84 53 58 84 53 58 83 53 57 83 53 57 83 53 57 83 53 57 83 53 57 83 53 57 83 53 57 83 53 57 83 53 57 83 53 57 72 41 44 72 41 44 72 41 44 72 41 44 72 41 44 72 41 44 71 41 44 71 41 44 71 41 44 71 41 44 71 41 44 71 41 44 71 41 44 71 41 44 71 41 44 82 52 56 82 52 56 82 52 56 82 52 56 82 52 56 82 52 56 82 52 56 82 52 56 82 52 56 82 51 56 82 51 56 82 51 56 82 51 56 82 51 56 82 51 55 82 51 55 82 51 55 82 51 55 81 51 55 81 51 55 81 51 55 81 51 55 81 51 55 81 51 55 81 50 55 81 50 55 81 50 54 81 50 54 80 50 54 80 50 54 69 39 42 75 75 83 75 75 83 75 75 83 75 75 82 75 75 83 75 75 82 75 75 82 75 75 82 75 75 82 75 75 82 75 75 82 75 75 82 75 75 82 75 75 82 75 75 82 74 74 82 100 100 110 100 100 110 99 99 109 99 99 110 99 99 109 99 99 109 99 99 109 99 99 109 99 99 109 99 99 109 99 99 109 99 99 109 99 99 109 99 99 109 99 99 109 99 99 109 98 98 108 98 98 108 98 98 108 98 98 108 98 98 108 98 98 108 73 73 81 73 73 81 73 73 81 73 73 81 73 73 80 73 73 80 73 73 80 73 73 80 73 73 80 73 73 80 73 73 80 73 73 80 73 73 80 72 72 80 72 72 80 72 72 80 72 72 80 72 72 79 72 72 79 72 72 79 72 72 79 72 72 79 72 72 79 96 96 106 96 96 106 36 68 39 46 79 51 47 79 51 47 80 51 47 80 51 47 80 51 47 80 51 47 80 51 47 80 51 47 80 51 47 80 51 47 79 51 47 79 51 47 79 51 47 79 51 47 79 51 46 79 51 46 79 51 46 79 51 46 79 51 46 79 51 46 79 50 46 79 50 46 79 50 46 79 50 46 79 50 46 79 50 46 78 50 46 78 49 45 78 49 45 78 49 45 78 49 45 78 49 45 78 49 45 78 49 45 78 49 45 77 49 44 77 48 44 77 48 44 77 48 34 66 37 91 91 100 91 91 100 68 68 75 68 68 74 68 68 74 68 68 74 68 68 74 68 68 74 67 67 74 67 67 74 67 67 74 67 67 74 67 67 73 67 67 73 67 67 73 67 67 73 67 67 73 67 67 73 66 66 73 66 66 73 66 66 73 66 66 73 66 66 72 66 66 72 66 66 72 88 88 97 88 88 96 87 87 96 87 87 96 87 87 96 87 87 96 87 87 96 87 87 96 87 87 96 87 87 95 86 86 95 86 86 95 86 86 95 86 86 95 86 86 95 86 86 95 86 86 94 86 86 94 85 85 94 85 85 94 85 85 94 85 85 94 64 64 70 64 64 70 63 63 70 63 63 69 63 63 69 63 63 69 63 63 69 63 63 69 63 63 69 63 63 69 62 62 69 62 62 69 62 62 68 62 62 68 62 62 68 62 62 68 62 62 68 54 53 158 54 54 159 58 57 174 60 58 182 61 60 186 63 61 192 56 54 187 56 55 188 68 67 203 69 68 205 72 70 210 74 72 212 77 74 215 78 76 218 81 79 221 84 82 224 85 83 225 89 86 229 90 88 230 94 91 233 96 93 235 97 94 236 90 87 228 91 88 228 94 91 232 96 93 233 97 94 233 99 96 235 101 97 236 103 99 238 114 110 248 114 110 247 117 113 250 115 112 248 117 114 249 117 113 248 117 113 246 106 102 234 106 102 234 106 103 233 105 102 231 105 102 230 104 100 228 102 98 225 102 98 224 110 107 233 109 106 231 108 104 228 104 101 224 103 100 222 102 99 219 100 97 218 98 95 213 95 92 209 95 92 208 91 88 203 90 87 201 87 85 197 86 84 196 84 81 191 81 79 188 79 77 184 77 75 181 75 73 178 73 71 175 70 69 170 70 68 170 68 66 166 56 55 151 55 54 149 53 52 145 52 51 143 50 49 139 49 48 137 48 47 134 
72 42 45 72 42 45 72 42 45 72 42 45 72 42 45 72 42 45 72 42 45 84 53 58 84 53 58 84 53 58 84 53 58 84 53 58 84 53 58 84 53 58 84 53 58 84 53 58 84 53 58 84 53 58 84 53 58 83 53 57 83 53 57 83 53 57 83 53 57 83 53 57 83 53 57 83 53 57 83 53 57 83 53 57 83 53 57 83 53 57 83 53 57 83 53 57 72 41 44 72 41 44 72 41 44 72 41 44 71 41 44 71 41 44 71 41 44 71 41 44 71 41 44 71 41 44 71 41 44 83 52 56 83 52 56 82 52 56 82 52 56 82 52 56 82 52 56 82 52 56 82 52 56 82 52 56 82 52 56 82 52 56 82 52 56 82 51 56 82 51 56 82 51 56 82 51 56 82 51 56 82 51 56 82 51 55 82 51 55 82 51 55 81 51 55 81 51 55 81 51 55 81 51 55 81 51 55 81 51 55 81 50 55 81 50 55 81 50 54 81 50 54 69 39 42 76 76 84 76 76 84 76 76 84 76 76 84 76 76 83 76 76 83 76 76 83 76 76 83 76 76 83 76 76 83 76 76 83 76 76 83 76 76 83 76 76 83 75 75 83 101 101 111 101 101 111 101 101 111 101 101 111 101 101 111 101 101 111 100 100 111 100 100 111 100 100 111 100 100 110 100 100 110 100 100 110 100 100 110 100 100 110 100 100 110 100 100 110 100 100 110 100 100 110 100 100 110 100 100 110 99 99 110 99 99 110 99 99 109 99 99 109 74 74 82 74 74 82 74 74 81 74 74 81 74 74 81 74 74 81 74 74 81 74 74 81 74 74 81 74 74 81 74 74 81 74 74 81 73 73 81 73 73 81 73 73 81 73 73 80 73 73 80 73 73 80 73 73 80 73 73 80 73 73 80 73 73 80 73 73 80 97 97 107 97 97 107 97 97 107 97 97 107 97 97 106 96 96 106 35 68 39 46 79 50 46 79 51 46 79 51 46 79 51 47 79 51 47 79 51 47 79 51 47 79 51 47 79 51 46 79 51 46 79 51 46 79 51 46 79 51 46 79 51 46 79 51 46 79 50 46 79 50 46 79 50 46 79 50 46 79 50 46 79 50 46 79 50 46 78 50 46 78 50 45 78 49 45 78 49 45 78 49 45 78 49 45 78 49 45 78 49 45 77 49 45 77 48 44 77 48 34 67 37 92 92 102 92 92 102 92 92 101 92 92 101 92 92 101 92 92 101 69 69 75 68 68 75 68 68 75 68 68 75 68 68 75 68 68 75 68 68 75 68 68 75 68 68 74 68 68 74 68 68 74 68 68 74 67 67 74 67 67 74 67 67 74 67 67 74 67 67 74 67 67 73 67 67 73 67 67 73 67 67 73 67 67 73 67 67 73 89 89 98 89 89 98 88 88 97 88 88 97 88 88 97 88 88 97 88 88 97 88 88 97 88 88 97 88 88 96 87 87 96 87 87 96 87 87 96 87 87 96 87 87 96 87 87 96 87 87 95 86 86 95 86 86 95 86 86 95 86 86 95 86 86 95 86 86 95 86 86 94 64 64 70 64 64 70 64 64 70 64 64 70 64 64 70 64 64 70 64 64 70 63 63 70 63 63 69 63 63 69 63 63 69 63 63 69 63 63 69 63 63 69 63 63 69 44 43 139 47 47 157 58 57 173 59 58 177 51 50 172 52 51 174 53 52 179 55 54 182 57 56 186 58 57 189 59 58 190 72 70 206 73 71 207 76 74 211 78 76 213 79 77 214 81 79 216 83 81 218 86 84 221 88 85 223 88 86 223 81 79 214 83 80 216 86 83 219 86 83 218 87 84 219 89 86 221 91 88 221 92 89 223 92 89 222 105 102 235 104 101 233 104 101 233 107 104 235 106 103 233 107 104 234 106 103 232 105 102 230 105 102 229 105 102 228 95 91 216 93 90 214 94 91 214 92 89 211 100 97 219 99 97 218 97 95 214 96 93 212 95 92 210 85 82 198 91 88 204 81 79 193 79 77 189 77 75 186 75 73 183 74 72 180 72 70 178 80 78 186 79 77 183 76 74 179 75 73 177 64 62 163 62 60 160 60 59 157 59 57 154 56 55 150 65 64 159 64 63 157 62 61 153 60 59 150 59 58 147 57 56 144 56 55 142 55 54 139 
72 42 45 72 42 45 72 42 45 72 42 45 72 42 45 72 42 45 72 42 45 72 42 45 84 53 58 84 53 58 84 53 58 84 53 58 84 53 58 84 53 58 84 53 58 84 53 58 84 53 58 84 53 58 83 53 57 83 53 57 83 53 57 83 53 57 83 53 57 83 53 57 83 53 57 83 53 57 83 53 57 83 53 57 83 53 57 83 53 57 83 53 57 83 53 57 83 53 57 83 52 57 72 41 44 72 41 44 71 41 44 71 41 44 71 41 44 71 41 44 71 41 44 83 52 57 83 52 56 83 52 56 83 52 56 82 52 56 82 52 56 82 52 56 82 52 56 82 52 56 82 52 56 82 52 56 82 52 56 82 52 56 82 52 56 82 51 56 82 51 56 82 51 56 82 51 56 82 51 56 82 51 56 82 51 55 82 51 55 82 51 55 81 51 55 81 51 55 81 51 55 81 51 55 81 51 55 81 51 55 81 50 55 81 50 54 81 50 54 77 77 85 77 77 85 77 77 84 77 77 84 77 77 84 77 77 84 77 77 84 77 77 84 77 77 84 77 77 84 77 77 84 77 77 84 77 77 84 77 77 84 77 77 84 102 102 112 102 102 112 102 102 112 102 102 112 102 102 112 102 102 112 102 102 112 102 102 112 102 102 112 102 102 112 102 102 112 102 102 112 101 101 111 101 101 111 101 101 111 101 101 111 101 101 111 101 101 111 101 101 111 101 101 111 101 101 111 100 100 111 100 100 111 100 100 111 75 75 83 75 75 82 75 75 82 75 75 82 75 75 82 75 75 82 75 75 82 75 75 82 74 74 82 74 74 82 74 74 82 74 74 82 74 74 82 74 74 82 74 74 82 74 74 81 74 74 81 74 74 81 74 74 81 74 74 81 74 74 81 74 74 81 74 74 81 73 73 81 98 98 108 98 98 108 98 98 108 98 98 108 98 98 108 97 97 107 97 97 107 97 97 107 97 97 107 35 68 38 35 68 38 46 79 50 46 79 50 46 79 50 46 79 51 46 79 50 46 79 51 46 79 50 46 79 51 46 79 50 46 79 50 46 79 50 46 79 50 46 79 50 46 79 50 46 79 50 46 79 50 46 79 50 46 78 50 46 78 50 45 78 49 45 78 49 45 78 49 45 78 49 45 78 49 45 78 49 45 77 49 45 77 48 34 67 37 34 67 37 94 94 103 93 93 103 93 93 103 93 93 103 93 93 103 93 93 102 93 93 102 93 93 102 93 93 102 69 69 76 69 69 76 69 69 76 69 69 76 69 69 76 69 69 75 69 69 75 69 69 75 68 68 75 68 68 75 68 68 75 68 68 75 68 68 75 68 68 75 68 68 75 68 68 74 68 68 74 68 68 74 68 68 74 67 67 74 67 67 74 67 67 74 67 67 74 67 67 74 89 89 98 89 89 98 89 89 98 89 89 98 89 89 98 89 89 98 89 89 98 88 88 97 88 88 97 88 88 97 88 88 97 88 88 97 88 88 97 88 88 97 88 88 96 87 87 96 87 87 96 87 87 96 87 87 96 87 87 96 87 87 96 87 87 95 86 86 95 86 86 95 65 65 71 65 65 71 65 65 71 64 64 71 64 64 71 64 64 70 64 64 70 64 64 70 64 64 70 64 64 70 64 64 70 64 64 70 63 63 70 49 49 131 44 44 141 47 46 154 48 47 157 49 48 161 50 49 167 51 50 170 53 52 174 54 53 177 55 54 179 56 55 181 57 56 183 59 57 185 60 58 186 63 61 192 64 62 192 66 64 195 66 64 195 80 78 210 71 69 200 82 80 212 73 71 202 85 83 214 77 74 205 78 75 205 88 86 217 80 78 207 82 79 208 92 90 219 94 91 220 85 82 210 95 92 220 86 83 210 85 83 208 87 84 208 87 84 208 86 83 206 87 84 207 85 83 204 86 83 204 86 83 204 83 81 200 84 82 200 82 80 197 93 90 208 91 88 205 90 87 203 88 86 200 88 86 199 86 84 197 84 82 193 84 82 192 82 80 189 81 79 188 69 67 172 68 66 171 67 65 169 65 64 166 74 72 174 72 70 171 70 69 168 69 67 164 68 66 162 66 65 160 65 64 157 64 62 155 53 52 142 52 51 139 50 49 136 49 48 135 48 47 131 46 45 127 46 45 125 45 44 124 
72 42 45 72 42 45 72 42 45 72 42 45 72 42 45 72 42 45 72 42 45 72 42 45 84 53 58 84 53 58 84 53 58 84 53 58 84 53 58 84 53 58 84 53 58 83 53 57 83 53 57 83 53 57 83 53 57 83 53 57 83 53 57 83 53 57 83 53 57 83 53 57 83 53 57 83 53 57 83 53 57 83 53 57 83 53 57 83 53 57 83 53 57 83 53 57 83 52 57 83 52 57 83 52 57 83 52 57 71 41 44 83 52 57 83 52 57 83 52 57 83 52 57 83 52 57 83 52 56 83 52 56 83 52 56 82 52 56 82 52 56 82 52 56 82 52 56 82 52 56 82 52 56 82 52 56 82 52 56 82 52 56 82 52 56 82 51 56 82 51 56 82 51 56 82 51 56 82 51 56 82 51 56 82 51 55 82 51 55 82 51 55 81 51 55 81 51 55 81 51 55 81 51 55 81 51 55 81 50 55 81 50 54 78 78 85 78 78 85 78 78 85 78 78 85 78 78 85 78 78 85 78 78 85 78 78 85 78 78 85 78 78 85 78 78 85 77 77 85 77 77 85 77 77 85 103 103 113 103 103 113 103 103 113 103 103 113 103 103 113 103 103 113 103 103 113 103 103 113 103 103 113 103 103 113 103 103 113 103 103 113 103 103 113 102 102 112 102 102 112 102 102 112 102 102 112 102 102 112 102 102 112 102 102 112 102 102 112 102 102 112 102 102 112 102 102 112 102 102 112 76 76 83 76 76 83 76 76 83 76 76 83 76 76 83 75 75 83 75 75 83 75 75 83 75 75 83 75 75 83 75 75 83 75 75 83 75 75 83 75 75 82 75 75 82 75 75 82 75 75 82 75 75 82 75 75 82 74 74 82 74 74 82 74 74 82 74 74 82 74 74 82 74 74 82 99 99 109 99 99 109 99 99 109 99 99 109 99 99 109 98 98 108 98 98 108 98 98 108 98 98 108 98 98 108 98 98 108 98 98 108 98 98 108 98 98 107 97 97 107 45 78 49 45 78 49 46 79 50 46 79 50 46 79 50 46 79 50 46 79 50 46 79 50 46 79 50 46 78 50 46 78 50 46 78 50 46 78 50 45 78 49 45 78 49 45 78 49 45 78 49 45 78 49 45 78 49 44 77 48 44 77 48 95 95 105 95 95 104 95 95 104 95 95 104 95 95 104 94 94 104 94 94 104 94 94 104 94 94 104 94 94 103 94 94 103 94 94 103 94 94 103 93 93 103 93 93 103 70 70 77 70 70 77 70 70 77 69 69 76 69 69 76 69 69 76 69 69 76 69 69 76 69 69 76 69 69 76 69 69 75 69 69 75 69 69 75 69 69 75 68 68 75 68 68 75 68 68 75 68 68 75 68 68 75 68 68 75 68 68 74 68 68 74 68 68 74 68 68 74 67 67 74 90 90 99 90 90 99 90 90 99 90 90 99 90 90 98 90 90 98 89 89 98 89 89 98 89 89 98 89 89 98 89 89 98 89 89 98 88 88 97 88 88 97 88 88 97 88 88 97 88 88 97 88 88 97 88 88 97 88 88 96 87 87 96 87 87 96 87 87 96 87 87 96 87 87 96 65 65 71 65 65 71 65 65 71 65 65 71 65 65 71 65 65 71 65 65 71 64 64 71 64 64 71 64 64 70 64 64 70 42 42 129 54 54 153 55 54 154 47 46 153 48 47 156 48 47 159 51 49 166 51 50 167 52 51 170 53 51 171 55 54 175 56 55 178 56 55 178 59 57 182 59 58 182 60 59 183 61 60 184 64 62 188 65 63 189 66 64 189 67 65 191 78 76 202 80 78 205 80 78 204 82 80 206 83 81 206 84 82 206 84 82 207 84 82 206 87 85 209 86 84 207 87 85 207 87 85 207 79 76 196 79 76 196 79 77 196 77 75 193 78 75 193 78 75 192 77 74 190 77 75 190 77 74 188 75 73 186 75 73 184 75 73 184 73 71 181 73 71 180 71 69 177 79 77 185 79 77 184 68 66 171 67 66 170 65 64 166 64 62 164 63 61 162 62 61 161 60 59 157 60 59 155 58 57 153 58 56 151 56 54 147 55 54 146 54 53 143 53 51 141 60 59 148 59 58 145 58 57 143 57 56 139 47 46 129 46 45 125 45 44 123 44 44 120 43 43 117 
84 53 58 84 53 58 84 53 58 72 41 45 72 41 45 72 41 45 72 41 45 72 41 45 72 41 45 84 53 58 84 53 58 84 53 58 83 53 57 83 53 57 83 53 57 83 53 57 83 53 57 83 53 57 83 53 57 83 53 57 83 53 57 83 53 57 83 53 57 83 53 57 83 53 57 83 53 57 83 53 57 83 53 57 83 53 57 83 53 57 83 53 57 83 52 57 83 52 57 72 41 44 83 52 57 71 41 44 71 41 44 71 41 44 83 52 57 83 52 57 83 52 57 83 52 56 83 52 56 83 52 56 82 52 56 82 52 56 82 52 56 82 52 56 82 52 56 82 52 56 82 52 56 82 52 56 82 52 56 82 52 56 82 52 56 82 51 56 82 51 56 82 51 56 82 51 56 82 51 56 82 51 56 82 51 55 82 51 55 81 51 55 81 51 55 81 51 55 81 51 55 81 51 55 81 50 54 105 105 115 105 105 115 105 105 115 105 105 115 105 105 115 105 105 115 105 105 115 105 105 115 105 105 115 104 104 115 104 104 115 104 104 115 104 104 115 78 78 86 78 78 86 78 78 85 78 78 85 78 78 85 78 78 85 78 78 85 78 78 85 78 78 85 78 78 85 78 78 85 78 78 85 77 77 85 77 77 85 77 77 85 77 77 85 77 77 85 77 77 85 77 77 85 77 77 85 77 77 85 77 77 84 77 77 84 77 77 84 77 77 84 77 77 84 102 102 112 102 102 112 102 102 112 102 102 112 102 102 112 102 102 112 102 102 112 102 102 112 102 102 112 102 102 112 102 102 112 102 102 112 101 101 111 101 101 111 101 101 111 101 101 111 101 101 111 101 101 111 101 101 111 100 100 111 100 100 111 100 100 110 100 100 110 100 100 110 100 100 110 100 100 110 75 75 82 75 75 82 74 74 82 74 74 82 74 74 82 74 74 82 74 74 82 74 74 82 74 74 81 74 74 81 74 74 81 74 74 81 74 74 81 74 74 81 74 74 81 73 73 81 73 73 81 73 73 81 73 73 81 73 73 80 73 73 80 73 73 80 73 73 80 73 73 80 73 73 80 73 73 80 73 73 80 73 73 80 72 72 80 72 72 80 72 72 79 72 72 79 72 72 79 72 72 79 72 72 79 72 72 79 72 72 79 72 72 79 72 72 79 71 71 79 71 71 79 71 71 78 71 71 78 71 71 78 71 71 78 71 71 78 71 71 78 71 71 78 71 71 78 71 71 78 71 71 78 70 70 78 70 70 77 94 94 103 94 94 103 94 94 103 94 94 103 93 93 103 93 93 103 93 93 103 93 93 102 93 93 102 93 93 102 93 93 102 93 93 102 92 92 102 92 92 102 92 92 101 92 92 101 92 92 101 92 92 101 92 92 101 92 92 101 91 91 100 91 91 100 91 91 100 91 91 100 91 91 100 91 91 100 68 68 74 68 68 74 68 68 74 68 68 74 67 67 74 67 67 74 67 67 74 67 67 74 67 67 74 67 67 74 67 67 73 67 67 73 67 67 73 67 67 73 67 67 73 66 66 73 66 66 73 66 66 73 66 66 73 66 66 72 66 66 72 66 66 72 66 66 72 66 66 72 66 66 72 66 66 72 87 87 96 87 87 96 87 87 96 87 87 96 87 87 96 87 87 95 87 87 95 86 86 95 41 40 120 52 51 139 53 52 144 55 54 154 55 54 154 47 46 150 48 47 155 49 48 157 49 48 159 51 49 163 51 50 164 53 52 168 54 53 170 55 54 171 55 54 172 57 55 174 58 56 176 59 57 177 59 58 177 60 59 179 61 60 179 72 70 191 74 72 193 74 73 193 75 73 194 76 74 194 77 75 195 78 76 196 78 76 195 79 77 196 79 77 195 80 78 195 79 78 194 81 79 196 81 79 194 71 69 183 71 68 182 71 69 181 70 68 180 70 68 180 69 67 177 69 67 176 68 66 175 68 66 173 68 66 172 66 65 170 76 74 179 75 73 177 74 72 176 73 71 173 72 70 172 71 70 170 70 69 168 59 58 155 58 57 153 57 56 150 57 56 149 56 54 146 55 54 145 54 53 143 52 51 138 52 51 137 51 49 135 50 49 133 57 56 140 57 56 139 56 55 136 55 54 133 54 53 131 53 53 129 53 52 127 51 51 123 50 50 121 
83 53 57 83 53 57 83 53 57 83 53 57 83 53 57 83 53 57 72 41 45 83 53 57 83 53 57 83 53 57 83 53 57 83 53 57 83 53 57 83 53 57 83 53 57 83 53 57 83 53 57 83 53 57 83 53 57 83 53 57 83 53 57 83 53 57 83 53 57 83 53 57 83 53 57 83 53 57 72 41 44 72 41 44 72 41 44 72 41 44 72 41 44 72 41 44 72 41 44 71 41 44 71 41 44 71 41 44 71 41 44 71 41 44 71 41 44 71 41 44 83 52 57 83 52 56 83 52 56 83 52 56 82 52 56 82 52 56 82 52 56 82 52 56 82 52 56 82 52 56 82 52 56 82 52 56 82 52 56 82 52 56 82 51 56 82 51 56 82 51 56 82 51 56 82 51 56 82 51 56 82 51 55 82 51 55 82 51 55 81 51 55 81 51 55 70 40 43 106 106 116 106 106 116 106 106 116 106 106 116 106 106 116 106 106 116 106 106 116 105 105 116 105 105 116 105 105 116 105 105 116 105 105 116 105 105 116 105 105 116 79 79 86 79 79 86 79 79 86 78 78 86 78 78 86 78 78 86 78 78 86 78 78 86 78 78 86 78 78 86 78 78 86 78 78 86 78 78 86 78 78 86 78 78 86 78 78 85 78 78 85 78 78 85 78 78 85 78 78 85 78 78 85 78 78 85 78 78 85 78 78 85 77 77 85 77 77 85 77 77 85 103 103 113 103 103 113 103 103 113 103 103 113 103 103 113 103 103 113 103 103 113 103 103 113 103 103 113 102 102 112 102 102 112 102 102 112 102 102 112 102 102 112 102 102 112 102 102 112 102 102 112 102 102 112 102 102 112 101 101 111 101 101 111 101 101 111 101 101 111 101 101 111 101 101 111 101 101 111 75 75 83 75 75 83 75 75 83 75 75 83 75 75 82 75 75 82 75 75 82 75 75 82 75 75 82 74 74 82 74 74 82 74 74 82 74 74 82 74 74 82 74 74 82 74 74 81 74 74 81 74 74 81 74 74 81 74 74 81 74 74 81 74 74 81 73 73 81 73 73 81 73 73 81 73 73 81 73 73 80 73 73 80 73 73 80 73 73 80 73 73 80 73 73 80 73 73 80 73 73 80 72 72 80 72 72 80 72 72 80 72 72 79 72 72 79 72 72 79 72 72 79 72 72 79 72 72 79 72 72 79 72 72 79 72 72 79 71 71 79 71 71 79 71 71 78 71 71 78 71 71 78 71 71 78 71 71 78 71 71 78 71 71 78 94 94 104 94 94 104 94 94 104 94 94 104 94 94 103 94 94 103 94 94 103 94 94 103 93 93 103 93 93 103 93 93 103 93 93 103 93 93 102 93 93 102 93 93 102 93 93 102 93 93 102 92 92 102 92 92 102 92 92 101 92 92 101 92 92 101 92 92 101 92 92 101 92 92 101 91 91 100 68 68 75 68 68 75 68 68 75 68 68 75 68 68 75 68 68 74 68 68 74 68 68 74 68 68 74 67 67 74 67 67 74 67 67 74 67 67 74 67 67 74 67 67 74 67 67 73 67 67 73 67 67 73 67 67 73 67 67 73 67 67 73 66 66 73 66 66 73 66 66 73 66 66 72 66 66 72 66 66 72 88 88 97 88 88 97 88 88 96 87 87 96 87 87 96 87 87 96 87 87 96 87 87 96 51 51 133 52 52 139 53 53 144 54 54 148 46 45 145 47 46 147 47 46 149 48 47 154 48 47 154 50 49 159 50 49 159 51 50 161 52 51 163 54 53 166 54 53 165 55 54 168 55 54 168 56 55 169 57 55 169 57 56 169 69 67 182 69 67 182 70 68 183 70 69 183 72 70 185 72 70 184 73 71 185 73 71 184 73 72 185 74 73 185 74 72 184 74 72 183 75 73 184 74 73 182 75 73 182 73 72 180 65 63 170 64 62 168 65 63 169 64 62 167 64 62 166 72 71 174 72 70 173 71 69 171 71 69 170 70 68 168 69 68 167 68 67 164 67 66 162 67 66 162 65 64 158 65 64 158 64 63 155 63 62 153 62 61 150 62 60 149 61 60 147 51 50 135 59 58 142 49 48 130 47 46 128 56 55 136 55 55 133 55 54 132 54 53 130 54 53 129 53 52 126 51 51 122 51 50 121 50 49 119 49 49 117 
83 53 57 83 53 57 83 53 57 83 53 57 83 53 57 83 53 57 83 53 57 83 53 57 83 53 57 83 53 57 72 41 45 72 41 45 72 41 45 72 41 45 72 41 45 72 41 45 72 41 45 72 41 45 72 41 45 72 41 45 72 41 45 72 41 44 72 41 44 72 41 44 72 41 44 72 41 44 72 41 44 72 41 44 72 41 44 72 41 44 72 41 44 72 41 44 71 41 44 71 41 44 71 41 44 71 41 44 71 41 44 71 41 44 71 41 44 71 41 44 71 41 44 71 41 44 71 41 44 82 52 56 82 52 56 82 52 56 82 52 56 82 52 56 82 52 56 82 52 56 82 52 56 82 52 56 82 52 56 82 52 56 82 51 56 82 51 56 82 51 56 82 51 56 82 51 55 82 51 55 82 51 55 81 51 55 81 51 55 107 107 117 107 107 117 107 107 117 106 106 117 106 106 117 106 106 117 106 106 117 106 106 117 106 106 117 106 106 117 106 106 117 106 106 117 106 106 117 106 106 117 79 79 87 79 79 87 79 79 87 79 79 87 79 79 87 79 79 87 79 79 87 79 79 87 79 79 87 79 79 87 79 79 86 79 79 86 79 79 86 79 79 86 79 79 86 79 79 86 78 78 86 78 78 86 78 78 86 78 78 86 78 78 86 78 78 86 78 78 86 78 78 86 78 78 86 78 78 86 78 78 85 78 78 85 104 104 114 104 104 114 104 104 114 104 104 114 104 104 114 104 104 114 103 103 114 103 103 113 103 103 113 103 103 113 103 103 113 103 103 113 103 103 113 103 103 113 103 103 113 103 103 113 103 103 113 102 102 112 102 102 112 102 102 112 102 102 112 102 102 112 102 102 112 102 102 112 102 102 112 102 102 112 102 102 112 102 102 112 76 76 83 76 76 83 75 75 83 75 75 83 75 75 83 75 75 83 75 75 83 75 75 83 75 75 83 75 75 82 75 75 82 75 75 82 75 75 82 75 75 82 75 75 82 74 74 82 74 74 82 74 74 82 74 74 82 74 74 82 74 74 82 74 74 81 74 74 81 74 74 81 74 74 81 74 74 81 74 74 81 74 74 81 73 73 81 73 73 81 73 73 81 73 73 81 73 73 80 73 73 80 73 73 80 73 73 80 73 73 80 73 73 80 73 73 80 73 73 80 72 72 80 72 72 80 72 72 80 72 72 79 72 72 79 72 72 79 72 72 79 72 72 79 72 72 79 72 72 79 72 72 79 72 72 79 71 71 79 71 71 79 71 71 78 95 95 105 95 95 105 95 95 105 95 95 104 95 95 104 95 95 104 94 94 104 94 94 104 94 94 104 94 94 104 94 94 103 94 94 103 94 94 103 94 94 103 93 93 103 93 93 103 93 93 103 93 93 103 93 93 102 93 93 102 93 93 102 93 93 102 93 93 102 92 92 102 92 92 102 92 92 101 92 92 101 92 92 101 69 69 75 69 69 75 68 68 75 68 68 75 68 68 75 68 68 75 68 68 75 68 68 75 68 68 75 68 68 74 68 68 74 68 68 74 68 68 74 68 68 74 67 67 74 67 67 74 67 67 74 67 67 74 67 67 74 67 67 73 67 67 73 67 67 73 67 67 73 67 67 73 66 66 73 66 66 73 66 66 73 66 66 73 88 88 97 88 88 97 88 88 97 88 88 97 88 88 97 47 47 112 51 50 129 51 50 130 52 52 139 53 53 143 54 54 149 55 54 151 46 45 144 46 46 145 48 47 149 48 47 150 48 47 151 49 48 154 49 48 154 50 49 155 52 51 158 52 51 159 52 51 158 54 53 160 54 52 160 64 63 172 65 64 172 65 64 173 66 64 173 67 65 173 67 65 173 67 66 174 67 66 172 68 67 175 68 67 173 69 67 174 69 67 173 69 67 173 68 67 171 69 68 172 59 57 159 59 57 159 59 57 158 69 67 169 68 66 166 68 67 167 67 66 164 67 65 163 66 65 161 65 64 160 65 64 158 64 63 157 64 63 156 64 62 155 63 62 153 62 61 151 61 60 148 60 59 147 60 59 145 59 58 144 58 57 141 57 56 139 57 56 136 56 55 135 56 55 134 45 44 120 44 44 119 44 43 117 43 42 115 42 42 112 42 41 110 41 40 108 40 39 104 40 39 104 39 39 101 48 47 110 
71 41 44 83 53 57 83 52 57 83 52 57 83 53 57 83 53 57 83 53 57 83 53 57 83 53 57 83 53 57 83 53 57 72 41 45 72 41 45 72 41 45 72 41 45 72 41 45 72 41 45 72 41 45 72 41 44 72 41 44 72 41 44 72 41 44 72 41 44 72 41 44 72 41 44 72 41 44 72 41 44 72 41 44 72 41 44 72 41 44 72 41 44 71 41 44 71 41 44 71 41 44 71 41 44 71 41 44 71 41 44 71 41 44 71 41 44 71 41 44 71 41 44 71 41 44 71 41 44 71 41 44 71 41 44 71 41 44 71 41 44 82 52 56 82 52 56 82 52 56 82 52 56 82 52 56 82 52 56 82 51 56 82 51 56 82 51 56 82 51 56 71 40 43 71 40 43 70 40 43 70 40 43 107 107 118 107 107 118 107 107 118 107 107 118 107 107 118 107 107 118 107 107 118 107 107 118 107 107 118 107 107 118 107 107 117 107 107 117 107 107 117 80 80 88 80 80 88 80 80 88 80 80 87 80 80 87 80 80 87 80 80 87 80 80 87 79 79 87 79 79 87 79 79 87 79 79 87 79 79 87 79 79 87 79 79 87 79 79 87 79 79 87 79 79 87 79 79 87 79 79 87 79 79 87 79 79 86 79 79 86 79 79 86 79 79 86 79 79 86 79 79 86 78 78 86 78 78 86 105 105 115 105 105 115 104 104 115 104 104 115 104 104 115 104 104 115 104 104 115 104 104 115 104 104 114 104 104 114 104 104 114 104 104 114 104 104 114 104 104 114 103 103 114 103 103 113 103 103 113 103 103 113 103 103 113 103 103 113 103 103 113 103 103 113 103 103 113 103 103 113 103 103 113 102 102 112 102 102 112 102 102 112 102 102 112 76 76 84 76 76 84 76 76 84 76 76 84 76 76 83 76 76 83 76 76 83 76 76 83 76 76 83 75 75 83 75 75 83 75 75 83 75 75 83 75 75 83 75 75 83 75 75 83 75 75 82 75 75 82 75 75 82 75 75 82 75 75 82 75 75 82 74 74 82 74 74 82 74 74 82 74 74 82 74 74 82 74 74 81 74 74 81 74 74 81 74 74 81 74 74 81 74 74 81 74 74 81 74 74 81 73 73 81 73 73 81 73 73 81 73 73 80 73 73 80 73 73 80 73 73 80 73 73 80 73 73 80 73 73 80 73 73 80 72 72 80 72 72 80 72 72 80 72 72 79 72 72 79 72 72 79 72 72 79 72 72 79 72 72 79 72 72 79 72 72 79 96 96 105 95 95 105 95 95 105 95 95 105 95 95 105 95 95 105 95 95 104 95 95 104 95 95 104 95 95 104 94 94 104 94 94 104 94 94 104 94 94 104 94 94 103 94 94 103 94 94 103 94 94 103 94 94 103 93 93 103 93 93 103 93 93 103 93 93 102 93 93 102 93 93 102 93 93 102 93 93 102 92 92 102 92 92 102 69 69 76 69 69 76 69 69 75 69 69 75 69 69 75 68 68 75 68 68 75 68 68 75 68 68 75 68 68 75 68 68 75 68 68 75 68 68 74 68 68 74 68 68 74 68 68 74 68 68 74 67 67 74 67 67 74 67 67 74 67 67 74 67 67 74 67 67 73 67 67 73 67 67 73 67 67 73 67 67 73 67 67 73 66 66 73 89 89 98 88 88 97 88 88 97 88 88 97 47 47 112 51 50 130 51 51 131 52 52 137 52 52 136 54 53 145 54 53 145 55 54 150 55 54 150 46 45 143 47 46 144 47 46 146 47 46 145 48 47 148 48 47 149 50 49 150 50 49 150 51 50 152 61 60 162 61 60 163 61 60 163 62 61 164 62 61 164 63 61 164 63 62 164 53 52 153 53 52 152 55 54 154 55 53 153 54 53 152 54 53 151 55 54 153 55 54 151 54 53 150 54 53 149 55 53 149 54 53 148 54 53 147 53 52 145 64 62 156 62 61 154 62 61 152 61 60 151 61 60 149 60 59 147 60 59 148 59 58 145 59 58 144 58 57 142 58 57 142 57 56 138 57 56 137 56 55 135 56 55 134 55 54 132 54 53 129 54 53 129 53 52 126 43 43 115 43 42 112 42 41 111 41 40 108 41 40 106 40 40 104 39 39 101 39 38 99 38 37 97 37 37 95 37 37 95 
82 82 90 81 81 90 71 40 43 82 52 56 83 52 57 83 52 57 83 52 57 83 53 57 83 53 57 83 53 57 83 53 57 83 53 57 83 53 57 83 53 57 72 41 44 72 41 44 72 41 44 72 41 44 72 41 44 72 41 44 72 41 44 72 41 44 72 41 44 72 41 44 72 41 44 72 41 44 72 41 44 72 41 44 71 41 44 71 41 44 71 41 44 71 41 44 71 41 44 71 41 44 71 41 44 71 41 44 71 41 44 71 41 44 71 41 44 71 41 44 71 41 44 71 41 44 71 41 44 71 41 44 71 41 44 71 41 44 71 40 44 71 40 44 71 40 44 71 40 44 71 40 44 71 40 43 71 40 43 71 40 43 71 40 43 70 40 43 81 81 89 81 81 89 81 81 89 81 81 89 81 81 89 81 81 89 81 81 88 81 81 88 81 81 88 81 81 88 81 81 88 81 81 88 80 80 88 80 80 88 80 80 88 80 80 88 107 107 118 107 107 118 107 107 118 107 107 118 107 107 118 107 107 118 107 107 118 107 107 118 107 107 117 107 107 117 107 107 117 107 107 117 107 107 117 106 106 117 106 106 117 106 106 117 106 106 117 106 106 117 106 106 117 106 106 117 106 106 117 106 106 116 106 106 116 106 106 116 106 106 116 106 106 116 105 105 116 105 105 116 105 105 116 79 79 86 79 79 86 79 79 86 79 79 86 79 79 86 78 78 86 78 78 86 78 78 86 78 78 86 78 78 86 78 78 86 78 78 86 78 78 86 78 78 86 78 78 86 78 78 85 78 78 85 78 78 85 78 78 85 78 78 85 78 78 85 77 77 85 77 77 85 77 77 85 77 77 85 77 77 85 77 77 85 77 77 85 77 77 84 77 77 84 103 103 113 103 103 113 102 102 112 102 102 112 102 102 112 102 102 112 102 102 112 102 102 112 102 102 112 102 102 112 102 102 112 102 102 112 101 101 111 101 101 111 101 101 111 101 101 111 101 101 111 101 101 111 101 101 111 100 100 111 100 100 110 100 100 110 100 100 110 100 100 110 100 100 110 100 100 110 100 100 110 100 100 110 99 99 110 99 99 109 99 99 109 99 99 109 99 99 109 99 99 109 99 99 109 99 99 109 99 99 109 98 98 108 98 98 108 98 98 108 98 98 108 98 98 108 98 98 108 98 98 108 98 98 108 98 98 108 98 98 107 97 97 107 97 97 107 97 97 107 97 97 107 97 97 107 97 97 107 97 97 107 97 97 106 96 96 106 96 96 106 96 96 106 96 96 106 72 72 79 72 72 79 72 72 79 72 72 79 71 71 79 71 71 79 71 71 79 71 71 78 71 71 78 71 71 78 71 71 78 71 71 78 71 71 78 71 71 78 71 71 78 71 71 78 71 71 78 70 70 77 70 70 77 70 70 77 70 70 77 70 70 77 70 70 77 70 70 77 70 70 77 70 70 77 70 70 77 69 69 76 69 69 76 69 69 76 93 93 102 92 92 102 92 92 102 92 92 102 92 92 101 92 92 101 92 92 101 92 92 101 92 92 101 91 91 100 91 91 100 91 91 100 91 91 100 91 91 100 91 91 100 91 91 100 91 91 100 91 91 99 90 90 99 90 90 99 90 90 99 90 90 99 90 90 99 90 90 99 90 90 99 90 90 98 90 90 98 89 89 98 89 89 98 67 67 73 67 67 73 44 43 92 47 47 111 48 48 115 50 49 124 51 50 128 51 51 132 52 52 134 53 52 139 53 52 140 53 52 141 54 53 144 55 54 146 55 54 147 55 54 148 56 55 150 57 56 151 57 56 152 57 56 152 57 56 153 48 47 143 48 48 143 49 48 143 49 48 143 49 49 145 49 49 144 50 49 144 50 49 143 51 49 144 51 49 144 51 49 143 51 50 144 51 50 143 52 50 144 51 49 141 52 50 143 51 49 140 51 50 140 50 49 137 50 49 136 49 48 135 50 49 136 49 48 133 58 57 144 58 57 142 58 57 141 57 56 139 56 55 136 56 55 136 56 55 136 56 55 134 54 54 131 55 54 132 54 54 130 53 52 126 53 52 125 52 51 122 52 51 121 42 41 109 41 40 107 41 40 106 40 40 104 40 39 102 39 39 100 39 38 98 37 37 94 37 37 94 37 36 91 36 36 90 36 35 88 
82 82 90 82 82 90 82 82 90 82 82 90 82 82 90 82 82 90 82 82 90 82 82 90 83 52 56 83 52 57 83 52 57 83 52 57 83 52 57 83 53 57 83 52 57 83 52 57 72 41 44 72 41 44 72 41 44 72 41 44 72 41 44 72 41 44 72 41 44 72 41 44 71 41 44 71 41 44 71 41 44 71 41 44 71 41 44 71 41 44 71 41 44 71 41 44 71 41 44 71 41 44 71 41 44 71 41 44 71 41 44 71 41 44 71 41 44 71 41 44 71 41 44 71 41 44 71 41 44 71 41 44 71 41 44 71 40 44 71 40 44 71 40 44 71 40 43 71 40 43 70 40 43 81 81 90 81 81 90 81 81 89 81 81 89 81 81 89 81 81 89 81 81 89 81 81 89 81 81 89 81 81 89 81 81 89 81 81 89 81 81 89 81 81 89 81 81 89 81 81 89 81 81 89 81 81 89 108 108 119 108 108 119 108 108 119 108 108 119 108 108 118 108 108 118 108 108 118 107 107 118 107 107 118 107 107 118 107 107 118 107 107 118 107 107 118 107 107 118 107 107 118 107 107 118 107 107 118 107 107 118 107 107 117 107 107 117 107 107 117 107 107 117 106 106 117 106 106 117 106 106 117 106 106 117 106 106 117 106 106 117 106 106 117 106 106 117 79 79 87 79 79 87 79 79 87 79 79 87 79 79 87 79 79 87 79 79 87 79 79 87 79 79 86 79 79 86 79 79 86 79 79 86 78 78 86 78 78 86 78 78 86 78 78 86 78 78 86 78 78 86 78 78 86 78 78 86 78 78 86 78 78 86 78 78 85 78 78 85 78 78 85 78 78 85 78 78 85 78 78 85 77 77 85 77 77 85 77 77 85 103 103 113 103 103 113 103 103 113 103 103 113 103 103 113 103 103 113 103 103 113 103 103 113 102 102 112 102 102 112 102 102 112 102 102 112 102 102 112 102 102 112 102 102 112 102 102 112 102 102 112 101 101 111 101 101 111 101 101 111 101 101 111 101 101 111 101 101 111 101 101 111 100 100 111 100 100 111 100 100 110 100 100 110 100 100 110 100 100 110 100 100 110 100 100 110 100 100 110 100 100 110 99 99 110 99 99 109 99 99 109 99 99 109 99 99 109 99 99 109 99 99 109 99 99 109 99 99 109 98 98 108 98 98 108 98 98 108 98 98 108 98 98 108 98 98 108 98 98 108 98 98 108 98 98 107 97 97 107 97 97 107 97 97 107 97 97 107 97 97 107 97 97 107 97 97 107 97 97 106 97 97 106 72 72 79 72 72 79 72 72 79 72 72 79 72 72 79 72 72 79 72 72 79 72 72 79 71 71 79 71 71 79 71 71 79 71 71 78 71 71 78 71 71 78 71 71 78 71 71 78 71 71 78 71 71 78 71 71 78 71 71 78 70 70 78 70 70 77 70 70 77 70 70 77 70 70 77 70 70 77 70 70 77 70 70 77 70 70 77 70 70 77 70 70 77 93 93 102 93 93 102 93 93 102 93 93 102 92 92 102 92 92 102 92 92 101 92 92 101 92 92 101 92 92 101 92 92 101 92 92 101 92 92 101 91 91 100 91 91 100 91 91 100 91 91 100 91 91 100 91 91 100 91 91 100 91 91 99 90 90 99 90 90 99 90 90 99 90 90 99 90 90 99 90 90 99 90 90 99 90 90 98 90 90 98 44 44 91 44 44 94 47 47 110 48 47 111 50 49 123 50 49 124 50 50 125 51 51 130 52 51 132 52 52 134 52 52 136 52 52 135 53 52 139 54 53 140 54 53 141 54 53 141 55 54 144 55 54 144 55 54 144 46 45 135 46 45 134 46 45 134 46 45 133 47 46 136 47 46 135 47 46 134 47 46 134 48 47 135 47 47 134 47 47 134 47 47 133 47 47 133 47 46 132 47 47 132 47 47 132 47 46 130 46 46 128 47 46 128 47 46 128 46 45 126 46 45 125 45 45 123 46 45 124 45 44 121 45 44 120 54 54 130 54 53 128 53 53 127 53 52 124 53 52 124 52 51 121 52 51 122 51 50 119 51 50 117 50 49 115 40 40 105 40 39 102 39 39 100 39 38 99 38 38 97 38 37 94 38 37 93 37 37 92 37 36 90 36 35 87 35 35 83 35 34 82 34 34 81 
83 83 91 82 82 91 83 83 91 110 110 121 110 110 121 110 110 121 110 110 121 110 110 121 110 110 121 110 110 121 110 110 121 110 110 121 110 110 121 110 110 121 83 52 57 83 52 57 83 52 57 83 52 57 83 52 57 83 52 57 71 41 44 71 41 44 71 41 44 71 41 44 71 41 44 71 41 44 71 41 44 71 41 44 71 41 44 71 41 44 71 41 44 71 41 44 71 41 44 71 41 44 71 41 44 71 41 44 71 41 44 71 41 44 71 41 44 71 41 44 71 41 44 82 82 90 82 82 90 71 40 44 82 82 90 82 82 90 82 82 90 82 82 90 82 82 90 82 82 90 82 82 90 82 82 90 82 82 90 82 82 90 82 82 90 82 82 90 82 82 90 81 81 90 81 81 90 81 81 90 81 81 90 81 81 89 81 81 89 81 81 89 81 81 89 81 81 89 108 108 119 108 108 119 108 108 119 108 108 119 108 108 119 108 108 119 108 108 119 108 108 119 108 108 119 108 108 119 108 108 119 108 108 119 108 108 119 108 108 118 108 108 118 108 108 118 107 107 118 107 107 118 107 107 118 107 107 118 107 107 118 107 107 118 107 107 118 107 107 118 107 107 118 107 107 118 107 107 117 107 107 117 107 107 117 107 107 117 106 106 117 106 106 117 80 80 87 80 80 87 79 79 87 79 79 87 79 79 87 79 79 87 79 79 87 79 79 87 79 79 87 79 79 87 79 79 87 79 79 87 79 79 87 79 79 86 79 79 86 79 79 86 79 79 86 79 79 86 78 78 86 78 78 86 78 78 86 78 78 86 78 78 86 78 78 86 78 78 86 78 78 86 78 78 85 78 78 85 78 78 85 78 78 85 78 78 85 104 104 114 104 104 114 103 103 114 103 103 113 103 103 113 103 103 113 103 103 113 103 103 113 103 103 113 103 103 113 103 103 113 103 103 113 102 102 112 102 102 112 102 102 112 102 102 112 102 102 112 102 102 112 102 102 112 102 102 112 102 102 112 102 102 112 102 102 112 101 101 111 101 101 111 101 101 111 101 101 111 101 101 111 101 101 111 100 100 111 100 100 111 100 100 110 100 100 110 100 100 110 100 100 110 100 100 110 100 100 110 100 100 110 100 100 110 99 99 110 99 99 109 99 99 109 99 99 109 99 99 109 99 99 109 99 99 109 99 99 109 99 99 109 98 98 108 98 98 108 98 98 108 98 98 108 98 98 108 98 98 108 98 98 108 98 98 108 98 98 107 97 97 107 97 97 107 97 97 107 97 97 107 97 97 107 97 97 107 72 72 80 72 72 80 72 72 79 72 72 79 72 72 79 72 72 79 72 72 79 72 72 79 72 72 79 72 72 79 72 72 79 71 71 79 71 71 79 71 71 79 71 71 78 71 71 78 71 71 78 71 71 78 71 71 78 71 71 78 71 71 78 71 71 78 71 71 78 70 70 78 70 70 77 70 70 77 70 70 77 70 70 77 70 70 77 70 70 77 70 70 77 93 93 103 93 93 103 93 93 102 93 93 102 93 93 102 93 93 102 93 93 102 92 92 102 92 92 102 92 92 102 92 92 101 92 92 101 92 92 101 92 92 101 92 92 101 92 92 101 91 91 100 91 91 100 91 91 100 91 91 100 91 91 100 91 91 100 91 91 100 91 91 100 91 91 100 90 90 99 90 90 99 90 90 99 90 90 99 90 90 99 42 42 79 44 44 94 45 45 98 46 46 104 48 48 113 49 48 116 49 49 120 49 49 120 50 50 124 51 51 128 51 51 128 51 50 127 52 51 132 52 51 132 52 51 133 52 51 132 53 52 135 53 52 135 53 52 135 44 43 126 44 43 125 44 43 125 44 43 125 44 44 125 45 44 126 44 44 125 44 43 124 45 44 126 45 44 126 44 44 124 45 44 124 45 44 124 44 44 122 44 44 122 45 44 123 45 44 122 44 43 119 44 43 118 44 43 119 44 43 117 43 42 116 43 43 117 43 42 114 42 42 113 42 41 112 42 41 110 42 41 110 41 40 107 50 49 116 50 49 115 49 49 114 49 48 111 49 48 112 49 48 110 39 38 97 38 37 94 38 37 94 37 36 90 36 36 89 36 36 86 36 35 85 36 35 85 35 35 83 35 34 81 34 34 79 34 34 77 33 33 74 
111 111 122 111 111 122 111 111 122 111 111 122 111 111 122 111 111 122 111 111 122 111 111 122 111 111 122 111 111 122 111 111 122 111 111 122 111 111 122 111 111 122 111 111 122 111 111 122 111 111 122 111 111 122 111 111 122 111 111 122 111 111 122 111 111 122 111 111 122 110 110 122 111 111 122 110 110 122 110 110 122 110 110 121 110 110 121 110 110 121 110 110 121 83 83 91 83 83 91 83 83 91 82 82 91 82 82 91 82 82 91 82 82 91 82 82 91 82 82 91 82 82 91 82 82 91 82 82 91 82 82 91 82 82 90 82 82 90 82 82 90 82 82 90 82 82 90 82 82 90 82 82 90 82 82 90 82 82 90 82 82 90 82 82 90 82 82 90 82 82 90 82 82 90 82 82 90 82 82 90 82 82 90 82 82 90 82 82 90 109 109 120 109 109 120 109 109 120 109 109 120 109 109 120 109 109 120 109 109 120 109 109 119 109 109 119 108 108 119 108 108 119 108 108 119 108 108 119 108 108 119 108 108 119 108 108 119 108 108 119 108 108 119 108 108 119 108 108 119 108 108 119 108 108 118 108 108 118 108 108 118 107 107 118 107 107 118 107 107 118 107 107 118 107 107 118 107 107 118 107 107 118 107 107 118 107 107 118 80 80 88 80 80 88 80 80 88 80 80 88 80 80 88 80 80 87 80 80 87 80 80 87 79 79 87 79 79 87 79 79 87 79 79 87 79 79 87 79 79 87 79 79 87 79 79 87 79 79 87 79 79 87 79 79 87 79 79 86 79 79 86 79 79 86 79 79 86 79 79 86 78 78 86 78 78 86 78 78 86 78 78 86 78 78 86 78 78 86 78 78 86 78 78 86 104 104 115 104 104 114 104 104 114 104 104 114 104 104 114 104 104 114 104 104 114 103 103 114 103 103 113 103 103 113 103 103 113 103 103 113 103 103 113 103 103 113 103 103 113 103 103 113 103 103 113 102 102 112 102 102 112 102 102 112 102 102 112 102 102 112 102 102 112 102 102 112 102 102 112 102 102 112 102 102 112 101 101 111 101 101 111 101 101 111 101 101 111 101 101 111 101 101 111 101 101 111 100 100 111 100 100 111 100 100 110 100 100 110 100 100 110 100 100 110 100 100 110 100 100 110 100 100 110 100 100 110 99 99 109 99 99 109 99 99 109 99 99 109 99 99 109 99 99 109 99 99 109 99 99 109 99 99 109 98 98 108 98 98 108 98 98 108 98 98 108 98 98 108 98 98 108 98 98 108 98 98 108 98 98 107 97 97 107 97 97 107 97 97 107 73 73 80 73 73 80 73 73 80 72 72 80 72 72 80 72 72 79 72 72 79 72 72 79 72 72 79 72 72 79 72 72 79 72 72 79 72 72 79 72 72 79 71 71 79 71 71 79 71 71 79 71 71 78 71 71 78 71 71 78 71 71 78 71 71 78 71 71 78 71 71 78 71 71 78 71 71 78 71 71 78 70 70 78 70 70 77 70 70 77 70 70 77 70 70 77 94 94 103 94 94 103 93 93 103 93 93 103 93 93 103 93 93 102 93 93 102 93 93 102 93 93 102 93 93 102 93 93 102 92 92 102 92 92 101 92 92 101 92 92 101 92 92 101 92 92 101 92 92 101 92 92 101 91 91 100 91 91 100 91 91 100 91 91 100 91 91 100 91 91 100 91 91 100 91 91 100 91 91 99 90 90 99 90 90 99 90 90 99 45 45 95 45 45 96 46 45 99 46 46 103 48 47 110 48 48 112 48 48 115 49 48 117 49 49 119 50 49 121 50 49 123 50 50 124 51 50 125 51 50 124 51 50 125 51 50 125 51 50 125 42 41 116 42 41 116 42 41 117 42 42 117 42 41 116 42 41 116 42 42 117 42 41 116 43 42 118 43 42 117 43 42 116 42 41 114 42 42 115 42 42 114 42 41 113 42 42 113 42 41 112 41 41 110 41 41 109 41 40 108 41 40 108 41 40 107 40 40 106 40 40 104 40 40 104 40 39 101 40 39 102 39 38 99 39 38 99 39 38 98 38 38 96 38 37 94 46 46 102 37 37 91 36 36 88 36 36 87 36 36 86 36 36 86 35 35 83 35 34 80 35 34 80 34 34 79 34 33 76 33 33 74 33 33 73 32 32 70 32 32 68 
111 111 122 111 111 122 111 111 122 111 111 122 111 111 122 111 111 122 111 111 122 111 111 122 111 111 122 111 111 122 111 111 122 111 111 122 111 111 122 111 111 122 111 111 122 111 111 122 111 111 122 111 111 122 111 111 122 111 111 122 111 111 122 111 111 122 111 111 122 111 111 122 111 111 122 111 111 122 111 111 122 111 111 122 83 83 91 83 83 91 83 83 91 83 83 91 83 83 91 83 83 91 83 83 91 83 83 91 83 83 91 83 83 91 83 83 91 83 83 91 83 83 91 83 83 91 83 83 91 83 83 91 83 83 91 82 82 91 82 82 91 82 82 91 82 82 91 82 82 91 82 82 91 82 82 91 82 82 90 82 82 90 82 82 90 82 82 90 82 82 90 82 82 90 82 82 90 82 82 90 82 82 90 109 109 120 109 109 120 109 109 120 109 109 120 109 109 120 109 109 120 109 109 120 109 109 120 109 109 120 109 109 120 109 109 120 109 109 120 109 109 120 109 109 120 109 109 119 109 109 119 108 108 119 108 108 119 108 108 119 108 108 119 108 108 119 108 108 119 108 108 119 108 108 119 108 108 119 108 108 119 108 108 119 108 108 119 108 108 118 108 108 118 107 107 118 107 107 118 107 107 118 80 80 88 80 80 88 80 80 88 80 80 88 80 80 88 80 80 88 80 80 88 80 80 88 80 80 88 80 80 88 80 80 87 80 80 87 80 80 87 80 80 87 79 79 87 79 79 87 79 79 87 79 79 87 79 79 87 79 79 87 79 79 87 79 79 87 79 79 87 79 79 87 79 79 86 79 79 86 79 79 86 79 79 86 79 79 86 78 78 86 78 78 86 78 78 86 78 78 86 104 104 115 104 104 115 104 104 115 104 104 115 104 104 115 104 104 115 104 104 114 104 104 114 104 104 114 104 104 114 104 104 114 103 103 114 103 103 113 103 103 113 103 103 113 103 103 113 103 103 113 103 103 113 103 103 113 103 103 113 103 103 113 102 102 112 102 102 112 102 102 112 102 102 112 102 102 112 102 102 112 102 102 112 102 102 112 102 102 112 102 102 112 101 101 111 101 101 111 101 101 111 101 101 111 101 101 111 101 101 111 101 101 111 101 101 111 100 100 111 100 100 111 100 100 110 100 100 110 100 100 110 100 100 110 100 100 110 100 100 110 100 100 110 99 99 110 99 99 109 99 99 109 99 99 109 99 99 109 99 99 109 99 99 109 99 99 109 99 99 109 99 99 109 98 98 108 98 98 108 98 98 108 98 98 108 98 98 108 98 98 108 98 98 108 98 98 108 98 98 107 73 73 80 73 73 80 73 73 80 73 73 80 73 73 80 72 72 80 72 72 80 72 72 80 72 72 79 72 72 79 72 72 79 72 72 79 72 72 79 72 72 79 72 72 79 72 72 79 72 72 79 71 71 79 71 71 79 71 71 79 71 71 78 71 71 78 71 71 78 71 71 78 71 71 78 71 71 78 71 71 78 71 71 78 71 71 78 71 71 78 70 70 78 70 70 77 70 70 77 94 94 103 94 94 103 94 94 103 93 93 103 93 93 103 93 93 103 93 93 103 93 93 102 93 93 102 93 93 102 93 93 102 93 93 102 93 93 102 92 92 102 92 92 102 92 92 101 92 92 101 92 92 101 92 92 101 92 92 101 92 92 101 91 91 100 91 91 100 91 91 100 91 91 100 91 91 100 91 91 100 91 91 100 91 91 100 91 91 100 43 43 82 43 43 83 45 45 95 45 45 97 46 46 101 46 46 103 47 47 105 47 47 109 48 47 110 48 48 112 48 48 114 49 48 115 49 49 116 49 48 115 49 48 115 49 49 118 40 39 106 40 39 107 40 40 108 40 39 107 40 39 107 40 39 107 40 40 108 40 40 108 40 39 107 40 39 108 40 40 108 40 40 108 40 40 106 40 40 106 40 40 106 40 39 104 40 39 104 39 39 102 40 39 102 40 39 103 39 39 100 39 39 99 39 39 98 39 38 97 38 37 95 37 37 93 37 37 94 37 37 93 37 36 91 37 36 89 36 36 88 45 45 97 45 45 96 45 45 95 44 44 92 44 44 91 44 44 90 44 43 88 43 43 86 43 43 84 33 33 72 33 33 71 32 32 68 32 32 68 32 32 68 32 32 68 32 32 68 
112 112 123 112 112 123 112 112 123 112 112 123 112 112 123 112 112 123 112 112 123 112 112 123 112 112 123 112 112 123 112 112 123 112 112 123 111 111 123 111 111 123 111 111 123 111 111 123 111 111 123 111 111 123 111 111 123 111 111 123 111 111 123 111 111 123 111 111 122 111 111 122 111 111 122 83 83 92 83 83 92 83 83 92 83 83 92 83 83 91 83 83 91 83 83 91 83 83 91 83 83 91 83 83 91 83 83 91 83 83 91 83 83 91 83 83 91 83 83 91 83 83 91 83 83 91 83 83 91 83 83 91 83 83 91 83 83 91 83 83 91 83 83 91 83 83 91 83 83 91 83 83 91 82 82 91 82 82 91 82 82 91 82 82 91 82 82 91 82 82 91 82 82 91 82 82 90 110 110 121 110 110 121 110 110 121 110 110 121 110 110 121 110 110 121 109 109 120 109 109 120 109 109 120 109 109 120 109 109 120 109 109 120 109 109 120 109 109 120 109 109 120 109 109 120 109 109 120 109 109 120 109 109 120 109 109 120 109 109 119 109 109 119 108 108 119 108 108 119 108 108 119 108 108 119 108 108 119 108 108 119 108 108 119 108 108 119 108 108 119 108 108 119 108 108 119 81 81 88 81 81 88 81 81 88 80 80 88 80 80 88 80 80 88 80 80 88 80 80 88 80 80 88 80 80 88 80 80 88 80 80 88 80 80 88 80 80 88 80 80 88 80 80 87 80 80 87 80 80 87 80 80 87 79 79 87 79 79 87 79 79 87 79 79 87 79 79 87 79 79 87 79 79 87 79 79 87 79 79 87 79 79 87 79 79 87 79 79 86 79 79 86 79 79 86 79 79 86 105 105 115 105 105 115 105 105 115 105 105 115 105 105 115 104 104 115 104 104 115 104 104 115 104 104 115 104 104 115 104 104 114 104 104 114 104 104 114 104 104 114 104 104 114 103 103 114 103 103 113 103 103 113 103 103 113 103 103 113 103 103 113 103 103 113 103 103 113 103 103 113 103 103 113 103 103 113 102 102 112 102 102 112 102 102 112 102 102 112 102 102 112 102 102 112 102 102 112 102 102 112 102 102 112 102 102 112 101 101 111 101 101 111 101 101 111 101 101 111 101 101 111 101 101 111 101 101 111 100 100 111 100 100 111 100 100 110 100 100 110 100 100 110 100 100 110 100 100 110 100 100 110 100 100 110 99 99 110 99 99 110 99 99 109 99 99 109 99 99 109 99 99 109 99 99 109 99 99 109 99 99 109 99 99 109 98 98 108 98 98 108 98 98 108 98 98 108 98 98 108 98 98 108 98 98 108 73 73 80 73 73 80 73 73 80 73 73 80 73 73 80 73 73 80 73 73 80 73 73 80 72 72 80 72 72 80 72 72 80 72 72 79 72 72 79 72 72 79 72 72 79 72 72 79 72 72 79 72 72 79 72 72 79 72 72 79 71 71 79 71 71 79 71 71 79 71 71 78 71 71 78 71 71 78 71 71 78 71 71 78 71 71 78 71 71 78 71 71 78 71 71 78 71 71 78 70 70 78 94 94 104 94 94 103 94 94 103 94 94 103 94 94 103 94 94 103 93 93 103 93 93 103 93 93 103 93 93 102 93 93 102 93 93 102 93 93 102 93 93 102 93 93 102 92 92 102 92 92 102 92 92 102 92 92 101 92 92 101 92 92 101 92 92 101 92 92 101 92 92 101 91 91 100 91 91 100 91 91 100 91 91 100 91 91 100 42 42 78 42 42 78 43 43 84 43 43 83 44 44 90 44 44 91 46 45 98 45 45 96 47 46 104 46 46 103 47 47 105 47 47 107 47 47 106 47 47 108 47 47 109 47 47 109 38 38 98 38 38 98 38 38 98 38 38 98 38 38 98 39 38 99 39 38 100 38 38 99 38 37 97 39 38 99 38 38 98 38 37 96 38 38 98 38 37 96 38 37 95 37 37 94 38 37 95 37 37 94 37 37 92 37 36 91 37 36 91 37 36 91 36 36 89 36 36 88 36 36 88 36 35 85 36 35 85 35 35 83 44 44 92 45 44 92 44 44 90 44 43 87 43 43 88 43 43 84 43 43 83 42 42 80 42 42 81 42 42 78 42 42 78 42 42 78 42 42 78 42 42 78 42 42 78 41 41 78 41 41 78 41 41 78 
112 112 123 112 112 123 112 112 123 112 112 123 112 112 123 112 112 123 112 112 123 112 112 123 112 112 123 112 112 123 112 112 123 112 112 123 112 112 123 112 112 123 112 112 123 112 112 123 112 112 123 112 112 123 112 112 123 112 112 123 112 112 123 84 84 92 84 84 92 84 84 92 84 84 92 83 83 92 83 83 92 83 83 92 83 83 92 83 83 92 83 83 92 83 83 92 83 83 92 83 83 92 83 83 92 83 83 92 83 83 92 83 83 91 83 83 91 83 83 91 83 83 91 83 83 91 83 83 91 83 83 91 83 83 91 83 83 91 83 83 91 83 83 91 83 83 91 83 83 91 83 83 91 83 83 91 83 83 91 83 83 91 83 83 91 83 83 91 110 110 121 110 110 121 110 110 121 110 110 121 110 110 121 110 110 121 110 110 121 110 110 121 110 110 121 110 110 121 110 110 121 110 110 121 110 110 121 109 109 120 109 109 120 109 109 120 109 109 120 109 109 120 109 109 120 109 109 120 109 109 120 109 109 120 109 109 120 109 109 120 109 109 120 109 109 120 109 109 120 109 109 119 108 108 119 108 108 119 108 108 119 108 108 119 108 108 119 108 108 119 81 81 89 81 81 89 81 81 89 81 81 88 81 81 88 81 81 88 81 81 88 81 81 88 80 80 88 80 80 88 80 80 88 80 80 88 80 80 88 80 80 88 80 80 88 80 80 88 80 80 88 80 80 88 80 80 88 80 80 88 80 80 87 80 80 87 80 80 87 80 80 87 79 79 87 79 79 87 79 79 87 79 79 87 79 79 87 79 79 87 79 79 87 79 79 87 79 79 87 79 79 87 79 79 87 105 105 116 105 105 116 105 105 116 105 105 115 105 105 115 105 105 115 105 105 115 105 105 115 104 104 115 104 104 115 104 104 115 104 104 115 104 104 115 104 104 115 104 104 114 104 104 114 104 104 114 104 104 114 104 104 114 103 103 114 103 103 113 103 103 113 103 103 113 103 103 113 103 103 113 103 103 113 103 103 113 103 103 113 103 103 113 102 102 112 102 102 112 102 102 112 102 102 112 102 102 112 102 102 112 102 102 112 102 102 112 102 102 112 102 102 112 102 102 112 101 101 111 101 101 111 101 101 111 101 101 111 101 101 111 101 101 111 101 101 111 100 100 111 100 100 111 100 100 110 100 100 110 100 100 110 100 100 110 100 100 110 100 100 110 100 100 110 100 100 110 99 99 110 99 99 109 99 99 109 99 99 109 99 99 109 99 99 109 99 99 109 99 99 109 99 99 109 98 98 108 98 98 108 98 98 108 98 98 108 98 98 108 73 73 81 73 73 81 73 73 80 73 73 80 73 73 80 73 73 80 73 73 80 73 73 80 73 73 80 73 73 80 73 73 80 72 72 80 72 72 80 72 72 79 72 72 79 72 72 79 72 72 79 72 72 79 72 72 79 72 72 79 72 72 79 72 72 79 72 72 79 71 71 79 71 71 79 71 71 79 71 71 78 71 71 78 71 71 78 71 71 78 71 71 78 71 71 78 71 71 78 71 71 78 71 71 78 94 94 104 94 94 104 94 94 104 94 94 103 94 94 103 94 94 103 94 94 103 94 94 103 93 93 103 93 93 103 93 93 103 93 93 103 93 93 102 93 93 102 93 93 102 93 93 102 93 93 102 92 92 102 92 92 102 92 92 102 92 92 101 92 92 101 92 92 101 92 92 101 92 92 101 92 92 101 91 91 100 91 91 100 91 91 100 42 42 78 42 42 79 42 42 79 43 43 81 43 43 81 44 44 89 44 44 91 44 44 92 45 45 94 45 45 94 45 45 95 45 45 94 46 46 99 46 46 99 46 46 99 37 36 90 36 36 88 37 36 90 37 36 91 36 36 90 37 37 93 37 37 91 37 36 91 37 36 91 37 37 91 36 36 89 36 36 87 36 36 88 37 36 89 36 36 88 36 36 86 36 36 87 36 36 85 35 35 84 35 35 84 35 35 83 35 35 81 35 35 81 35 35 80 34 34 78 34 34 78 43 43 85 43 43 85 43 43 85 42 42 82 42 42 81 42 42 78 42 42 79 42 42 78 42 42 78 42 42 78 42 42 78 42 42 78 42 42 78 42 42 78 42 42 78 41 41 78 41 41 78 41 41 78 41 41 78 
112 112 124 112 112 124 112 112 124 112 112 124 112 112 124 112 112 124 112 112 124 112 112 124 112 112 124 112 112 124 112 112 123 112 112 123 112 112 123 112 112 123 112 112 123 112 112 123 112 112 123 84 84 92 84 84 92 84 84 92 84 84 92 84 84 92 84 84 92 84 84 92 84 84 92 84 84 92 84 84 92 84 84 92 84 84 92 84 84 92 84 84 92 84 84 92 84 84 92 83 83 92 83 83 92 83 83 92 83 83 92 83 83 92 83 83 92 83 83 92 83 83 92 83 83 92 83 83 92 83 83 91 83 83 91 83 83 91 83 83 91 83 83 91 83 83 91 83 83 91 83 83 91 83 83 91 83 83 91 111 111 122 111 111 122 110 110 122 110 110 122 110 110 121 110 110 121 110 110 121 110 110 121 110 110 121 110 110 121 110 110 121 110 110 121 110 110 121 110 110 121 110 110 121 110 110 121 110 110 121 110 110 121 110 110 121 109 109 120 109 109 120 109 109 120 109 109 120 109 109 120 109 109 120 109 109 120 109 109 120 109 109 120 109 109 120 109 109 120 109 109 120 109 109 120 109 109 120 109 109 119 108 108 119 108 108 119 81 81 89 81 81 89 81 81 89 81 81 89 81 81 89 81 81 89 81 81 89 81 81 89 81 81 88 81 81 88 81 81 88 81 81 88 80 80 88 80 80 88 80 80 88 80 80 88 80 80 88 80 80 88 80 80 88 80 80 88 80 80 88 80 80 88 80 80 88 80 80 88 80 80 87 80 80 87 80 80 87 80 80 87 79 79 87 79 79 87 79 79 87 79 79 87 79 79 87 79 79 87 79 79 87 79 79 87 105 105 116 105 105 116 105 105 116 105 105 116 105 105 116 105 105 115 105 105 115 105 105 115 105 105 115 105 105 115 105 105 115 104 104 115 104 104 115 104 104 115 104 104 115 104 104 115 104 104 114 104 104 114 104 104 114 104 104 114 104 104 114 103 103 114 103 103 113 103 103 113 103 103 113 103 103 113 103 103 113 103 103 113 103 103 113 103 103 113 103 103 113 103 103 113 102 102 112 102 102 112 102 102 112 102 102 112 102 102 112 102 102 112 102 102 112 102 102 112 102 102 112 102 102 112 102 102 112 101 101 111 101 101 111 101 101 111 101 101 111 101 101 111 101 101 111 101 101 111 100 100 111 100 100 110 100 100 110 100 100 110 100 100 110 100 100 110 100 100 110 100 100 110 100 100 110 100 100 110 99 99 110 99 99 109 99 99 109 99 99 109 99 99 109 99 99 109 99 99 109 99 99 109 99 99 109 99 99 109 98 98 108 74 74 81 73 73 81 73 73 81 73 73 81 73 73 81 73 73 80 73 73 80 73 73 80 73 73 80 73 73 80 73 73 80 73 73 80 73 73 80 73 73 80 72 72 80 72 72 80 72 72 80 72 72 79 72 72 79 72 72 79 72 72 79 72 72 79 72 72 79 72 72 79 72 72 79 72 72 79 72 72 79 71 71 79 71 71 79 71 71 78 71 71 78 71 71 78 71 71 78 71 71 78 71 71 78 71 71 78 95 95 104 94 94 104 94 94 104 94 94 104 94 94 104 94 94 103 94 94 103 94 94 103 94 94 103 94 94 103 94 94 103 93 93 103 93 93 103 93 93 103 93 93 102 93 93 102 93 93 102 93 93 102 93 93 102 93 93 102 92 92 102 92 92 102 92 92 102 92 92 101 92 92 101 92 92 101 92 92 101 92 92 101 92 92 101 42 42 78 42 42 78 42 42 79 42 42 79 42 42 79 42 42 79 42 42 79 43 43 81 43 43 83 43 43 81 44 44 87 43 43 86 44 44 87 44 44 88 44 44 88 35 35 79 35 35 81 35 35 80 35 35 82 35 35 81 35 35 80 35 35 79 35 35 81 35 35 82 35 35 80 35 35 79 35 35 79 35 35 80 34 34 78 34 34 78 34 34 79 34 34 78 34 34 74 34 34 77 34 34 75 33 33 73 34 33 73 33 33 71 33 33 69 42 42 80 42 42 80 42 42 78 42 42 78 42 42 78 42 42 78 42 42 78 42 42 78 42 42 78 42 42 78 42 42 78 42 42 78 42 42 78 42 42 78 42 42 78 41 41 78 41 41 78 41 41 78 41 41 78 41 41 78 
113 113 124 113 113 124 113 113 124 113 113 124 113 113 124 113 113 124 113 113 124 112 112 124 112 112 124 112 112 124 112 112 124 112 112 124 112 112 124 112 112 124 84 84 93 84 84 92 84 84 92 84 84 92 84 84 92 84 84 92 84 84 92 84 84 92 84 84 92 84 84 92 84 84 92 84 84 92 84 84 92 84 84 92 84 84 92 84 84 92 84 84 92 84 84 92 84 84 92 84 84 92 84 84 92 84 84 92 84 84 92 84 84 92 83 83 92 83 83 92 83 83 92 83 83 92 83 83 92 83 83 92 83 83 92 83 83 92 83 83 92 83 83 91 83 83 91 83 83 91 83 83 91 111 111 122 111 111 122 111 111 122 111 111 122 111 111 122 111 111 122 111 111 122 110 110 122 110 110 122 110 110 121 110 110 121 110 110 121 110 110 121 110 110 121 110 110 121 110 110 121 110 110 121 110 110 121 110 110 121 110 110 121 110 110 121 110 110 121 110 110 121 110 110 121 109 109 120 109 109 120 109 109 120 109 109 120 109 109 120 109 109 120 109 109 120 109 109 120 109 109 120 109 109 120 109 109 120 109 109 120 81 81 89 81 81 89 81 81 89 81 81 89 81 81 89 81 81 89 81 81 89 81 81 89 81 81 89 81 81 89 81 81 89 81 81 89 81 81 88 81 81 88 81 81 88 81 81 88 80 80 88 80 80 88 80 80 88 80 80 88 80 80 88 80 80 88 80 80 88 80 80 88 80 80 88 80 80 88 80 80 88 80 80 88 80 80 87 80 80 87 80 80 87 80 80 87 79 79 87 79 79 87 79 79 87 79 79 87 79 79 87 106 106 116 106 106 116 106 106 116 105 105 116 105 105 116 105 105 116 105 105 116 105 105 116 105 105 116 105 105 115 105 105 115 105 105 115 105 105 115 105 105 115 104 104 115 104 104 115 104 104 115 104 104 115 104 104 115 104 104 115 104 104 114 104 104 114 104 104 114 104 104 114 104 104 114 103 103 114 103 103 113 103 103 113 103 103 113 103 103 113 103 103 113 103 103 113 103 103 113 103 103 113 103 103 113 102 102 112 102 102 112 102 102 112 102 102 112 102 102 112 102 102 112 102 102 112 102 102 112 102 102 112 102 102 112 102 102 112 101 101 111 101 101 111 101 101 111 101 101 111 101 101 111 101 101 111 101 101 111 100 100 111 100 100 111 100 100 110 100 100 110 100 100 110 100 100 110 100 100 110 100 100 110 100 100 110 100 100 110 99 99 110 99 99 109 99 99 109 99 99 109 99 99 109 99 99 109 99 99 109 99 99 109 99 99 109 99 99 109 74 74 81 74 74 81 74 74 81 73 73 81 73 73 81 73 73 81 73 73 81 73 73 80 73 73 80 73 73 80 73 73 80 73 73 80 73 73 80 73 73 80 73 73 80 73 73 80 72 72 80 72 72 80 72 72 80 72 72 79 72 72 79 72 72 79 72 72 79 72 72 79 72 72 79 72 72 79 72 72 79 72 72 79 72 72 79 71 71 79 71 71 79 71 71 79 71 71 78 71 71 78 71 71 78 71 71 78 71 71 78 95 95 104 95 95 104 95 95 104 94 94 104 94 94 104 94 94 104 94 94 104 94 94 103 94 94 103 94 94 103 94 94 103 94 94 103 93 93 103 93 93 103 93 93 103 93 93 103 93 93 102 93 93 102 93 93 102 93 93 102 93 93 102 93 93 102 92 92 102 92 92 102 92 92 102 92 92 101 92 92 101 92 92 101 92 92 101 42 42 78 42 42 78 42 42 79 42 42 79 42 42 79 42 42 79 42 42 79 42 42 79 42 42 79 42 42 79 42 42 79 42 42 79 42 42 79 42 42 79 42 42 79 34 34 72 33 33 71 33 33 70 33 33 71 33 33 72 34 33 73 33 33 71 33 33 71 33 33 72 33 33 71 33 33 69 33 33 73 33 33 69 33 33 68 33 33 68 33 33 70 33 33 68 33 33 68 33 33 68 33 33 68 33 33 68 42 42 78 42 42 78 42 42 78 42 42 78 42 42 78 42 42 78 42 42 78 42 42 78 42 42 78 42 42 78 42 42 78 42 42 78 42 42 78 42 42 78 42 42 78 42 42 78 41 41 78 41 41 78 41 41 78 41 41 78 41 41 78 
113 113 124 113 113 124 113 113 124 113 113 124 113 113 124 113 113 124 113 113 124 113 113 124 113 113 124 113 113 124 84 84 93 84 84 93 84 84 93 84 84 93 84 84 93 84 84 93 84 84 93 84 84 93 84 84 93 84 84 93 84 84 93 84 84 93 84 84 92 84 84 92 84 84 92 84 84 92 84 84 92 84 84 92 84 84 92 84 84 92 84 84 92 84 84 92 84 84 92 84 84 92 84 84 92 84 84 92 84 84 92 84 84 92 84 84 92 84 84 92 84 84 92 84 84 92 83 83 92 83 83 92 83 83 92 83 83 92 83 83 92 83 83 92 111 111 122 111 111 122 111 111 122 111 111 122 111 111 122 111 111 122 111 111 122 111 111 122 111 111 122 111 111 122 111 111 122 111 111 122 111 111 122 110 110 122 110 110 122 110 110 121 110 110 121 110 110 121 110 110 121 110 110 121 110 110 121 110 110 121 110 110 121 110 110 121 110 110 121 110 110 121 110 110 121 110 110 121 110 110 121 109 109 120 109 109 120 109 109 120 109 109 120 109 109 120 109 109 120 109 109 120 109 109 120 82 82 90 81 81 90 81 81 90 81 81 90 81 81 89 81 81 89 81 81 89 81 81 89 81 81 89 81 81 89 81 81 89 81 81 89 81 81 89 81 81 89 81 81 89 81 81 89 81 81 88 81 81 88 81 81 88 81 81 88 80 80 88 80 80 88 80 80 88 80 80 88 80 80 88 80 80 88 80 80 88 80 80 88 80 80 88 80 80 88 80 80 88 80 80 88 80 80 87 80 80 87 80 80 87 80 80 87 79 79 87 79 79 87 106 106 117 106 106 117 106 106 116 106 106 116 106 106 116 106 106 116 105 105 116 105 105 116 105 105 116 105 105 116 105 105 116 105 105 116 105 105 115 105 105 115 105 105 115 105 105 115 105 105 115 104 104 115 104 104 115 104 104 115 104 104 115 104 104 115 104 104 115 104 104 114 104 104 114 104 104 114 104 104 114 104 104 114 103 103 114 103 103 113 103 103 113 103 103 113 103 103 113 103 103 113 103 103 113 103 103 113 103 103 113 103 103 113 103 103 113 102 102 112 102 102 112 102 102 112 102 102 112 102 102 112 102 102 112 102 102 112 102 102 112 102 102 112 102 102 112 102 102 112 101 101 111 101 101 111 101 101 111 101 101 111 101 101 111 101 101 111 101 101 111 100 100 111 100 100 111 100 100 110 100 100 110 100 100 110 100 100 110 100 100 110 100 100 110 100 100 110 100 100 110 99 99 110 99 99 109 99 99 109 99 99 109 99 99 109 99 99 109 99 99 109 99 99 109 74 74 81 74 74 81 74 74 81 74 74 81 74 74 81 73 73 81 73 73 81 73 73 81 73 73 81 73 73 80 73 73 80 73 73 80 73 73 80 73 73 80 73 73 80 73 73 80 73 73 80 73 73 80 72 72 80 72 72 80 72 72 80 72 72 79 72 72 79 72 72 79 72 72 79 72 72 79 72 72 79 72 72 79 72 72 79 72 72 79 72 72 79 71 71 79 71 71 79 71 71 79 71 71 78 71 71 78 71 71 78 71 71 78 95 95 104 95 95 104 95 95 104 95 95 104 94 94 104 94 94 104 94 94 104 94 94 104 94 94 104 94 94 103 94 94 103 94 94 103 94 94 103 94 94 103 93 93 103 93 93 103 93 93 103 93 93 103 93 93 102 93 93 102 93 93 102 93 93 102 93 93 102 93 93 102 92 92 102 92 92 102 92 92 102 92 92 101 92 92 101 92 92 101 42 42 78 42 42 79 42 42 79 42 42 79 42 42 79 42 42 79 42 42 79 42 42 79 42 42 79 42 42 79 42 42 79 42 42 79 42 42 79 42 42 79 33 33 68 33 33 68 33 33 68 33 33 68 33 33 68 33 33 68 33 33 68 33 33 68 33 33 68 33 33 68 33 33 68 33 33 68 33 33 68 33 33 68 33 33 68 33 33 68 33 33 68 42 42 78 42 42 78 42 42 78 42 42 78 42 42 78 42 42 78 42 42 78 42 42 78 42 42 78 42 42 78 42 42 78 42 42 78 42 42 78 42 42 78 42 42 78 42 42 78 42 42 78 41 41 78 41 41 78 41 41 78 41 41 78 41 41 78 41 41 78 
113 113 124 113 113 124 113 113 124 113 113 124 113 113 124 113 113 124 85 85 93 85 85 93 85 85 93 84 84 93 84 84 93 84 84 93 84 84 93 84 84 93 84 84 93 84 84 93 84 84 93 84 84 93 84 84 93 84 84 93 84 84 93 84 84 93 84 84 93 84 84 93 84 84 93 84 84 93 84 84 93 84 84 92 84 84 92 84 84 92 84 84 92 84 84 92 84 84 92 84 84 92 84 84 92 84 84 92 84 84 92 84 84 92 84 84 92 84 84 92 84 84 92 84 84 92 84 84 92 84 84 92 84 84 92 111 111 123 111 111 123 111 111 123 111 111 123 111 111 122 111 111 122 111 111 122 111 111 122 111 111 122 111 111 122 111 111 122 111 111 122 111 111 122 111 111 122 111 111 122 111 111 122 111 111 122 111 111 122 110 110 122 110 110 122 110 110 121 110 110 121 110 110 121 110 110 121 110 110 121 110 110 121 110 110 121 110 110 121 110 110 121 110 110 121 110 110 121 110 110 121 110 110 121 110 110 121 109 109 120 109 109 120 109 109 120 109 109 120 109 109 120 82 82 90 82 82 90 82 82 90 82 82 90 81 81 90 81 81 90 81 81 90 81 81 89 81 81 89 81 81 89 81 81 89 81 81 89 81 81 89 81 81 89 81 81 89 81 81 89 81 81 89 81 81 89 81 81 89 81 81 88 81 81 88 81 81 88 81 81 88 80 80 88 80 80 88 80 80 88 80 80 88 80 80 88 80 80 88 80 80 88 80 80 88 80 80 88 80 80 88 80 80 88 80 80 88 80 80 87 80 80 87 80 80 87 106 106 117 106 106 117 106 106 117 106 106 117 106 106 116 106 106 116 106 106 116 106 106 116 106 106 116 105 105 116 105 105 116 105 105 116 105 105 116 105 105 116 105 105 116 105 105 115 105 105 115 105 105 115 105 105 115 105 105 115 104 104 115 104 104 115 104 104 115 104 104 115 104 104 115 104 104 115 104 104 114 104 104 114 104 104 114 104 104 114 104 104 114 103 103 114 103 103 113 103 103 113 103 103 113 103 103 113 103 103 113 103 103 113 103 103 113 103 103 113 103 103 113 103 103 113 103 103 113 102 102 112 102 102 112 102 102 112 102 102 112 102 102 112 102 102 112 102 102 112 102 102 112 102 102 112 102 102 112 101 101 111 101 101 111 101 101 111 101 101 111 101 101 111 101 101 111 101 101 111 101 101 111 100 100 111 100 100 110 100 100 110 100 100 110 100 100 110 100 100 110 100 100 110 100 100 110 100 100 110 100 100 110 99 99 110 99 99 109 99 99 109 99 99 109 99 99 109 99 99 109 74 74 81 74 74 81 74 74 81 74 74 81 74 74 81 74 74 81 74 74 81 73 73 81 73 73 81 73 73 81 73 73 81 73 73 80 73 73 80 73 73 80 73 73 80 73 73 80 73 73 80 73 73 80 73 73 80 73 73 80 72 72 80 72 72 80 72 72 80 72 72 80 72 72 79 72 72 79 72 72 79 72 72 79 72 72 79 72 72 79 72 72 79 72 72 79 72 72 79 72 72 79 71 71 79 71 71 79 71 71 79 71 71 78 95 95 105 95 95 105 95 95 105 95 95 104 95 95 104 95 95 104 95 95 104 94 94 104 94 94 104 94 94 104 94 94 104 94 94 104 94 94 103 94 94 103 94 94 103 94 94 103 94 94 103 93 93 103 93 93 103 93 93 103 93 93 102 93 93 102 93 93 102 93 93 102 93 93 102 93 93 102 93 93 102 92 92 102 92 92 102 92 92 102 92 92 101 42 42 78 42 42 78 42 42 78 42 42 78 42 42 79 42 42 79 42 42 79 42 42 79 42 42 79 42 42 79 42 42 79 42 42 79 42 42 79 33 33 68 33 33 68 33 33 68 33 33 68 33 33 68 33 33 68 33 33 68 33 33 68 33 33 68 33 33 68 33 33 68 33 33 68 33 33 68 33 33 68 42 42 78 42 42 78 42 42 78 42 42 78 42 42 78 42 42 78 42 42 78 42 42 78 42 42 78 42 42 78 42 42 78 42 42 78 42 42 78 42 42 78 42 42 78 42 42 78 42 42 78 42 42 78 41 41 78 41 41 78 41 41 78 41 41 78 41 41 78 41 41 78 41 41 78 
113 113 125 113 113 125 113 113 125 85 85 93 85 85 93 85 85 93 85 85 93 85 85 93 85 85 93 85 85 93 85 85 93 85 85 93 85 85 93 85 85 93 84 84 93 84 84 93 84 84 93 84 84 93 84 84 93 84 84 93 84 84 93 84 84 93 84 84 93 84 84 93 84 84 93 84 84 93 84 84 93 84 84 93 84 84 93 84 84 93 84 84 92 84 84 92 84 84 92 84 84 92 84 84 92 84 84 92 84 84 92 84 84 92 84 84 92 84 84 92 84 84 92 84 84 92 112 112 123 112 112 123 112 112 123 112 112 123 112 112 123 111 111 123 111 111 123 111 111 123 111 111 123 111 111 122 111 111 122 111 111 122 111 111 122 111 111 122 111 111 122 111 111 122 111 111 122 111 111 122 111 111 122 111 111 122 111 111 122 111 111 122 111 111 122 110 110 122 110 110 122 110 110 121 110 110 121 110 110 121 110 110 121 110 110 121 110 110 121 110 110 121 110 110 121 110 110 121 110 110 121 110 110 121 110 110 121 110 110 121 110 110 121 109 109 120 82 82 90 82 82 90 82 82 90 82 82 90 82 82 90 82 82 90 82 82 90 82 82 90 81 81 90 81 81 90 81 81 89 81 81 89 81 81 89 81 81 89 81 81 89 81 81 89 81 81 89 81 81 89 81 81 89 81 81 89 81 81 89 81 81 89 81 81 88 81 81 88 81 81 88 81 81 88 80 80 88 80 80 88 80 80 88 80 80 88 80 80 88 80 80 88 80 80 88 80 80 88 80 80 88 80 80 88 80 80 88 80 80 88 80 80 88 106 106 117 106 106 117 106 106 117 106 106 117 106 106 117 106 106 117 106 106 117 106 106 116 106 106 116 106 106 116 106 106 116 106 106 116 105 105 116 105 105 116 105 105 116 105 105 116 105 105 116 105 105 115 105 105 115 105 105 115 105 105 115 105 105 115 105 105 115 104 104 115 104 104 115 104 104 115 104 104 115 104 104 115 104 104 115 104 104 114 104 104 114 104 104 114 104 104 114 104 104 114 103 103 114 103 103 113 103 103 113 103 103 113 103 103 113 103 103 113 103 103 113 103 103 113 103 103 113 103 103 113 103 103 113 103 103 113 102 102 112 102 102 112 102 102 112 102 102 112 102 102 112 102 102 112 102 102 112 102 102 112 102 102 112 102 102 112 101 101 111 101 101 111 101 101 111 101 101 111 101 101 111 101 101 111 101 101 111 101 101 111 100 100 111 100 100 111 100 100 110 100 100 110 100 100 110 100 100 110 100 100 110 100 100 110 100 100 110 100 100 110 100 100 110 99 99 109 99 99 109 99 99 109 99 99 109 74 74 81 74 74 81 74 74 81 74 74 81 74 74 81 74 74 81 74 74 81 74 74 81 74 74 81 73 73 81 73 73 81 73 73 81 73 73 81 73 73 80 73 73 80 73 73 80 73 73 80 73 73 80 73 73 80 73 73 80 73 73 80 73 73 80 72 72 80 72 72 80 72 72 80 72 72 79 72 72 79 72 72 79 72 72 79 72 72 79 72 72 79 72 72 79 72 72 79 72 72 79 72 72 79 72 72 79 71 71 79 71 71 79 71 71 79 95 95 105 95 95 105 95 95 105 95 95 105 95 95 104 95 95 104 95 95 104 95 95 104 94 94 104 94 94 104 94 94 104 94 94 104 94 94 104 94 94 103 94 94 103 94 94 103 94 94 103 94 94 103 93 93 103 93 93 103 93 93 103 93 93 103 93 93 103 93 93 102 93 93 102 93 93 102 93 93 102 93 93 102 93 93 102 92 92 102 92 92 102 92 92 102 92 92 101 92 92 101 42 42 78 42 42 78 42 42 78 42 42 78 42 42 78 42 42 78 42 42 79 42 42 78 42 42 78 33 33 68 33 33 68 33 33 68 33 33 68 33 33 68 33 33 68 33 33 68 33 33 68 33 33 68 33 33 68 33 33 68 42 42 78 42 42 78 42 42 78 42 42 78 42 42 78 42 42 78 42 42 78 42 42 78 42 42 78 42 42 78 42 42 78 42 42 78 42 42 78 42 42 78 42 42 78 42 42 78 42 42 78 42 42 78 41 41 78 41 41 78 41 41 78 41 41 78 41 41 78 41 41 78 41 41 78 41 41 78 41 41 77 
85 85 93 85 85 93 85 85 93 85 85 93 85 85 93 85 85 93 85 85 93 85 85 93 85 85 93 85 85 93 85 85 93 85 85 93 85 85 93 85 85 93 85 85 93 85 85 93 85 85 93 85 85 93 84 84 93 84 84 93 84 84 93 84 84 93 84 84 93 84 84 93 84 84 93 84 84 93 84 84 93 84 84 93 84 84 93 84 84 93 84 84 93 84 84 93 84 84 93 84 84 92 84 84 92 84 84 92 84 84 92 84 84 92 84 84 92 84 84 92 112 112 123 112 112 123 112 112 123 112 112 123 112 112 123 112 112 123 112 112 123 112 112 123 112 112 123 111 111 123 111 111 123 111 111 123 111 111 123 111 111 122 111 111 122 111 111 122 111 111 122 111 111 122 111 111 122 111 111 122 111 111 122 111 111 122 111 111 122 111 111 122 111 111 122 111 111 122 111 111 122 110 110 122 110 110 122 110 110 121 110 110 121 110 110 121 110 110 121 110 110 121 110 110 121 110 110 121 110 110 121 110 110 121 110 110 121 110 110 121 82 82 90 82 82 90 82 82 90 82 82 90 82 82 90 82 82 90 82 82 90 82 82 90 82 82 90 82 82 90 82 82 90 81 81 90 81 81 90 81 81 90 81 81 89 81 81 89 81 81 89 81 81 89 81 81 89 81 81 89 81 81 89 81 81 89 81 81 89 81 81 89 81 81 89 81 81 89 81 81 88 81 81 88 81 81 88 81 81 88 80 80 88 80 80 88 80 80 88 80 80 88 80 80 88 80 80 88 80 80 88 80 80 88 80 80 88 80 80 88 107 107 117 107 107 117 106 106 117 106 106 117 106 106 117 106 106 117 106 106 117 106 106 117 106 106 117 106 106 116 106 106 116 106 106 116 106 106 116 106 106 116 105 105 116 105 105 116 105 105 116 105 105 116 105 105 116 105 105 116 105 105 115 105 105 115 105 105 115 105 105 115 105 105 115 105 105 115 104 104 115 104 104 115 104 104 115 104 104 115 104 104 115 104 104 115 104 104 114 104 104 114 104 104 114 104 104 114 104 104 114 103 103 114 103 103 113 103 103 113 103 103 113 103 103 113 103 103 113 103 103 113 103 103 113 103 103 113 103 103 113 103 103 113 103 103 113 102 102 112 102 102 112 102 102 112 102 102 112 102 102 112 102 102 112 102 102 112 102 102 112 102 102 112 102 102 112 102 102 112 101 101 111 101 101 111 101 101 111 101 101 111 101 101 111 101 101 111 101 101 111 100 100 111 100 100 111 100 100 110 100 100 110 100 100 110 100 100 110 100 100 110 100 100 110 100 100 110 100 100 110 100 100 110 99 99 110 99 99 109 99 99 109 74 74 82 74 74 82 74 74 81 74 74 81 74 74 81 74 74 81 74 74 81 74 74 81 74 74 81 74 74 81 74 74 81 73 73 81 73 73 81 73 73 81 73 73 81 73 73 80 73 73 80 73 73 80 73 73 80 73 73 80 73 73 80 73 73 80 73 73 80 73 73 80 72 72 80 72 72 80 72 72 80 72 72 79 72 72 79 72 72 79 72 72 79 72 72 79 72 72 79 72 72 79 72 72 79 72 72 79 72 72 79 72 72 79 71 71 79 71 71 79 95 95 105 95 95 105 95 95 105 95 95 105 95 95 105 95 95 104 95 95 104 95 95 104 95 95 104 94 94 104 94 94 104 94 94 104 94 94 104 94 94 104 94 94 103 94 94 103 94 94 103 94 94 103 94 94 103 94 94 103 93 93 103 93 93 103 93 93 103 93 93 103 93 93 102 93 93 102 93 93 102 93 93 102 93 93 102 93 93 102 92 92 102 92 92 102 92 92 102 92 92 101 92 92 101 92 92 101 42 42 78 42 42 78 42 42 78 42 42 78 42 42 78 42 42 78 42 42 78 33 33 68 33 33 68 33 33 68 33 33 68 33 33 68 33 33 68 42 42 78 42 42 78 42 42 78 42 42 78 42 42 78 42 42 78 42 42 78 42 42 78 42 42 78 42 42 78 42 42 78 42 42 78 42 42 78 42 42 78 42 42 78 42 42 78 42 42 78 42 42 78 42 42 78 42 42 78 41 41 78 41 41 78 41 41 78 41 41 78 41 41 78 41 41 78 41 41 78 41 41 78 41 41 77 41 41 77 
85 85 94 85 85 94 85 85 94 85 85 93 85 85 93 85 85 93 85 85 93 85 85 93 85 85 93 85 85 93 85 85 93 85 85 93 85 85 93 85 85 93 85 85 93 85 85 93 85 85 93 85 85 93 85 85 93 85 85 93 85 85 93 84 84 93 84 84 93 84 84 93 84 84 93 84 84 93 84 84 93 84 84 93 84 84 93 84 84 93 84 84 93 84 84 93 84 84 93 84 84 93 84 84 93 84 84 92 84 84 92 112 112 123 112 112 123 112 112 123 112 112 123 112 112 123 112 112 123 112 112 123 112 112 123 112 112 123 112 112 123 112 112 123 112 112 123 112 112 123 112 112 123 111 111 123 111 111 123 111 111 123 111 111 123 111 111 122 111 111 122 111 111 122 111 111 122 111 111 122 111 111 122 111 111 122 111 111 122 111 111 122 111 111 122 111 111 122 111 111 122 111 111 122 110 110 122 110 110 122 110 110 121 110 110 121 110 110 121 110 110 121 110 110 121 110 110 121 110 110 121 110 110 121 82 82 90 82 82 90 82 82 90 82 82 90 82 82 90 82 82 90 82 82 90 82 82 90 82 82 90 82 82 90 82 82 90 82 82 90 82 82 90 82 82 90 81 81 90 81 81 90 81 81 90 81 81 89 81 81 89 81 81 89 81 81 89 81 81 89 81 81 89 81 81 89 81 81 89 81 81 89 81 81 89 81 81 89 81 81 89 81 81 88 81 81 88 81 81 88 81 81 88 80 80 88 80 80 88 80 80 88 80 80 88 80 80 88 80 80 88 80 80 88 80 80 88 107 107 118 107 107 117 107 107 117 107 107 117 107 107 117 106 106 117 106 106 117 106 106 117 106 106 117 106 106 117 106 106 117 106 106 117 106 106 116 106 106 116 106 106 116 106 106 116 106 106 116 105 105 116 105 105 116 105 105 116 105 105 116 105 105 116 105 105 116 105 105 115 105 105 115 105 105 115 105 105 115 105 105 115 105 105 115 104 104 115 104 104 115 104 104 115 104 104 115 104 104 115 104 104 114 104 104 114 104 104 114 104 104 114 104 104 114 104 104 114 103 103 114 103 103 113 103 103 113 103 103 113 103 103 113 103 103 113 103 103 113 103 103 113 103 103 113 103 103 113 103 103 113 103 103 113 102 102 112 102 102 112 102 102 112 102 102 112 102 102 112 102 102 112 102 102 112 102 102 112 102 102 112 102 102 112 102 102 112 101 101 111 101 101 111 101 101 111 101 101 111 101 101 111 101 101 111 101 101 111 100 100 111 100 100 111 100 100 110 100 100 110 100 100 110 100 100 110 100 100 110 100 100 110 100 100 110 100 100 110 100 100 110 99 99 110 99 99 109 74 74 82 74 74 82 74 74 82 74 74 82 74 74 81 74 74 81 74 74 81 74 74 81 74 74 81 74 74 81 74 74 81 74 74 81 73 73 81 73 73 81 73 73 81 73 73 81 73 73 80 73 73 80 73 73 80 73 73 80 73 73 80 73 73 80 73 73 80 73 73 80 73 73 80 73 73 80 72 72 80 72 72 80 72 72 80 72 72 79 72 72 79 72 72 79 72 72 79 72 72 79 72 72 79 72 72 79 72 72 79 72 72 79 72 72 79 72 72 79 71 71 79 95 95 105 95 95 105 95 95 105 95 95 105 95 95 105 95 95 105 95 95 104 95 95 104 95 95 104 95 95 104 95 95 104 94 94 104 94 94 104 94 94 104 94 94 104 94 94 104 94 94 103 94 94 103 94 94 103 94 94 103 94 94 103 93 93 103 93 93 103 93 93 103 93 93 103 93 93 102 93 93 102 93 93 102 93 93 102 93 93 102 93 93 102 93 93 102 92 92 102 92 92 102 92 92 102 92 92 101 92 92 101 92 92 101 92 92 101 42 42 78 42 42 78 42 42 78 33 33 68 33 33 68 33 33 68 42 42 78 42 42 78 42 42 78 42 42 78 42 42 78 42 42 78 42 42 78 42 42 78 42 42 78 42 42 78 42 42 78 42 42 78 42 42 78 42 42 78 42 42 78 42 42 78 42 42 78 42 42 78 42 42 78 42 42 78 41 41 78 41 41 78 41 41 78 41 41 78 41 41 78 41 41 78 41 41 78 41 41 78 41 41 78 41 41 78 41 41 77 41 41 77 
114 114 125 114 114 125 114 114 125 114 114 125 114 114 125 114 114 125 113 113 125 113 113 125 113 113 125 113 113 125 113 113 125 113 113 125 113 113 125 113 113 125 113 113 125 113 113 125 113 113 125 113 113 125 113 113 124 113 113 124 113 113 124 113 113 124 113 113 124 113 113 124 113 113 124 113 113 124 113 113 124 113 113 124 113 113 124 113 113 124 113 113 124 113 113 124 112 112 124 112 112 124 84 84 93 84 84 93 84 84 93 84 84 92 84 84 92 84 84 92 84 84 92 84 84 92 84 84 92 84 84 92 84 84 92 84 84 92 84 84 92 84 84 92 84 84 92 84 84 92 84 84 92 84 84 92 83 83 92 83 83 92 83 83 92 83 83 92 83 83 92 83 83 92 83 83 92 83 83 91 83 83 91 83 83 91 83 83 91 83 83 91 83 83 91 83 83 91 83 83 91 83 83 91 83 83 91 83 83 91 83 83 91 83 83 91 83 83 91 83 83 91 82 82 91 82 82 91 110 110 121 110 110 121 110 110 121 110 110 121 110 110 121 110 110 121 110 110 121 110 110 121 109 109 120 109 109 120 109 109 120 109 109 120 109 109 120 109 109 120 109 109 120 109 109 120 109 109 120 109 109 120 109 109 120 109 109 120 109 109 120 109 109 119 109 109 119 108 108 119 108 108 119 108 108 119 108 108 119 108 108 119 108 108 119 108 108 119 108 108 119 108 108 119 108 108 119 108 108 118 108 108 118 108 108 118 107 107 118 107 107 118 107 107 118 107 107 118 107 107 118 107 107 118 80 80 88 80 80 88 80 80 88 80 80 88 80 80 88 80 80 88 80 80 88 80 80 87 80 80 87 80 80 87 80 80 87 79 79 87 79 79 87 79 79 87 79 79 87 79 79 87 79 79 87 79 79 87 79 79 87 79 79 87 79 79 87 79 79 87 79 79 86 79 79 86 79 79 86 79 79 86 78 78 86 78 78 86 78 78 86 78 78 86 78 78 86 78 78 86 78 78 86 78 78 86 78 78 86 78 78 86 78 78 85 78 78 85 78 78 85 78 78 85 78 78 85 78 78 85 78 78 85 77 77 85 77 77 85 77 77 85 77 77 85 77 77 85 77 77 85 77 77 85 77 77 84 77 77 84 77 77 84 77 77 84 77 77 84 77 77 84 77 77 84 77 77 84 76 76 84 76 76 84 76 76 84 76 76 84 76 76 84 76 76 83 76 76 83 76 76 83 76 76 83 76 76 83 76 76 83 75 75 83 75 75 83 75 75 83 75 75 83 75 75 83 75 75 83 75 75 83 75 75 83 75 75 82 75 75 82 75 75 82 75 75 82 75 75 82 75 75 82 74 74 82 74 74 82 99 99 109 99 99 109 99 99 109 99 99 109 99 99 109 99 99 109 99 99 109 99 99 109 99 99 109 99 99 109 98 98 108 98 98 108 98 98 108 98 98 108 98 98 108 98 98 108 98 98 108 98 98 108 98 98 108 98 98 108 98 98 107 97 97 107 97 97 107 97 97 107 97 97 107 97 97 107 97 97 107 97 97 107 97 97 107 97 97 107 97 97 106 97 97 106 96 96 106 96 96 106 96 96 106 96 96 106 96 96 106 96 96 106 96 96 106 96 96 105 96 96 105 96 96 105 71 71 79 71 71 79 71 71 79 71 71 78 71 71 78 71 71 78 71 71 78 71 71 78 71 71 78 71 71 78 71 71 78 71 71 78 71 71 78 71 71 78 71 71 78 70 70 78 70 70 77 70 70 77 70 70 77 70 70 77 70 70 77 70 70 77 70 70 77 70 70 77 70 70 77 70 70 77 70 70 77 70 70 77 70 70 77 69 69 76 69 69 76 69 69 76 69 69 76 69 69 76 69 69 76 69 69 76 69 69 76 69 69 76 69 69 76 69 69 75 69 69 75 69 69 75 42 42 78 42 42 78 91 91 100 42 42 78 42 42 78 42 42 78 42 42 78 42 42 78 42 42 78 42 42 78 42 42 78 42 42 78 42 42 78 42 42 78 42 42 78 42 42 78 42 42 78 42 42 78 42 42 78 41 41 78 41 41 78 41 41 78 41 41 78 41 41 78 41 41 78 41 41 78 41 41 78 41 41 78 41 41 78 41 41 77 41 41 77 41 41 77 41 41 77 
114 114 125 114 114 125 114 114 125 114 114 125 114 114 125 114 114 125 114 114 125 114 114 125 113 113 125 113 113 125 113 113 125 113 113 125 113 113 125 113 113 125 113 113 125 113 113 125 113 113 125 113 113 125 113 113 125 113 113 124 113 113 124 113 113 124 113 113 124 113 113 124 113 113 124 113 113 124 113 113 124 113 113 124 113 113 124 113 113 124 113 113 124 113 113 124 84 84 93 84 84 93 84 84 93 84 84 93 84 84 93 84 84 92 84 84 92 84 84 92 84 84 92 84 84 92 84 84 92 84 84 92 84 84 92 84 84 92 84 84 92 84 84 92 84 84 92 84 84 92 84 84 92 84 84 92 84 84 92 83 83 92 83 83 92 83 83 92 83 83 92 83 83 92 83 83 92 83 83 92 83 83 91 83 83 91 83 83 91 83 83 91 83 83 91 83 83 91 83 83 91 83 83 91 83 83 91 83 83 91 83 83 91 83 83 91 83 83 91 83 83 91 83 83 91 110 110 121 110 110 121 110 110 121 110 110 121 110 110 121 110 110 121 110 110 121 110 110 121 110 110 121 110 110 121 109 109 120 109 109 120 109 109 120 109 109 120 109 109 120 109 109 120 109 109 120 109 109 120 109 109 120 109 109 120 109 109 120 109 109 120 109 109 120 109 109 119 109 109 119 108 108 119 108 108 119 108 108 119 108 108 119 108 108 119 108 108 119 108 108 119 108 108 119 108 108 119 108 108 119 108 108 118 108 108 118 108 108 118 107 107 118 107 107 118 107 107 118 107 107 118 80 80 88 80 80 88 80 80 88 80 80 88 80 80 88 80 80 88 80 80 88 80 80 88 80 80 88 80 80 87 80 80 87 80 80 87 80 80 87 79 79 87 79 79 87 79 79 87 79 79 87 79 79 87 79 79 87 79 79 87 79 79 87 79 79 87 79 79 87 79 79 87 79 79 86 79 79 86 79 79 86 79 79 86 79 79 86 78 78 86 78 78 86 78 78 86 78 78 86 78 78 86 78 78 86 78 78 86 78 78 86 78 78 86 78 78 85 78 78 85 78 78 85 78 78 85 78 78 85 78 78 85 78 78 85 78 78 85 77 77 85 77 77 85 77 77 85 77 77 85 77 77 85 77 77 85 77 77 85 77 77 84 77 77 84 77 77 84 77 77 84 77 77 84 77 77 84 77 77 84 77 77 84 76 76 84 76 76 84 76 76 84 76 76 84 76 76 84 76 76 83 76 76 83 76 76 83 76 76 83 76 76 83 76 76 83 75 75 83 75 75 83 75 75 83 75 75 83 75 75 83 75 75 83 75 75 83 75 75 83 75 75 82 75 75 82 75 75 82 75 75 82 75 75 82 75 75 82 75 75 82 99 99 110 99 99 110 99 99 109 99 99 109 99 99 109 99 99 109 99 99 109 99 99 109 99 99 109 99 99 109 99 99 109 99 99 109 98 98 108 98 98 108 98 98 108 98 98 108 98 98 108 98 98 108 98 98 108 98 98 108 98 98 108 98 98 108 98 98 107 97 97 107 97 97 107 97 97 107 97 97 107 97 97 107 97 97 107 97 97 107 97 97 107 97 97 106 97 97 106 97 97 106 96 96 106 96 96 106 96 96 106 96 96 106 96 96 106 96 96 106 96 96 106 96 96 106 72 72 79 72 72 79 71 71 79 71 71 79 71 71 79 71 71 78 71 71 78 71 71 78 71 71 78 71 71 78 71 71 78 71 71 78 71 71 78 71 71 78 71 71 78 71 71 78 71 71 78 70 70 78 70 70 77 70 70 77 70 70 77 70 70 77 70 70 77 70 70 77 70 70 77 70 70 77 70 70 77 70 70 77 70 70 77 70 70 77 70 70 77 69 69 76 69 69 76 69 69 76 69 69 76 69 69 76 69 69 76 69 69 76 69 69 76 69 69 76 69 69 76 69 69 75 69 69 75 92 92 101 92 92 101 92 92 101 92 92 101 91 91 100 91 91 100 42 42 78 91 91 100 91 91 100 42 42 78 42 42 78 42 42 78 42 42 78 42 42 78 42 42 78 41 41 78 41 41 78 41 41 78 41 41 78 41 41 78 41 41 78 41 41 78 41 41 78 41 41 78 41 41 78 41 41 78 41 41 77 41 41 77 41 41 77 41 41 77 41 41 77 
114 114 125 114 114 125 114 114 125 114 114 125 114 114 125 114 114 125 114 114 125 114 114 125 114 114 125 114 114 125 113 113 125 113 113 125 113 113 125 113 113 125 113 113 125 113 113 125 113 113 125 113 113 125 113 113 125 113 113 125 113 113 125 113 113 124 113 113 124 113 113 124 113 113 124 113 113 124 113 113 124 113 113 124 113 113 124 84 84 93 84 84 93 84 84 93 84 84 93 84 84 93 84 84 93 84 84 93 84 84 93 84 84 93 84 84 92 84 84 92 84 84 92 84 84 92 84 84 92 84 84 92 84 84 92 84 84 92 84 84 92 84 84 92 84 84 92 84 84 92 84 84 92 84 84 92 84 84 92 83 83 92 83 83 92 83 83 92 83 83 92 83 83 92 83 83 92 83 83 92 83 83 92 83 83 91 83 83 91 83 83 91 83 83 91 83 83 91 83 83 91 83 83 91 83 83 91 83 83 91 83 83 91 83 83 91 83 83 91 110 110 121 110 110 121 110 110 121 110 110 121 110 110 121 110 110 121 110 110 121 110 110 121 110 110 121 110 110 121 110 110 121 110 110 121 110 110 121 109 109 120 109 109 120 109 109 120 109 109 120 109 109 120 109 109 120 109 109 120 109 109 120 109 109 120 109 109 120 109 109 120 109 109 120 109 109 120 109 109 119 109 109 119 108 108 119 108 108 119 108 108 119 108 108 119 108 108 119 108 108 119 108 108 119 108 108 119 108 108 119 108 108 119 108 108 118 108 108 118 108 108 118 107 107 118 107 107 118 107 107 118 80 80 88 80 80 88 80 80 88 80 80 88 80 80 88 80 80 88 80 80 88 80 80 88 80 80 88 80 80 88 80 80 87 80 80 87 80 80 87 80 80 87 79 79 87 79 79 87 79 79 87 79 79 87 79 79 87 79 79 87 79 79 87 79 79 87 79 79 87 79 79 87 79 79 87 79 79 86 79 79 86 79 79 86 79 79 86 79 79 86 78 78 86 78 78 86 78 78 86 78 78 86 78 78 86 78 78 86 78 78 86 78 78 86 78 78 86 78 78 86 78 78 85 78 78 85 78 78 85 78 78 85 78 78 85 78 78 85 78 78 85 77 77 85 77 77 85 77 77 85 77 77 85 77 77 85 77 77 85 77 77 85 77 77 84 77 77 84 77 77 84 77 77 84 77 77 84 77 77 84 77 77 84 77 77 84 76 76 84 76 76 84 76 76 84 76 76 84 76 76 84 76 76 84 76 76 83 76 76 83 76 76 83 76 76 83 76 76 83 76 76 83 75 75 83 75 75 83 75 75 83 75 75 83 75 75 83 75 75 83 75 75 83 75 75 83 75 75 82 75 75 82 75 75 82 75 75 82 75 75 82 100 100 110 100 100 110 100 100 110 99 99 110 99 99 109 99 99 109 99 99 109 99 99 109 99 99 109 99 99 109 99 99 109 99 99 109 99 99 109 99 99 109 98 98 108 98 98 108 98 98 108 98 98 108 98 98 108 98 98 108 98 98 108 98 98 108 98 98 108 98 98 108 98 98 107 97 97 107 97 97 107 97 97 107 97 97 107 97 97 107 97 97 107 97 97 107 97 97 107 97 97 107 97 97 106 97 97 106 96 96 106 96 96 106 96 96 106 96 96 106 96 96 106 96 96 106 96 96 106 96 96 106 72 72 79 72 72 79 71 71 79 71 71 79 71 71 79 71 71 79 71 71 78 71 71 78 71 71 78 71 71 78 71 71 78 71 71 78 71 71 78 71 71 78 71 71 78 71 71 78 71 71 78 71 71 78 70 70 78 70 70 78 70 70 77 70 70 77 70 70 77 70 70 77 70 70 77 70 70 77 70 70 77 70 70 77 70 70 77 70 70 77 70 70 77 70 70 77 70 70 77 69 69 76 69 69 76 69 69 76 69 69 76 69 69 76 69 69 76 69 69 76 69 69 76 69 69 76 69 69 76 69 69 75 92 92 101 92 92 101 92 92 101 92 92 101 92 92 101 91 91 100 91 91 100 91 91 100 91 91 100 91 91 100 91 91 100 91 91 100 91 91 100 91 91 100 91 91 100 91 91 99 90 90 99 90 90 99 90 90 99 90 90 99 90 90 99 90 90 99 90 90 99 90 90 99 90 90 99 90 90 98 90 90 98 90 90 98 
114 114 125 114 114 125 114 114 125 114 114 125 114 114 125 114 114 125 114 114 125 114 114 125 114 114 125 114 114 125 114 114 125 113 113 125 113 113 125 113 113 125 113 113 125 113 113 125 113 113 125 113 113 125 113 113 125 113 113 125 113 113 125 113 113 124 113 113 124 113 113 124 113 113 124 113 113 124 84 84 93 84 84 93 84 84 93 84 84 93 84 84 93 84 84 93 84 84 93 84 84 93 84 84 93 84 84 93 84 84 93 84 84 93 84 84 93 84 84 92 84 84 92 84 84 92 84 84 92 84 84 92 84 84 92 84 84 92 84 84 92 84 84 92 84 84 92 84 84 92 84 84 92 84 84 92 84 84 92 84 84 92 83 83 92 83 83 92 83 83 92 83 83 92 83 83 92 83 83 92 83 83 92 83 83 91 83 83 91 83 83 91 83 83 91 83 83 91 83 83 91 83 83 91 83 83 91 83 83 91 83 83 91 110 110 122 110 110 122 110 110 121 110 110 121 110 110 121 110 110 121 110 110 121 110 110 121 110 110 121 110 110 121 110 110 121 110 110 121 110 110 121 110 110 121 110 110 121 109 109 120 109 109 120 109 109 120 109 109 120 109 109 120 109 109 120 109 109 120 109 109 120 109 109 120 109 109 120 109 109 120 109 109 120 109 109 120 109 109 120 109 109 119 108 108 119 108 108 119 108 108 119 108 108 119 108 108 119 108 108 119 108 108 119 108 108 119 108 108 119 108 108 119 108 108 119 108 108 118 108 108 118 108 108 118 107 107 118 80 80 88 80 80 88 80 80 88 80 80 88 80 80 88 80 80 88 80 80 88 80 80 88 80 80 88 80 80 88 80 80 88 80 80 88 80 80 87 80 80 87 80 80 87 80 80 87 79 79 87 79 79 87 79 79 87 79 79 87 79 79 87 79 79 87 79 79 87 79 79 87 79 79 87 79 79 87 79 79 87 79 79 86 79 79 86 79 79 86 79 79 86 79 79 86 78 78 86 78 78 86 78 78 86 78 78 86 78 78 86 78 78 86 78 78 86 78 78 86 78 78 86 78 78 86 78 78 85 78 78 85 78 78 85 78 78 85 78 78 85 78 78 85 78 78 85 77 77 85 77 77 85 77 77 85 77 77 85 77 77 85 77 77 85 77 77 85 77 77 85 77 77 84 77 77 84 77 77 84 77 77 84 77 77 84 77 77 84 77 77 84 77 77 84 76 76 84 76 76 84 76 76 84 76 76 84 76 76 84 76 76 84 76 76 83 76 76 83 76 76 83 76 76 83 76 76 83 76 76 83 75 75 83 75 75 83 75 75 83 75 75 83 75 75 83 75 75 83 75 75 83 75 75 83 75 75 82 75 75 82 75 75 82 75 75 82 100 100 110 100 100 110 100 100 110 100 100 110 99 99 110 99 99 109 99 99 109 99 99 109 99 99 109 99 99 109 99 99 109 99 99 109 99 99 109 99 99 109 99 99 109 98 98 108 98 98 108 98 98 108 98 98 108 98 98 108 98 98 108 98 98 108 98 98 108 98 98 108 98 98 108 98 98 107 98 98 107 97 97 107 97 97 107 97 97 107 97 97 107 97 97 107 97 97 107 97 97 107 97 97 107 97 97 107 97 97 106 97 97 106 96 96 106 96 96 106 96 96 106 96 96 106 96 96 106 96 96 106 96 96 106 72 72 79 72 72 79 72 72 79 71 71 79 71 71 79 71 71 79 71 71 78 71 71 78 71 71 78 71 71 78 71 71 78 71 71 78 71 71 78 71 71 78 71 71 78 71 71 78 71 71 78 71 71 78 71 71 78 70 70 78 70 70 77 70 70 77 70 70 77 70 70 77 70 70 77 70 70 77 70 70 77 70 70 77 70 70 77 70 70 77 70 70 77 70 70 77 70 70 77 70 70 77 69 69 76 69 69 76 69 69 76 69 69 76 69 69 76 69 69 76 69 69 76 69 69 76 69 69 76 69 69 76 69 69 75 92 92 101 92 92 101 92 92 101 92 92 101 92 92 101 91 91 100 91 91 100 91 91 100 91 91 100 91 91 100 91 91 100 91 91 100 91 91 100 91 91 100 91 91 100 91 91 100 91 91 99 90 90 99 90 90 99 90 90 99 90 90 99 90 90 99 90 90 99 90 90 99 90 90 99 
114 114 125 114 114 125 114 114 125 114 114 125 114 114 125 114 114 125 114 114 125 114 114 125 114 114 125 114 114 125 114 114 125 114 114 125 113 113 125 113 113 125 113 113 125 113 113 125 113 113 125 113 113 125 113 113 125 113 113 125 113 113 125 113 113 125 113 113 124 113 113 124 85 85 93 85 85 93 84 84 93 84 84 93 84 84 93 84 84 93 84 84 93 84 84 93 84 84 93 84 84 93 84 84 93 84 84 93 84 84 93 84 84 93 84 84 93 84 84 92 84 84 92 84 84 92 84 84 92 84 84 92 84 84 92 84 84 92 84 84 92 84 84 92 84 84 92 84 84 92 84 84 92 84 84 92 84 84 92 84 84 92 83 83 92 83 83 92 83 83 92 83 83 92 83 83 92 83 83 92 83 83 92 83 83 91 83 83 91 83 83 91 83 83 91 83 83 91 83 83 91 83 83 91 83 83 91 111 111 122 111 111 122 110 110 122 110 110 122 110 110 121 110 110 121 110 110 121 110 110 121 110 110 121 110 110 121 110 110 121 110 110 121 110 110 121 110 110 121 110 110 121 110 110 121 110 110 121 110 110 121 109 109 120 109 109 120 109 109 120 109 109 120 109 109 120 109 109 120 109 109 120 109 109 120 109 109 120 109 109 120 109 109 120 109 109 120 109 109 120 109 109 119 109 109 119 108 108 119 108 108 119 108 108 119 108 108 119 108 108 119 108 108 119 108 108 119 108 108 119 108 108 119 108 108 119 108 108 119 108 108 118 108 108 118 80 80 88 80 80 88 80 80 88 80 80 88 80 80 88 80 80 88 80 80 88 80 80 88 80 80 88 80 80 88 80 80 88 80 80 88 80 80 88 80 80 88 80 80 87 80 80 87 80 80 87 80 80 87 79 79 87 79 79 87 79 79 87 79 79 87 79 79 87 79 79 87 79 79 87 79 79 87 79 79 87 79 79 87 79 79 87 79 79 86 79 79 86 79 79 86 79 79 86 79 79 86 78 78 86 78 78 86 78 78 86 78 78 86 78 78 86 78 78 86 78 78 86 78 78 86 78 78 86 78 78 86 78 78 85 78 78 85 78 78 85 78 78 85 78 78 85 78 78 85 78 78 85 78 78 85 77 77 85 77 77 85 77 77 85 77 77 85 77 77 85 77 77 85 77 77 85 77 77 84 77 77 84 77 77 84 77 77 84 77 77 84 77 77 84 77 77 84 77 77 84 76 76 84 76 76 84 76 76 84 76 76 84 76 76 84 76 76 84 76 76 83 76 76 83 76 76 83 76 76 83 76 76 83 76 76 83 75 75 83 75 75 83 75 75 83 75 75 83 75 75 83 75 75 83 75 75 83 75 75 83 75 75 83 75 75 82 75 75 82 75 75 82 100 100 110 100 100 110 100 100 110 100 100 110 100 100 110 99 99 110 99 99 109 99 99 109 99 99 109 99 99 109 99 99 109 99 99 109 99 99 109 99 99 109 99 99 109 99 99 109 98 98 108 98 98 108 98 98 108 98 98 108 98 98 108 98 98 108 98 98 108 98 98 108 98 98 108 98 98 108 98 98 108 98 98 107 97 97 107 97 97 107 97 97 107 97 97 107 97 97 107 97 97 107 97 97 107 97 97 107 97 97 107 97 97 106 97 97 106 97 97 106 96 96 106 96 96 106 96 96 106 96 96 106 96 96 106 96 96 106 72 72 79 72 72 79 72 72 79 72 72 79 71 71 79 71 71 79 71 71 79 71 71 78 71 71 78 71 71 78 71 71 78 71 71 78 71 71 78 71 71 78 71 71 78 71 71 78 71 71 78 71 71 78 71 71 78 71 71 78 70 70 78 70 70 77 70 70 77 70 70 77 70 70 77 70 70 77 70 70 77 70 70 77 70 70 77 70 70 77 70 70 77 70 70 77 70 70 77 70 70 77 70 70 77 69 69 76 69 69 76 69 69 76 69 69 76 69 69 76 69 69 76 69 69 76 69 69 76 69 69 76 69 69 76 92 92 101 92 92 101 92 92 101 92 92 101 92 92 101 92 92 101 92 92 101 91 91 100 91 91 100 91 91 100 91 91 100 91 91 100 91 91 100 91 91 100 91 91 100 91 91 100 91 91 100 91 91 99 90 90 99 90 90 99 90 90 99 90 90 99 90 90 99 
114 114 125 114 114 125 114 114 125 114 114 125 114 114 125 114 114 125 114 114 125 114 114 125 114 114 125 114 114 125 114 114 125 114 114 125 114 114 125 113 113 125 113 113 125 113 113 125 113 113 125 113 113 125 113 113 125 113 113 125 113 113 125 85 85 93 85 85 93 85 85 93 85 85 93 85 85 93 85 85 93 84 84 93 84 84 93 84 84 93 84 84 93 84 84 93 84 84 93 84 84 93 84 84 93 84 84 93 84 84 93 84 84 93 84 84 93 84 84 92 84 84 92 84 84 92 84 84 92 84 84 92 84 84 92 84 84 92 84 84 92 84 84 92 84 84 92 84 84 92 84 84 92 84 84 92 84 84 92 84 84 92 83 83 92 83 83 92 83 83 92 83 83 92 83 83 92 83 83 92 83 83 92 83 83 91 83 83 91 83 83 91 83 83 91 83 83 91 83 83 91 111 111 122 111 111 122 111 111 122 111 111 122 110 110 122 110 110 122 110 110 121 110 110 121 110 110 121 110 110 121 110 110 121 110 110 121 110 110 121 110 110 121 110 110 121 110 110 121 110 110 121 110 110 121 110 110 121 110 110 121 109 109 120 109 109 120 109 109 120 109 109 120 109 109 120 109 109 120 109 109 120 109 109 120 109 109 120 109 109 120 109 109 120 109 109 120 109 109 120 109 109 120 109 109 119 108 108 119 108 108 119 108 108 119 108 108 119 108 108 119 108 108 119 108 108 119 108 108 119 108 108 119 108 108 119 108 108 119 108 108 118 81 81 88 81 81 88 80 80 88 80 80 88 80 80 88 80 80 88 80 80 88 80 80 88 80 80 88 80 80 88 80 80 88 80 80 88 80 80 88 80 80 88 80 80 88 80 80 87 80 80 87 80 80 87 80 80 87 79 79 87 79 79 87 79 79 87 79 79 87 79 79 87 79 79 87 79 79 87 79 79 87 79 79 87 79 79 87 79 79 87 79 79 87 79 79 86 79 79 86 79 79 86 79 79 86 79 79 86 78 78 86 78 78 86 78 78 86 78 78 86 78 78 86 78 78 86 78 78 86 78 78 86 78 78 86 78 78 86 78 78 85 78 78 85 78 78 85 78 78 85 78 78 85 78 78 85 78 78 85 78 78 85 77 77 85 77 77 85 77 77 85 77 77 85 77 77 85 77 77 85 77 77 85 77 77 84 77 77 84 77 77 84 77 77 84 77 77 84 77 77 84 77 77 84 77 77 84 77 77 84 76 76 84 76 76 84 76 76 84 76 76 84 76 76 84 76 76 84 76 76 83 76 76 83 76 76 83 76 76 83 76 76 83 76 76 83 75 75 83 75 75 83 75 75 83 75 75 83 75 75 83 75 75 83 75 75 83 75 75 83 75 75 82 75 75 82 75 75 82 100 100 110 100 100 110 100 100 110 100 100 110 100 100 110 100 100 110 99 99 110 99 99 109 99 99 109 99 99 109 99 99 109 99 99 109 99 99 109 99 99 109 99 99 109 99 99 109 99 99 109 99 99 109 98 98 108 98 98 108 98 98 108 98 98 108 98 98 108 98 98 108 98 98 108 98 98 108 98 98 108 98 98 108 98 98 107 97 97 107 97 97 107 97 97 107 97 97 107 97 97 107 97 97 107 97 97 107 97 97 107 97 97 107 97 97 107 97 97 106 97 97 106 96 96 106 96 96 106 96 96 106 96 96 106 96 96 106 96 96 106 72 72 79 72 72 79 72 72 79 72 72 79 72 72 79 71 71 79 71 71 79 71 71 79 71 71 78 71 71 78 71 71 78 71 71 78 71 71 78 71 71 78 71 71 78 71 71 78 71 71 78 71 71 78 71 71 78 71 71 78 71 71 78 70 70 78 70 70 77 70 70 77 70 70 77 70 70 77 70 70 77 70 70 77 70 70 77 70 70 77 70 70 77 70 70 77 70 70 77 70 70 77 70 70 77 70 70 77 70 70 77 69 69 76 69 69 76 69 69 76 69 69 76 69 69 76 69 69 76 69 69 76 69 69 76 69 69 76 92 92 101 92 92 101 92 92 101 92 92 101 92 92 101 92 92 101 92 92 101 91 91 100 91 91 100 91 91 100 91 91 100 91 91 100 91 91 100 91 91 100 91 91 100 91 91 100 91 91 100 91 91 100 91 91 99 90 90 99 
114 114 125 114 114 125 114 114 125 114 114 125 114 114 125 114 114 125 114 114 125 114 114 125 114 114 125 114 114 125 114 114 125 114 114 125 114 114 125 113 113 125 113 113 125 113 113 125 113 113 125 113 113 125 85 85 93 85 85 93 85 85 93 85 85 93 85 85 93 85 85 93 85 85 93 85 85 93 85 85 93 84 84 93 84 84 93 84 84 93 84 84 93 84 84 93 84 84 93 84 84 93 84 84 93 84 84 93 84 84 93 84 84 93 84 84 93 84 84 92 84 84 92 84 84 92 84 84 92 84 84 92 84 84 92 84 84 92 84 84 92 84 84 92 84 84 92 84 84 92 84 84 92 84 84 92 84 84 92 84 84 92 83 83 92 83 83 92 83 83 92 83 83 92 83 83 92 83 83 92 83 83 92 83 83 92 83 83 91 83 83 91 83 83 91 83 83 91 111 111 122 111 111 122 111 111 122 111 111 122 111 111 122 111 111 122 110 110 122 110 110 121 110 110 121 110 110 121 110 110 121 110 110 121 110 110 121 110 110 121 110 110 121 110 110 121 110 110 121 110 110 121 110 110 121 110 110 121 110 110 121 110 110 121 109 109 120 109 109 120 109 109 120 109 109 120 109 109 120 109 109 120 109 109 120 109 109 120 109 109 120 109 109 120 109 109 120 109 109 120 109 109 120 109 109 119 108 108 119 108 108 119 108 108 119 108 108 119 108 108 119 108 108 119 108 108 119 108 108 119 108 108 119 108 108 119 108 108 119 81 81 88 81 81 88 81 81 88 81 81 88 80 80 88 80 80 88 80 80 88 80 80 88 80 80 88 80 80 88 80 80 88 80 80 88 80 80 88 80 80 88 80 80 88 80 80 88 80 80 88 80 80 87 80 80 87 80 80 87 80 80 87 79 79 87 79 79 87 79 79 87 79 79 87 79 79 87 79 79 87 79 79 87 79 79 87 79 79 87 79 79 87 79 79 87 79 79 87 79 79 86 79 79 86 79 79 86 79 79 86 79 79 86 78 78 86 78 78 86 78 78 86 78 78 86 78 78 86 78 78 86 78 78 86 78 78 86 78 78 86 78 78 86 78 78 86 78 78 85 78 78 85 78 78 85 78 78 85 78 78 85 78 78 85 78 78 85 77 77 85 77 77 85 77 77 85 77 77 85 77 77 85 77 77 85 77 77 85 77 77 85 77 77 84 77 77 84 77 77 84 77 77 84 77 77 84 77 77 84 77 77 84 77 77 84 76 76 84 76 76 84 76 76 84 76 76 84 76 76 84 76 76 84 76 76 84 76 76 83 76 76 83 76 76 83 76 76 83 76 76 83 76 76 83 75 75 83 75 75 83 75 75 83 75 75 83 75 75 83 75 75 83 75 75 83 75 75 83 75 75 82 75 75 82 100 100 110 100 100 110 100 100 110 100 100 110 100 100 110 100 100 110 100 100 110 99 99 110 99 99 109 99 99 109 99 99 109 99 99 109 99 99 109 99 99 109 99 99 109 99 99 109 99 99 109 99 99 109 99 99 109 98 98 108 98 98 108 98 98 108 98 98 108 98 98 108 98 98 108 98 98 108 98 98 108 98 98 108 98 98 108 98 98 107 98 98 107 97 97 107 97 97 107 97 97 107 97 97 107 97 97 107 97 97 107 97 97 107 97 97 107 97 97 107 97 97 106 97 97 106 96 96 106 96 96 106 96 96 106 96 96 106 96 96 106 72 72 79 72 72 79 72 72 79 72 72 79 72 72 79 72 72 79 71 71 79 71 71 79 71 71 79 71 71 79 71 71 78 71 71 78 71 71 78 71 71 78 71 71 78 71 71 78 71 71 78 71 71 78 71 71 78 71 71 78 71 71 78 71 71 78 71 71 78 70 70 78 70 70 77 70 70 77 70 70 77 70 70 77 70 70 77 70 70 77 70 70 77 70 70 77 70 70 77 70 70 77 70 70 77 70 70 77 70 70 77 70 70 77 70 70 77 69 69 76 69 69 76 69 69 76 69 69 76 69 69 76 69 69 76 69 69 76 69 69 76 69 69 76 92 92 101 92 92 101 92 92 101 92 92 101 92 92 101 92 92 101 92 92 101 92 92 101 91 91 100 91 91 100 91 91 100 91 91 100 91 91 100 91 91 100 91 91 100 91 91 100 91 91 100 
114 114 125 114 114 125 114 114 125 114 114 125 114 114 125 114 114 125 114 114 125 114 114 125 114 114 125 114 114 125 114 114 125 114 114 125 114 114 125 113 113 125 113 113 125 113 113 125 85 85 93 85 85 93 85 85 93 85 85 93 85 85 93 85 85 93 85 85 93 85 85 93 85 85 93 85 85 93 84 84 93 84 84 93 84 84 93 84 84 93 84 84 93 84 84 93 84 84 93 84 84 93 84 84 93 84 84 93 84 84 93 84 84 93 84 84 93 84 84 92 84 84 92 84 84 92 84 84 92 84 84 92 84 84 92 84 84 92 84 84 92 84 84 92 84 84 92 84 84 92 84 84 92 84 84 92 84 84 92 84 84 92 83 83 92 83 83 92 83 83 92 83 83 92 83 83 92 83 83 92 83 83 92 83 83 91 83 83 91 83 83 91 111 111 122 111 111 122 111 111 122 111 111 122 111 111 122 111 111 122 111 111 122 110 110 122 110 110 122 110 110 121 110 110 121 110 110 121 110 110 121 110 110 121 110 110 121 110 110 121 110 110 121 110 110 121 110 110 121 110 110 121 110 110 121 110 110 121 110 110 121 110 110 121 109 109 120 109 109 120 109 109 120 109 109 120 109 109 120 109 109 120 109 109 120 109 109 120 109 109 120 109 109 120 109 109 120 109 109 120 109 109 120 109 109 119 109 109 119 108 108 119 108 108 119 108 108 119 108 108 119 108 108 119 108 108 119 108 108 119 108 108 119 108 108 119 81 81 89 81 81 88 81 81 88 81 81 88 81 81 88 80 80 88 80 80 88 80 80 88 80 80 88 80 80 88 80 80 88 80 80 88 80 80 88 80 80 88 80 80 88 80 80 88 80 80 88 80 80 88 80 80 88 80 80 87 80 80 87 80 80 87 80 80 87 79 79 87 79 79 87 79 79 87 79 79 87 79 79 87 79 79 87 79 79 87 79 79 87 79 79 87 79 79 87 79 79 87 79 79 87 79 79 86 79 79 86 79 79 86 79 79 86 79 79 86 78 78 86 78 78 86 78 78 86 78 78 86 78 78 86 78 78 86 78 78 86 78 78 86 78 78 86 78 78 86 78 78 86 78 78 85 78 78 85 78 78 85 78 78 85 78 78 85 78 78 85 78 78 85 78 78 85 77 77 85 77 77 85 77 77 85 77 77 85 77 77 85 77 77 85 77 77 85 77 77 84 77 77 84 77 77 84 77 77 84 77 77 84 77 77 84 77 77 84 77 77 84 77 77 84 76 76 84 76 76 84 76 76 84 76 76 84 76 76 84 76 76 84 76 76 83 76 76 83 76 76 83 76 76 83 76 76 83 76 76 83 75 75 83 75 75 83 75 75 83 75 75 83 75 75 83 75 75 83 75 75 83 75 75 83 75 75 83 75 75 82 100 100 110 100 100 110 100 100 110 100 100 110 100 100 110 100 100 110 100 100 110 100 100 110 99 99 110 99 99 109 99 99 109 99 99 109 99 99 109 99 99 109 99 99 109 99 99 109 99 99 109 99 99 109 99 99 109 99 99 109 98 98 108 98 98 108 98 98 108 98 98 108 98 98 108 98 98 108 98 98 108 98 98 108 98 98 108 98 98 108 98 98 108 98 98 107 97 97 107 97 97 107 97 97 107 97 97 107 97 97 107 97 97 107 97 97 107 97 97 107 97 97 107 97 97 106 97 97 106 97 97 106 96 96 106 96 96 106 96 96 106 96 96 106 72 72 79 72 72 79 72 72 79 72 72 79 72 72 79 72 72 79 72 72 79 71 71 79 71 71 79 71 71 79 71 71 79 71 71 78 71 71 78 71 71 78 71 71 78 71 71 78 71 71 78 71 71 78 71 71 78 71 71 78 71 71 78 71 71 78 71 71 78 71 71 78 70 70 78 70 70 77 70 70 77 70 70 77 70 70 77 70 70 77 70 70 77 70 70 77 70 70 77 70 70 77 70 70 77 70 70 77 70 70 77 70 70 77 70 70 77 70 70 77 69 69 76 69 69 76 69 69 76 69 69 76 69 69 76 69 69 76 69 69 76 69 69 76 92 92 102 92 92 101 92 92 101 92 92 101 92 92 101 92 92 101 92 92 101 92 92 101 92 92 101 91 91 100 91 91 100 91 91 100 91 91 100 91 91 100 91 91 100 
114 114 125 114 114 125 114 114 125 114 114 125 114 114 125 114 114 125 114 114 125 114 114 125 114 114 125 114 114 125 114 114 125 114 114 125 113 113 125 85 85 93 85 85 93 85 85 93 85 85 93 85 85 93 85 85 93 85 85 93 85 85 93 85 85 93 85 85 93 85 85 93 85 85 93 85 85 93 84 84 93 84 84 93 84 84 93 84 84 93 84 84 93 84 84 93 84 84 93 84 84 93 84 84 93 84 84 93 84 84 93 84 84 93 84 84 93 84 84 92 84 84 92 84 84 92 84 84 92 84 84 92 84 84 92 84 84 92 84 84 92 84 84 92 84 84 92 84 84 92 84 84 92 84 84 92 84 84 92 84 84 92 83 83 92 83 83 92 83 83 92 83 83 92 83 83 92 83 83 92 83 83 92 83 83 91 111 111 122 111 111 122 111 111 122 111 111 122 111 111 122 111 111 122 111 111 122 111 111 122 111 111 122 110 110 122 110 110 122 110 110 121 110 110 121 110 110 121 110 110 121 110 110 121 110 110 121 110 110 121 110 110 121 110 110 121 110 110 121 110 110 121 110 110 121 110 110 121 110 110 121 110 110 121 109 109 120 109 109 120 109 109 120 109 109 120 109 109 120 109 109 120 109 109 120 109 109 120 109 109 120 109 109 120 109 109 120 109 109 120 109 109 120 109 109 119 109 109 119 108 108 119 108 108 119 108 108 119 108 108 119 108 108 119 108 108 119 108 108 119 108 108 119 81 81 89 81 81 89 81 81 88 81 81 88 81 81 88 81 81 88 80 80 88 80 80 88 80 80 88 80 80 88 80 80 88 80 80 88 80 80 88 80 80 88 80 80 88 80 80 88 80 80 88 80 80 88 80 80 88 80 80 88 80 80 87 80 80 87 80 80 87 80 80 87 79 79 87 79 79 87 79 79 87 79 79 87 79 79 87 79 79 87 79 79 87 79 79 87 79 79 87 79 79 87 79 79 87 79 79 87 79 79 87 79 79 86 79 79 86 79 79 86 79 79 86 79 79 86 78 78 86 78 78 86 78 78 86 78 78 86 78 78 86 78 78 86 78 78 86 78 78 86 78 78 86 78 78 86 78 78 86 78 78 85 78 78 85 78 78 85 78 78 85 78 78 85 78 78 85 78 78 85 78 78 85 77 77 85 77 77 85 77 77 85 77 77 85 77 77 85 77 77 85 77 77 85 77 77 84 77 77 84 77 77 84 77 77 84 77 77 84 77 77 84 77 77 84 77 77 84 77 77 84 76 76 84 76 76 84 76 76 84 76 76 84 76 76 84 76 76 84 76 76 84 76 76 83 76 76 83 76 76 83 76 76 83 76 76 83 76 76 83 75 75 83 75 75 83 75 75 83 75 75 83 75 75 83 75 75 83 75 75 83 75 75 83 75 75 82 100 100 110 100 100 110 100 100 110 100 100 110 100 100 110 100 100 110 100 100 110 100 100 110 99 99 110 99 99 110 99 99 109 99 99 109 99 99 109 99 99 109 99 99 109 99 99 109 99 99 109 99 99 109 99 99 109 99 99 109 99 99 109 98 98 108 98 98 108 98 98 108 98 98 108 98 98 108 98 98 108 98 98 108 98 98 108 98 98 108 98 98 108 98 98 108 98 98 107 97 97 107 97 97 107 97 97 107 97 97 107 97 97 107 97 97 107 97 97 107 97 97 107 97 97 107 97 97 107 97 97 106 97 97 106 96 96 106 96 96 106 96 96 106 96 96 106 72 72 79 72 72 79 72 72 79 72 72 79 72 72 79 72 72 79 72 72 79 72 72 79 71 71 79 71 71 79 71 71 79 71 71 78 71 71 78 71 71 78 71 71 78 71 71 78 71 71 78 71 71 78 71 71 78 71 71 78 71 71 78 71 71 78 71 71 78 71 71 78 71 71 78 70 70 78 70 70 77 70 70 77 70 70 77 70 70 77 70 70 77 70 70 77 70 70 77 70 70 77 70 70 77 70 70 77 70 70 77 70 70 77 70 70 77 70 70 77 70 70 77 69 69 76 69 69 76 69 69 76 69 69 76 69 69 76 69 69 76 69 69 76 69 69 76 92 92 102 92 92 101 92 92 101 92 92 101 92 92 101 92 92 101 92 92 101 92 92 101 92 92 101 91 91 100 91 91 100 91 91 100 
114 114 125 114 114 125 114 114 125 114 114 125 114 114 125 114 114 125 114 114 125 114 114 125 114 114 125 114 114 125 85 85 94 85 85 94 85 85 93 85 85 93 85 85 93 85 85 93 85 85 93 85 85 93 85 85 93 85 85 93 85 85 93 85 85 93 85 85 93 85 85 93 85 85 93 85 85 93 84 84 93 84 84 93 84 84 93 84 84 93 84 84 93 84 84 93 84 84 93 84 84 93 84 84 93 84 84 93 84 84 93 84 84 93 84 84 92 84 84 92 84 84 92 84 84 92 84 84 92 84 84 92 84 84 92 84 84 92 84 84 92 84 84 92 84 84 92 84 84 92 84 84 92 84 84 92 84 84 92 84 84 92 83 83 92 83 83 92 83 83 92 83 83 92 83 83 92 83 83 92 83 83 92 111 111 122 111 111 122 111 111 122 111 111 122 111 111 122 111 111 122 111 111 122 111 111 122 111 111 122 111 111 122 110 110 122 110 110 122 110 110 121 110 110 121 110 110 121 110 110 121 110 110 121 110 110 121 110 110 121 110 110 121 110 110 121 110 110 121 110 110 121 110 110 121 110 110 121 110 110 121 109 109 120 109 109 120 109 109 120 109 109 120 109 109 120 109 109 120 109 109 120 109 109 120 109 109 120 109 109 120 109 109 120 109 109 120 109 109 120 109 109 120 109 109 119 109 109 119 108 108 119 108 108 119 108 108 119 108 108 119 108 108 119 108 108 119 108 108 119 81 81 89 81 81 89 81 81 89 81 81 88 81 81 88 81 81 88 81 81 88 81 81 88 80 80 88 80 80 88 80 80 88 80 80 88 80 80 88 80 80 88 80 80 88 80 80 88 80 80 88 80 80 88 80 80 88 80 80 88 80 80 88 80 80 88 80 80 87 80 80 87 80 80 87 80 80 87 79 79 87 79 79 87 79 79 87 79 79 87 79 79 87 79 79 87 79 79 87 79 79 87 79 79 87 79 79 87 79 79 87 79 79 87 79 79 86 79 79 86 79 79 86 79 79 86 79 79 86 79 79 86 78 78 86 78 78 86 78 78 86 78 78 86 78 78 86 78 78 86 78 78 86 78 78 86 78 78 86 78 78 86 78 78 86 78 78 85 78 78 85 78 78 85 78 78 85 78 78 85 78 78 85 78 78 85 78 78 85 77 77 85 77 77 85 77 77 85 77 77 85 77 77 85 77 77 85 77 77 85 77 77 85 77 77 84 77 77 84 77 77 84 77 77 84 77 77 84 77 77 84 77 77 84 77 77 84 77 77 84 76 76 84 76 76 84 76 76 84 76 76 84 76 76 84 76 76 84 76 76 83 76 76 83 76 76 83 76 76 83 76 76 83 76 76 83 75 75 83 75 75 83 75 75 83 75 75 83 75 75 83 75 75 83 75 75 83 75 75 83 75 75 83 100 100 110 100 100 110 100 100 110 100 100 110 100 100 110 100 100 110 100 100 110 100 100 110 100 100 110 99 99 110 99 99 109 99 99 109 99 99 109 99 99 109 99 99 109 99 99 109 99 99 109 99 99 109 99 99 109 99 99 109 99 99 109 99 99 109 98 98 108 98 98 108 98 98 108 98 98 108 98 98 108 98 98 108 98 98 108 98 98 108 98 98 108 98 98 108 98 98 108 98 98 107 97 97 107 97 97 107 97 97 107 97 97 107 97 97 107 97 97 107 97 97 107 97 97 107 97 97 107 97 97 107 97 97 106 97 97 106 97 97 106 96 96 106 96 96 106 72 72 79 72 72 79 72 72 79 72 72 79 72 72 79 72 72 79 72 72 79 72 72 79 72 72 79 71 71 79 71 71 79 71 71 79 71 71 79 71 71 78 71 71 78 71 71 78 71 71 78 71 71 78 71 71 78 71 71 78 71 71 78 71 71 78 71 71 78 71 71 78 71 71 78 71 71 78 71 71 78 70 70 78 70 70 77 70 70 77 70 70 77 70 70 77 70 70 77 70 70 77 70 70 77 70 70 77 70 70 77 70 70 77 70 70 77 70 70 77 70 70 77 70 70 77 70 70 77 69 69 76 69 69 76 69 69 76 69 69 76 69 69 76 69 69 76 69 69 76 69 69 76 92 92 102 92 92 101 92 92 101 92 92 101 92 92 101 92 92 101 92 92 101 92 92 101 92 92 101 
114 114 125 114 114 125 114 114 125 114 114 125 114 114 125 114 114 125 114 114 125 114 114 125 85 85 94 85 85 94 85 85 94 85 85 93 85 85 93 85 85 93 85 85 93 85 85 93 85 85 93 85 85 93 85 85 93 85 85 93 85 85 93 85 85 93 85 85 93 85 85 93 85 85 93 84 84 93 84 84 93 84 84 93 84 84 93 84 84 93 84 84 93 84 84 93 84 84 93 84 84 93 84 84 93 84 84 93 84 84 93 84 84 93 84 84 92 84 84 92 84 84 92 84 84 92 84 84 92 84 84 92 84 84 92 84 84 92 84 84 92 84 84 92 84 84 92 84 84 92 84 84 92 84 84 92 84 84 92 83 83 92 83 83 92 83 83 92 83 83 92 83 83 92 83 83 92 111 111 122 111 111 122 111 111 122 111 111 122 111 111 122 111 111 122 111 111 122 111 111 122 111 111 122 111 111 122 111 111 122 111 111 122 110 110 122 110 110 122 110 110 121 110 110 121 110 110 121 110 110 121 110 110 121 110 110 121 110 110 121 110 110 121 110 110 121 110 110 121 110 110 121 110 110 121 110 110 121 110 110 121 109 109 120 109 109 120 109 109 120 109 109 120 109 109 120 109 109 120 109 109 120 109 109 120 109 109 120 109 109 120 109 109 120 109 109 120 109 109 120 109 109 120 109 109 119 109 109 119 108 108 119 108 108 119 108 108 119 108 108 119 108 108 119 108 108 119 108 108 119 81 81 89 81 81 89 81 81 89 81 81 88 81 81 88 81 81 88 81 81 88 81 81 88 80 80 88 80 80 88 80 80 88 80 80 88 80 80 88 80 80 88 80 80 88 80 80 88 80 80 88 80 80 88 80 80 88 80 80 88 80 80 88 80 80 88 80 80 87 80 80 87 80 80 87 80 80 87 79 79 87 79 79 87 79 79 87 79 79 87 79 79 87 79 79 87 79 79 87 79 79 87 79 79 87 79 79 87 79 79 87 79 79 87 79 79 87 79 79 86 79 79 86 79 79 86 79 79 86 79 79 86 78 78 86 78 78 86 78 78 86 78 78 86 78 78 86 78 78 86 78 78 86 78 78 86 78 78 86 78 78 86 78 78 86 78 78 86 78 78 85 78 78 85 78 78 85 78 78 85 78 78 85 78 78 85 78 78 85 77 77 85 77 77 85 77 77 85 77 77 85 77 77 85 77 77 85 77 77 85 77 77 85 77 77 84 77 77 84 77 77 84 77 77 84 77 77 84 77 77 84 77 77 84 77 77 84 77 77 84 77 77 84 76 76 84 76 76 84 76 76 84 76 76 84 76 76 84 76 76 84 76 76 83 76 76 83 76 76 83 76 76 83 76 76 83 76 76 83 76 76 83 75 75 83 75 75 83 75 75 83 75 75 83 75 75 83 75 75 83 75 75 83 100 100 110 100 100 110 100 100 110 100 100 110 100 100 110 100 100 110 100 100 110 100 100 110 100 100 110 100 100 110 100 100 110 99 99 110 99 99 109 99 99 109 99 99 109 99 99 109 99 99 109 99 99 109 99 99 109 99 99 109 99 99 109 99 99 109 99 99 109 98 98 108 98 98 108 98 98 108 98 98 108 98 98 108 98 98 108 98 98 108 98 98 108 98 98 108 98 98 108 98 98 108 98 98 108 98 98 107 97 97 107 97 97 107 97 97 107 97 97 107 97 97 107 97 97 107 97 97 107 97 97 107 97 97 107 97 97 107 97 97 106 97 97 106 97 97 106 96 96 106 96 96 106 72 72 79 72 72 79 72 72 79 72 72 79 72 72 79 72 72 79 72 72 79 72 72 79 72 72 79 71 71 79 71 71 79 71 71 79 71 71 79 71 71 78 71 71 78 71 71 78 71 71 78 71 71 78 71 71 78 71 71 78 71 71 78 71 71 78 71 71 78 71 71 78 71 71 78 71 71 78 71 71 78 70 70 78 70 70 77 70 70 77 70 70 77 70 70 77 70 70 77 70 70 77 70 70 77 70 70 77 70 70 77 70 70 77 70 70 77 70 70 77 70 70 77 70 70 77 70 70 77 70 70 77 69 69 76 69 69 76 69 69 76 69 69 76 69 69 76 69 69 76 69 69 76 92 92 102 92 92 102 92 92 101 92 92 101 92 92 101 92 92 101 92 92 101 
114 114 125 114 114 125 114 114 125 114 114 125 114 114 125 85 85 94 85 85 94 85 85 94 85 85 94 85 85 94 85 85 94 85 85 93 85 85 93 85 85 93 85 85 93 85 85 93 85 85 93 85 85 93 85 85 93 85 85 93 85 85 93 85 85 93 85 85 93 85 85 93 85 85 93 84 84 93 84 84 93 84 84 93 84 84 93 84 84 93 84 84 93 84 84 93 84 84 93 84 84 93 84 84 93 84 84 93 84 84 93 84 84 92 84 84 92 84 84 92 84 84 92 84 84 92 84 84 92 84 84 92 84 84 92 84 84 92 84 84 92 84 84 92 84 84 92 84 84 92 84 84 92 84 84 92 84 84 92 83 83 92 83 83 92 83 83 92 83 83 92 111 111 122 111 111 122 111 111 122 111 111 122 111 111 122 111 111 122 111 111 122 111 111 122 111 111 122 111 111 122 111 111 122 111 111 122 111 111 122 111 111 122 110 110 122 110 110 121 110 110 121 110 110 121 110 110 121 110 110 121 110 110 121 110 110 121 110 110 121 110 110 121 110 110 121 110 110 121 110 110 121 110 110 121 110 110 121 110 110 121 109 109 120 109 109 120 109 109 120 109 109 120 109 109 120 109 109 120 109 109 120 109 109 120 109 109 120 109 109 120 109 109 120 109 109 120 109 109 120 109 109 120 109 109 119 109 109 119 108 108 119 108 108 119 108 108 119 108 108 119 108 108 119 108 108 119 81 81 89 81 81 89 81 81 89 81 81 89 81 81 89 81 81 88 81 81 88 81 81 88 81 81 88 80 80 88 80 80 88 80 80 88 80 80 88 80 80 88 80 80 88 80 80 88 80 80 88 80 80 88 80 80 88 80 80 88 80 80 88 80 80 88 80 80 88 80 80 88 80 80 87 80 80 87 80 80 87 80 80 87 79 79 87 79 79 87 79 79 87 79 79 87 79 79 87 79 79 87 79 79 87 79 79 87 79 79 87 79 79 87 79 79 87 79 79 87 79 79 87 79 79 86 79 79 86 79 79 86 79 79 86 79 79 86 78 78 86 78 78 86 78 78 86 78 78 86 78 78 86 78 78 86 78 78 86 78 78 86 78 78 86 78 78 86 78 78 86 78 78 85 78 78 85 78 78 85 78 78 85 78 78 85 78 78 85 78 78 85 78 78 85 77 77 85 77 77 85 77 77 85 77 77 85 77 77 85 77 77 85 77 77 85 77 77 85 77 77 85 77 77 84 77 77 84 77 77 84 77 77 84 77 77 84 77 77 84 77 77 84 77 77 84 77 77 84 76 76 84 76 76 84 76 76 84 76 76 84 76 76 84 76 76 84 76 76 83 76 76 83 76 76 83 76 76 83 76 76 83 76 76 83 76 76 83 75 75 83 75 75 83 75 75 83 75 75 83 75 75 83 75 75 83 75 75 83 100 100 111 100 100 110 100 100 110 100 100 110 100 100 110 100 100 110 100 100 110 100 100 110 100 100 110 100 100 110 100 100 110 99 99 110 99 99 109 99 99 109 99 99 109 99 99 109 99 99 109 99 99 109 99 99 109 99 99 109 99 99 109 99 99 109 99 99 109 99 99 109 98 98 108 98 98 108 98 98 108 98 98 108 98 98 108 98 98 108 98 98 108 98 98 108 98 98 108 98 98 108 98 98 108 98 98 108 98 98 107 97 97 107 97 97 107 97 97 107 97 97 107 97 97 107 97 97 107 97 97 107 97 97 107 97 97 107 97 97 107 97 97 107 97 97 106 97 97 106 96 96 106 96 96 106 72 72 79 72 72 79 72 72 79 72 72 79 72 72 79 72 72 79 72 72 79 72 72 79 72 72 79 72 72 79 71 71 79 71 71 79 71 71 79 71 71 79 71 71 78 71 71 78 71 71 78 71 71 78 71 71 78 71 71 78 71 71 78 71 71 78 71 71 78 71 71 78 71 71 78 71 71 78 71 71 78 71 71 78 70 70 78 70 70 77 70 70 77 70 70 77 70 70 77 70 70 77 70 70 77 70 70 77 70 70 77 70 70 77 70 70 77 70 70 77 70 70 77 70 70 77 70 70 77 70 70 77 70 70 77 69 69 76 69 69 76 69 69 76 69 69 76 69 69 76 69 69 76 69 69 76 92 92 102 92 92 102 92 92 101 92 92 101 
114 114 125 114 114 125 114 114 125 85 85 94 85 85 94 85 85 94 85 85 94 85 85 94 85 85 94 85 85 94 85 85 93 85 85 93 85 85 93 85 85 93 85 85 93 85 85 93 85 85 93 85 85 93 85 85 93 85 85 93 85 85 93 85 85 93 85 85 93 85 85 93 84 84 93 84 84 93 84 84 93 84 84 93 84 84 93 84 84 93 84 84 93 84 84 93 84 84 93 84 84 93 84 84 93 84 84 93 84 84 92 84 84 92 84 84 92 84 84 92 84 84 92 84 84 92 84 84 92 84 84 92 84 84 92 84 84 92 84 84 92 84 84 92 84 84 92 84 84 92 84 84 92 84 84 92 83 83 92 83 83 92 83 83 92 111 111 123 111 111 122 111 111 122 111 111 122 111 111 122 111 111 122 111 111 122 111 111 122 111 111 122 111 111 122 111 111 122 111 111 122 111 111 122 111 111 122 111 111 122 110 110 122 110 110 122 110 110 121 110 110 121 110 110 121 110 110 121 110 110 121 110 110 121 110 110 121 110 110 121 110 110 121 110 110 121 110 110 121 110 110 121 110 110 121 110 110 121 110 110 121 109 109 120 109 109 120 109 109 120 109 109 120 109 109 120 109 109 120 109 109 120 109 109 120 109 109 120 109 109 120 109 109 120 109 109 120 109 109 120 109 109 120 109 109 119 109 109 119 108 108 119 108 108 119 108 108 119 108 108 119 108 108 119 81 81 89 81 81 89 81 81 89 81 81 89 81 81 89 81 81 89 81 81 88 81 81 88 81 81 88 81 81 88 80 80 88 80 80 88 80 80 88 80 80 88 80 80 88 80 80 88 80 80 88 80 80 88 80 80 88 80 80 88 80 80 88 80 80 88 80 80 88 80 80 88 80 80 88 80 80 87 80 80 87 80 80 87 80 80 87 79 79 87 79 79 87 79 79 87 79 79 87 79 79 87 79 79 87 79 79 87 79 79 87 79 79 87 79 79 87 79 79 87 79 79 87 79 79 87 79 79 86 79 79 86 79 79 86 79 79 86 79 79 86 79 79 86 78 78 86 78 78 86 78 78 86 78 78 86 78 78 86 78 78 86 78 78 86 78 78 86 78 78 86 78 78 86 78 78 86 78 78 85 78 78 85 78 78 85 78 78 85 78 78 85 78 78 85 78 78 85 78 78 85 77 77 85 77 77 85 77 77 85 77 77 85 77 77 85 77 77 85 77 77 85 77 77 85 77 77 85 77 77 84 77 77 84 77 77 84 77 77 84 77 77 84 77 77 84 77 77 84 77 77 84 77 77 84 76 76 84 76 76 84 76 76 84 76 76 84 76 76 84 76 76 84 76 76 84 76 76 83 76 76 83 76 76 83 76 76 83 76 76 83 76 76 83 75 75 83 75 75 83 75 75 83 75 75 83 75 75 83 75 75 83 75 75 83 100 100 111 100 100 110 100 100 110 100 100 110 100 100 110 100 100 110 100 100 110 100 100 110 100 100 110 100 100 110 100 100 110 100 100 110 99 99 110 99 99 109 99 99 109 99 99 109 99 99 109 99 99 109 99 99 109 99 99 109 99 99 109 99 99 109 99 99 109 99 99 109 99 99 109 98 98 108 98 98 108 98 98 108 98 98 108 98 98 108 98 98 108 98 98 108 98 98 108 98 98 108 98 98 108 98 98 108 98 98 108 98 98 107 97 97 107 97 97 107 97 97 107 97 97 107 97 97 107 97 97 107 97 97 107 97 97 107 97 97 107 97 97 107 97 97 107 97 97 106 97 97 106 96 96 106 96 96 106 72 72 79 72 72 79 72 72 79 72 72 79 72 72 79 72 72 79 72 72 79 72 72 79 72 72 79 72 72 79 71 71 79 71 71 79 71 71 79 71 71 79 71 71 78 71 71 78 71 71 78 71 71 78 71 71 78 71 71 78 71 71 78 71 71 78 71 71 78 71 71 78 71 71 78 71 71 78 71 71 78 71 71 78 71 71 78 70 70 78 70 70 77 70 70 77 70 70 77 70 70 77 70 70 77 70 70 77 70 70 77 70 70 77 70 70 77 70 70 77 70 70 77 70 70 77 70 70 77 70 70 77 70 70 77 70 70 77 69 69 76 69 69 76 69 69 76 69 69 76 69 69 76 69 69 76 92 92 102 92 92 102 
114 114 125 114 114 125 114 114 125 114 114 125 114 114 125 114 114 125 114 114 125 114 114 125 114 114 125 113 113 125 113 113 125 113 113 125 113 113 125 113 113 125 113 113 125 113 113 125 113 113 125 113 113 125 113 113 124 113 113 124 113 113 124 113 113 124 113 113 124 113 113 124 113 113 124 113 113 124 113 113 124 113 113 124 113 113 124 113 113 124 113 113 124 113 113 124 112 112 124 112 112 124 112 112 124 112 112 124 112 112 124 112 112 123 112 112 123 112 112 123 112 112 123 112 112 123 112 112 123 112 112 123 112 112 123 112 112 123 112 112 123 112 112 123 112 112 123 112 112 123 112 112 123 111 111 123 111 111 123 83 83 92 83 83 92 83 83 92 83 83 92 83 83 92 83 83 92 83 83 91 83 83 91 83 83 91 83 83 91 83 83 91 83 83 91 83 83 91 83 83 91 83 83 91 83 83 91 83 83 91 83 83 91 83 83 91 83 83 91 83 83 91 83 83 91 82 82 91 82 82 91 82 82 91 82 82 91 82 82 91 82 82 90 82 82 90 82 82 90 82 82 90 82 82 90 82 82 90 82 82 90 82 82 90 82 82 90 82 82 90 82 82 90 82 82 90 82 82 90 82 82 90 82 82 90 82 82 90 82 82 90 81 81 90 81 81 90 81 81 90 81 81 89 81 81 89 81 81 89 81 81 89 81 81 89 81 81 89 81 81 89 108 108 119 108 108 119 108 108 119 108 108 119 108 108 119 108 108 119 108 108 119 108 108 119 108 108 118 108 108 118 108 108 118 107 107 118 107 107 118 107 107 118 107 107 118 107 107 118 107 107 118 107 107 118 107 107 118 107 107 118 107 107 118 107 107 118 107 107 117 107 107 117 107 107 117 107 107 117 106 106 117 106 106 117 106 106 117 106 106 117 106 106 117 106 106 117 106 106 117 106 106 117 106 106 117 106 106 116 106 106 116 106 106 116 106 106 116 106 106 116 106 106 116 105 105 116 105 105 116 105 105 116 105 105 116 105 105 116 105 105 116 105 105 116 105 105 115 105 105 115 105 105 115 105 105 115 105 105 115 105 105 115 105 105 115 104 104 115 104 104 115 104 104 115 104 104 115 104 104 115 104 104 115 104 104 115 104 104 114 104 104 114 104 104 114 104 104 114 104 104 114 104 104 114 104 104 114 103 103 114 103 103 114 103 103 113 103 103 113 103 103 113 103 103 113 103 103 113 103 103 113 103 103 113 103 103 113 103 103 113 103 103 113 103 103 113 103 103 113 102 102 112 102 102 112 102 102 112 102 102 112 102 102 112 102 102 112 102 102 112 102 102 112 102 102 112 102 102 112 102 102 112 102 102 112 102 102 112 102 102 112 101 101 111 101 101 111 101 101 111 101 101 111 101 101 111 101 101 111 101 101 111 101 101 111 101 101 111 100 100 111 75 75 83 75 75 83 75 75 83 75 75 82 75 75 82 75 75 82 75 75 82 75 75 82 75 75 82 75 75 82 75 75 82 74 74 82 74 74 82 74 74 82 74 74 82 74 74 82 74 74 82 74 74 82 74 74 82 74 74 81 74 74 81 74 74 81 74 74 81 74 74 81 74 74 81 74 74 81 74 74 81 74 74 81 74 74 81 74 74 81 73 73 81 73 73 81 73 73 81 73 73 81 73 73 81 73 73 80 73 73 80 73 73 80 73 73 80 73 73 80 73 73 80 73 73 80 73 73 80 73 73 80 73 73 80 73 73 80 73 73 80 72 72 80 72 72 80 72 72 80 72 72 80 72 72 79 72 72 79 72 72 79 96 96 106 96 96 106 96 96 106 96 96 106 96 96 106 96 96 106 96 96 106 96 96 106 96 96 105 96 96 105 96 96 105 96 96 105 95 95 105 95 95 105 95 95 105 95 95 105 95 95 105 95 95 105 95 95 105 95 95 105 95 95 104 95 95 104 95 95 104 95 95 104 95 95 104 94 94 104 94 94 104 94 94 104 94 94 104 94 94 104 94 94 104 94 94 104 94 94 103 94 94 103 94 94 103 94 94 103 94 94 103 94 94 103 94 94 103 93 93 103 93 93 103 93 93 103 93 93 103 93 93 103 93 93 102 93 93 102 93 93 102 93 93 102 93 93 102 93 93 102 93 93 102 93 93 102 
114 114 125 114 114 125 114 114 125 114 114 125 114 114 125 114 114 125 114 114 125 114 114 125 113 113 125 113 113 125 113 113 125 113 113 125 113 113 125 113 113 125 113 113 125 113 113 125 113 113 125 113 113 124 113 113 124 113 113 124 113 113 124 113 113 124 113 113 124 113 113 124 113 113 124 113 113 124 113 113 124 113 113 124 113 113 124 113 113 124 112 112 124 112 112 124 112 112 124 112 112 124 112 112 124 112 112 124 112 112 124 112 112 123 112 112 123 112 112 123 112 112 123 112 112 123 112 112 123 112 112 123 112 112 123 112 112 123 112 112 123 112 112 123 112 112 123 112 112 123 112 112 123 111 111 123 83 83 92 83 83 92 83 83 92 83 83 92 83 83 92 83 83 92 83 83 91 83 83 91 83 83 91 83 83 91 83 83 91 83 83 91 83 83 91 83 83 91 83 83 91 83 83 91 83 83 91 83 83 91 83 83 91 83 83 91 83 83 91 83 83 91 82 82 91 82 82 91 82 82 91 82 82 91 82 82 91 82 82 91 82 82 90 82 82 90 82 82 90 82 82 90 82 82 90 82 82 90 82 82 90 82 82 90 82 82 90 82 82 90 82 82 90 82 82 90 82 82 90 82 82 90 82 82 90 82 82 90 81 81 90 81 81 90 81 81 90 81 81 89 81 81 89 81 81 89 81 81 89 81 81 89 81 81 89 81 81 89 108 108 119 108 108 119 108 108 119 108 108 119 108 108 119 108 108 119 108 108 119 108 108 119 108 108 119 108 108 118 108 108 118 108 108 118 107 107 118 107 107 118 107 107 118 107 107 118 107 107 118 107 107 118 107 107 118 107 107 118 107 107 118 107 107 118 107 107 118 107 107 117 107 107 117 107 107 117 107 107 117 106 106 117 106 106 117 106 106 117 106 106 117 106 106 117 106 106 117 106 106 117 106 106 117 106 106 117 106 106 116 106 106 116 106 106 116 106 106 116 106 106 116 106 106 116 105 105 116 105 105 116 105 105 116 105 105 116 105 105 116 105 105 116 105 105 116 105 105 115 105 105 115 105 105 115 105 105 115 105 105 115 105 105 115 105 105 115 105 105 115 104 104 115 104 104 115 104 104 115 104 104 115 104 104 115 104 104 115 104 104 115 104 104 114 104 104 114 104 104 114 104 104 114 104 104 114 104 104 114 104 104 114 103 103 114 103 103 113 103 103 113 103 103 113 103 103 113 103 103 113 103 103 113 103 103 113 103 103 113 103 103 113 103 103 113 103 103 113 103 103 113 103 103 113 102 102 112 102 102 112 102 102 112 102 102 112 102 102 112 102 102 112 102 102 112 102 102 112 102 102 112 102 102 112 102 102 112 102 102 112 102 102 112 102 102 112 101 101 111 101 101 111 101 101 111 101 101 111 101 101 111 101 101 111 101 101 111 101 101 111 101 101 111 101 101 111 75 75 83 75 75 83 75 75 83 75 75 83 75 75 82 75 75 82 75 75 82 75 75 82 75 75 82 75 75 82 75 75 82 75 75 82 74 74 82 74 74 82 74 74 82 74 74 82 74 74 82 74 74 82 74 74 82 74 74 82 74 74 81 74 74 81 74 74 81 74 74 81 74 74 81 74 74 81 74 74 81 74 74 81 74 74 81 74 74 81 74 74 81 73 73 81 73 73 81 73 73 81 73 73 81 73 73 81 73 73 80 73 73 80 73 73 80 73 73 80 73 73 80 73 73 80 73 73 80 73 73 80 73 73 80 73 73 80 73 73 80 73 73 80 72 72 80 72 72 80 72 72 80 72 72 80 72 72 79 72 72 79 96 96 106 96 96 106 96 96 106 96 96 106 96 96 106 96 96 106 96 96 106 96 96 106 96 96 106 96 96 105 96 96 105 96 96 105 96 96 105 96 96 105 95 95 105 95 95 105 95 95 105 95 95 105 95 95 105 95 95 105 95 95 105 95 95 105 95 95 104 95 95 104 95 95 104 95 95 104 95 95 104 94 94 104 94 94 104 94 94 104 94 94 104 94 94 104 94 94 104 94 94 104 94 94 103 94 94 103 94 94 103 94 94 103 94 94 103 94 94 103 94 94 103 93 93 103 93 93 103 93 93 103 93 93 103 93 93 103 93 93 102 93 93 102 93 93 102 93 93 102 93 93 102 
114 114 125 114 114 125 114 114 125 114 114 125 114 114 125 114 114 125 113 113 125 113 113 125 113 113 125 113 113 125 113 113 125 113 113 125 113 113 125 113 113 125 113 113 125 113 113 125 113 113 124 113 113 124 113 113 124 113 113 124 113 113 124 113 113 124 113 113 124 113 113 124 113 113 124 113 113 124 113 113 124 113 113 124 113 113 124 112 112 124 112 112 124 112 112 124 112 112 124 112 112 124 112 112 124 112 112 124 112 112 123 112 112 123 112 112 123 112 112 123 112 112 123 112 112 123 112 112 123 112 112 123 112 112 123 112 112 123 112 112 123 112 112 123 112 112 123 112 112 123 83 83 92 83 83 92 83 83 92 83 83 92 83 83 92 83 83 92 83 83 92 83 83 91 83 83 91 83 83 91 83 83 91 83 83 91 83 83 91 83 83 91 83 83 91 83 83 91 83 83 91 83 83 91 83 83 91 83 83 91 83 83 91 83 83 91 83 83 91 83 83 91 82 82 91 82 82 91 82 82 91 82 82 91 82 82 91 82 82 90 82 82 90 82 82 90 82 82 90 82 82 90 82 82 90 82 82 90 82 82 90 82 82 90 82 82 90 82 82 90 82 82 90 82 82 90 82 82 90 82 82 90 82 82 90 82 82 90 81 81 90 81 81 90 81 81 90 81 81 89 81 81 89 81 81 89 81 81 89 81 81 89 81 81 89 108 108 119 108 108 119 108 108 119 108 108 119 108 108 119 108 108 119 108 108 119 108 108 119 108 108 119 108 108 119 108 108 118 108 108 118 108 108 118 107 107 118 107 107 118 107 107 118 107 107 118 107 107 118 107 107 118 107 107 118 107 107 118 107 107 118 107 107 118 107 107 118 107 107 117 107 107 117 107 107 117 107 107 117 107 107 117 106 106 117 106 106 117 106 106 117 106 106 117 106 106 117 106 106 117 106 106 117 106 106 117 106 106 117 106 106 116 106 106 116 106 106 116 106 106 116 106 106 116 106 106 116 105 105 116 105 105 116 105 105 116 105 105 116 105 105 116 105 105 116 105 105 116 105 105 115 105 105 115 105 105 115 105 105 115 105 105 115 105 105 115 105 105 115 105 105 115 104 104 115 104 104 115 104 104 115 104 104 115 104 104 115 104 104 115 104 104 115 104 104 114 104 104 114 104 104 114 104 104 114 104 104 114 104 104 114 104 104 114 103 103 114 103 103 114 103 103 113 103 103 113 103 103 113 103 103 113 103 103 113 103 103 113 103 103 113 103 103 113 103 103 113 103 103 113 103 103 113 103 103 113 102 102 112 102 102 112 102 102 112 102 102 112 102 102 112 102 102 112 102 102 112 102 102 112 102 102 112 102 102 112 102 102 112 102 102 112 102 102 112 102 102 112 101 101 111 101 101 111 101 101 111 101 101 111 101 101 111 101 101 111 101 101 111 101 101 111 101 101 111 101 101 111 75 75 83 75 75 83 75 75 83 75 75 83 75 75 82 75 75 82 75 75 82 75 75 82 75 75 82 75 75 82 75 75 82 75 75 82 74 74 82 74 74 82 74 74 82 74 74 82 74 74 82 74 74 82 74 74 82 74 74 82 74 74 82 74 74 81 74 74 81 74 74 81 74 74 81 74 74 81 74 74 81 74 74 81 74 74 81 74 74 81 74 74 81 74 74 81 73 73 81 73 73 81 73 73 81 73 73 81 73 73 81 73 73 80 73 73 80 73 73 80 73 73 80 73 73 80 73 73 80 73 73 80 73 73 80 73 73 80 73 73 80 73 73 80 73 73 80 72 72 80 72 72 80 72 72 80 72 72 80 72 72 79 72 72 79 96 96 106 96 96 106 96 96 106 96 96 106 96 96 106 96 96 106 96 96 106 96 96 106 96 96 106 96 96 106 96 96 105 96 96 105 96 96 105 96 96 105 95 95 105 95 95 105 95 95 105 95 95 105 95 95 105 95 95 105 95 95 105 95 95 105 95 95 104 95 95 104 95 95 104 95 95 104 95 95 104 95 95 104 94 94 104 94 94 104 94 94 104 94 94 104 94 94 104 94 94 104 94 94 104 94 94 103 94 94 103 94 94 103 94 94 103 94 94 103 94 94 103 94 94 103 93 93 103 93 93 103 93 93 103 93 93 103 93 93 103 93 93 102 93 93 102 
114 114 125 114 114 125 114 114 125 114 114 125 114 114 125 113 113 125 113 113 125 113 113 125 113 113 125 113 113 125 113 113 125 113 113 125 113 113 125 113 113 125 113 113 125 113 113 124 113 113 124 113 113 124 113 113 124 113 113 124 113 113 124 113 113 124 113 113 124 113 113 124 113 113 124 113 113 124 113 113 124 113 113 124 112 112 124 112 112 124 112 112 124 112 112 124 112 112 124 112 112 124 112 112 124 112 112 123 112 112 123 112 112 123 112 112 123 112 112 123 112 112 123 112 112 123 112 112 123 112 112 123 112 112 123 112 112 123 112 112 123 112 112 123 84 84 92 83 83 92 83 83 92 83 83 92 83 83 92 83 83 92 83 83 92 83 83 92 83 83 92 83 83 91 83 83 91 83 83 91 83 83 91 83 83 91 83 83 91 83 83 91 83 83 91 83 83 91 83 83 91 83 83 91 83 83 91 83 83 91 83 83 91 83 83 91 83 83 91 82 82 91 82 82 91 82 82 91 82 82 91 82 82 91 82 82 90 82 82 90 82 82 90 82 82 90 82 82 90 82 82 90 82 82 90 82 82 90 82 82 90 82 82 90 82 82 90 82 82 90 82 82 90 82 82 90 82 82 90 82 82 90 82 82 90 82 82 90 81 81 90 81 81 90 81 81 90 81 81 89 81 81 89 81 81 89 81 81 89 81 81 89 108 108 119 108 108 119 108 108 119 108 108 119 108 108 119 108 108 119 108 108 119 108 108 119 108 108 119 108 108 119 108 108 119 108 108 118 108 108 118 108 108 118 107 107 118 107 107 118 107 107 118 107 107 118 107 107 118 107 107 118 107 107 118 107 107 118 107 107 118 107 107 118 107 107 118 107 107 117 107 107 117 107 107 117 107 107 117 107 107 117 106 106 117 106 106 117 106 106 117 106 106 117 106 106 117 106 106 117 106 106 117 106 106 117 106 106 117 106 106 116 106 106 116 106 106 116 106 106 116 106 106 116 106 106 116 105 105 116 105 105 116 105 105 116 105 105 116 105 105 116 105 105 116 105 105 116 105 105 115 105 105 115 105 105 115 105 105 115 105 105 115 105 105 115 105 105 115 105 105 115 104 104 115 104 104 115 104 104 115 104 104 115 104 104 115 104 104 115 104 104 115 104 104 114 104 104 114 104 104 114 104 104 114 104 104 114 104 104 114 104 104 114 104 104 114 103 103 114 103 103 113 103 103 113 103 103 113 103 103 113 103 103 113 103 103 113 103 103 113 103 103 113 103 103 113 103 103 113 103 103 113 103 103 113 103 103 113 102 102 112 102 102 112 102 102 112 102 102 112 102 102 112 102 102 112 102 102 112 102 102 112 102 102 112 102 102 112 102 102 112 102 102 112 102 102 112 102 102 112 101 101 111 101 101 111 101 101 111 101 101 111 101 101 111 101 101 111 101 101 111 101 101 111 101 101 111 101 101 111 75 75 83 75 75 83 75 75 83 75 75 83 75 75 82 75 75 82 75 75 82 75 75 82 75 75 82 75 75 82 75 75 82 75 75 82 75 75 82 74 74 82 74 74 82 74 74 82 74 74 82 74 74 82 74 74 82 74 74 82 74 74 82 74 74 81 74 74 81 74 74 81 74 74 81 74 74 81 74 74 81 74 74 81 74 74 81 74 74 81 74 74 81 74 74 81 73 73 81 73 73 81 73 73 81 73 73 81 73 73 81 73 73 81 73 73 80 73 73 80 73 73 80 73 73 80 73 73 80 73 73 80 73 73 80 73 73 80 73 73 80 73 73 80 73 73 80 73 73 80 73 73 80 72 72 80 72 72 80 72 72 80 72 72 80 72 72 79 96 96 106 96 96 106 96 96 106 96 96 106 96 96 106 96 96 106 96 96 106 96 96 106 96 96 106 96 96 106 96 96 105 96 96 105 96 96 105 96 96 105 95 95 105 95 95 105 95 95 105 95 95 105 95 95 105 95 95 105 95 95 105 95 95 105 95 95 105 95 95 104 95 95 104 95 95 104 95 95 104 95 95 104 94 94 104 94 94 104 94 94 104 94 94 104 94 94 104 94 94 104 94 94 104 94 94 103 94 94 103 94 94 103 94 94 103 94 94 103 94 94 103 94 94 103 93 93 103 93 93 103 93 93 103 93 93 103 93 93 103 
114 114 125 114 114 125 114 114 125 114 114 125 113 113 125 113 113 125 113 113 125 113 113 125 113 113 125 113 113 125 113 113 125 113 113 125 113 113 125 113 113 125 113 113 124 113 113 124 113 113 124 113 113 124 113 113 124 113 113 124 113 113 124 113 113 124 113 113 124 113 113 124 113 113 124 113 113 124 113 113 124 112 112 124 112 112 124 112 112 124 112 112 124 112 112 124 112 112 124 112 112 123 112 112 123 112 112 123 112 112 123 112 112 123 112 112 123 112 112 123 112 112 123 112 112 123 112 112 123 112 112 123 112 112 123 112 112 123 84 84 92 84 84 92 83 83 92 83 83 92 83 83 92 83 83 92 83 83 92 83 83 92 83 83 92 83 83 92 83 83 91 83 83 91 83 83 91 83 83 91 83 83 91 83 83 91 83 83 91 83 83 91 83 83 91 83 83 91 83 83 91 83 83 91 83 83 91 83 83 91 83 83 91 83 83 91 82 82 91 82 82 91 82 82 91 82 82 91 82 82 91 82 82 91 82 82 90 82 82 90 82 82 90 82 82 90 82 82 90 82 82 90 82 82 90 82 82 90 82 82 90 82 82 90 82 82 90 82 82 90 82 82 90 82 82 90 82 82 90 82 82 90 82 82 90 81 81 90 81 81 90 81 81 90 81 81 89 81 81 89 81 81 89 81 81 89 81 81 89 108 108 119 108 108 119 108 108 119 108 108 119 108 108 119 108 108 119 108 108 119 108 108 119 108 108 119 108 108 119 108 108 119 108 108 119 108 108 118 108 108 118 108 108 118 107 107 118 107 107 118 107 107 118 107 107 118 107 107 118 107 107 118 107 107 118 107 107 118 107 107 118 107 107 118 107 107 118 107 107 117 107 107 117 107 107 117 107 107 117 107 107 117 106 106 117 106 106 117 106 106 117 106 106 117 106 106 117 106 106 117 106 106 117 106 106 117 106 106 117 106 106 116 106 106 116 106 106 116 106 106 116 106 106 116 106 106 116 105 105 116 105 105 116 105 105 116 105 105 116 105 105 116 105 105 116 105 105 116 105 105 116 105 105 115 105 105 115 105 105 115 105 105 115 105 105 115 105 105 115 105 105 115 105 105 115 104 104 115 104 104 115 104 104 115 104 104 115 104 104 115 104 104 115 104 104 115 104 104 114 104 104 114 104 104 114 104 104 114 104 104 114 104 104 114 104 104 114 103 103 114 103 103 114 103 103 113 103 103 113 103 103 113 103 103 113 103 103 113 103 103 113 103 103 113 103 103 113 103 103 113 103 103 113 103 103 113 103 103 113 103 103 113 102 102 112 102 102 112 102 102 112 102 102 112 102 102 112 102 102 112 102 102 112 102 102 112 102 102 112 102 102 112 102 102 112 102 102 112 102 102 112 102 102 112 101 101 111 101 101 111 101 101 111 101 101 111 101 101 111 101 101 111 101 101 111 101 101 111 101 101 111 101 101 111 75 75 83 75 75 83 75 75 83 75 75 83 75 75 83 75 75 82 75 75 82 75 75 82 75 75 82 75 75 82 75 75 82 75 75 82 75 75 82 74 74 82 74 74 82 74 74 82 74 74 82 74 74 82 74 74 82 74 74 82 74 74 82 74 74 82 74 74 81 74 74 81 74 74 81 74 74 81 74 74 81 74 74 81 74 74 81 74 74 81 74 74 81 74 74 81 74 74 81 73 73 81 73 73 81 73 73 81 73 73 81 73 73 81 73 73 81 73 73 80 73 73 80 73 73 80 73 73 80 73 73 80 73 73 80 73 73 80 73 73 80 73 73 80 73 73 80 73 73 80 73 73 80 73 73 80 72 72 80 72 72 80 72 72 80 72 72 80 72 72 79 96 96 106 96 96 106 96 96 106 96 96 106 96 96 106 96 96 106 96 96 106 96 96 106 96 96 106 96 96 106 96 96 105 96 96 105 96 96 105 96 96 105 95 95 105 95 95 105 95 95 105 95 95 105 95 95 105 95 95 105 95 95 105 95 95 105 95 95 105 95 95 104 95 95 104 95 95 104 95 95 104 95 95 104 95 95 104 94 94 104 94 94 104 94 94 104 94 94 104 94 94 104 94 94 104 94 94 104 94 94 103 94 94 103 94 94 103 94 94 103 94 94 103 94 94 103 94 94 103 93 93 103 93 93 103 
114 114 125 114 114 125 113 113 125 113 113 125 113 113 125 113 113 125 113 113 125 113 113 125 113 113 125 113 113 125 113 113 125 113 113 125 113 113 124 113 113 124 113 113 124 113 113 124 113 113 124 113 113 124 113 113 124 113 113 124 113 113 124 113 113 124 113 113 124 113 113 124 113 113 124 113 113 124 112 112 124 112 112 124 112 112 124 112 112 124 112 112 124 112 112 124 112 112 123 112 112 123 112 112 123 112 112 123 112 112 123 112 112 123 112 112 123 112 112 123 112 112 123 112 112 123 112 112 123 112 112 123 112 112 123 84 84 92 84 84 92 83 83 92 83 83 92 83 83 92 83 83 92 83 83 92 83 83 92 83 83 92 83 83 92 83 83 91 83 83 91 83 83 91 83 83 91 83 83 91 83 83 91 83 83 91 83 83 91 83 83 91 83 83 91 83 83 91 83 83 91 83 83 91 83 83 91 83 83 91 83 83 91 83 83 91 82 82 91 82 82 91 82 82 91 82 82 91 82 82 91 82 82 90 82 82 90 82 82 90 82 82 90 82 82 90 82 82 90 82 82 90 82 82 90 82 82 90 82 82 90 82 82 90 82 82 90 82 82 90 82 82 90 82 82 90 82 82 90 82 82 90 82 82 90 81 81 90 81 81 90 81 81 90 81 81 89 81 81 89 81 81 89 81 81 89 108 108 119 108 108 119 108 108 119 108 108 119 108 108 119 108 108 119 108 108 119 108 108 119 108 108 119 108 108 119 108 108 119 108 108 119 108 108 119 108 108 118 108 108 118 108 108 118 107 107 118 107 107 118 107 107 118 107 107 118 107 107 118 107 107 118 107 107 118 107 107 118 107 107 118 107 107 118 107 107 118 107 107 117 107 107 117 107 107 117 107 107 117 107 107 117 106 106 117 106 106 117 106 106 117 106 106 117 106 106 117 106 106 117 106 106 117 106 106 117 106 106 117 106 106 116 106 106 116 106 106 116 106 106 116 106 106 116 106 106 116 105 105 116 105 105 116 105 105 116 105 105 116 105 105 116 105 105 116 105 105 116 105 105 116 105 105 115 105 105 115 105 105 115 105 105 115 105 105 115 105 105 115 105 105 115 105 105 115 104 104 115 104 104 115 104 104 115 104 104 115 104 104 115 104 104 115 104 104 115 104 104 115 104 104 114 104 104 114 104 104 114 104 104 114 104 104 114 104 104 114 104 104 114 103 103 114 103 103 114 103 103 113 103 103 113 103 103 113 103 103 113 103 103 113 103 103 113 103 103 113 103 103 113 103 103 113 103 103 113 103 103 113 103 103 113 103 103 113 102 102 112 102 102 112 102 102 112 102 102 112 102 102 112 102 102 112 102 102 112 102 102 112 102 102 112 102 102 112 102 102 112 102 102 112 102 102 112 102 102 112 101 101 111 101 101 111 101 101 111 101 101 111 101 101 111 101 101 111 101 101 111 101 101 111 101 101 111 101 101 111 75 75 83 75 75 83 75 75 83 75 75 83 75 75 83 75 75 82 75 75 82 75 75 82 75 75 82 75 75 82 75 75 82 75 75 82 75 75 82 75 75 82 74 74 82 74 74 82 74 74 82 74 74 82 74 74 82 74 74 82 74 74 82 74 74 82 74 74 81 74 74 81 74 74 81 74 74 81 74 74 81 74 74 81 74 74 81 74 74 81 74 74 81 74 74 81 74 74 81 74 74 81 73 73 81 73 73 81 73 73 81 73 73 81 73 73 81 73 73 81 73 73 80 73 73 80 73 73 80 73 73 80 73 73 80 73 73 80 73 73 80 73 73 80 73 73 80 73 73 80 73 73 80 73 73 80 73 73 80 72 72 80 72 72 80 72 72 80 72 72 80 97 97 106 96 96 106 96 96 106 96 96 106 96 96 106 96 96 106 96 96 106 96 96 106 96 96 106 96 96 106 96 96 106 96 96 105 96 96 105 96 96 105 96 96 105 96 96 105 95 95 105 95 95 105 95 95 105 95 95 105 95 95 105 95 95 105 95 95 105 95 95 105 95 95 104 95 95 104 95 95 104 95 95 104 95 95 104 95 95 104 94 94 104 94 94 104 94 94 104 94 94 104 94 94 104 94 94 104 94 94 104 94 94 103 94 94 103 94 94 103 94 94 103 94 94 103 94 94 103 94 94 103 
114 114 125 113 113 125 113 113 125 113 113 125 113 113 125 113 113 125 113 113 125 113 113 125 113 113 125 113 113 125 113 113 125 113 113 124 113 113 124 113 113 124 113 113 124 113 113 124 113 113 124 113 113 124 113 113 124 113 113 124 113 113 124 113 113 124 113 113 124 113 113 124 112 112 124 112 112 124 112 112 124 112 112 124 112 112 124 112 112 124 112 112 124 112 112 123 112 112 123 112 112 123 112 112 123 112 112 123 112 112 123 112 112 123 112 112 123 112 112 123 112 112 123 112 112 123 112 112 123 84 84 92 84 84 92 84 84 92 83 83 92 83 83 92 83 83 92 83 83 92 83 83 92 83 83 92 83 83 92 83 83 92 83 83 91 83 83 91 83 83 91 83 83 91 83 83 91 83 83 91 83 83 91 83 83 91 83 83 91 83 83 91 83 83 91 83 83 91 83 83 91 83 83 91 83 83 91 83 83 91 83 83 91 82 82 91 82 82 91 82 82 91 82 82 91 82 82 91 82 82 91 82 82 90 82 82 90 82 82 90 82 82 90 82 82 90 82 82 90 82 82 90 82 82 90 82 82 90 82 82 90 82 82 90 82 82 90 82 82 90 82 82 90 82 82 90 82 82 90 82 82 90 81 81 90 81 81 90 81 81 90 81 81 90 81 81 89 81 81 89 81 81 89 108 108 119 108 108 119 108 108 119 108 108 119 108 108 119 108 108 119 108 108 119 108 108 119 108 108 119 108 108 119 108 108 119 108 108 119 108 108 119 108 108 118 108 108 118 108 108 118 108 108 118 107 107 118 107 107 118 107 107 118 107 107 118 107 107 118 107 107 118 107 107 118 107 107 118 107 107 118 107 107 118 107 107 118 107 107 117 107 107 117 107 107 117 107 107 117 107 107 117 106 106 117 106 106 117 106 106 117 106 106 117 106 106 117 106 106 117 106 106 117 106 106 117 106 106 117 106 106 116 106 106 116 106 106 116 106 106 116 106 106 116 106 106 116 106 106 116 105 105 116 105 105 116 105 105 116 105 105 116 105 105 116 105 105 116 105 105 116 105 105 116 105 105 115 105 105 115 105 105 115 105 105 115 105 105 115 105 105 115 105 105 115 105 105 115 104 104 115 104 104 115 104 104 115 104 104 115 104 104 115 104 104 115 104 104 115 104 104 114 104 104 114 104 104 114 104 104 114 104 104 114 104 104 114 104 104 114 104 104 114 103 103 114 103 103 113 103 103 113 103 103 113 103 103 113 103 103 113 103 103 113 103 103 113 103 103 113 103 103 113 103 103 113 103 103 113 103 103 113 103 103 113 103 103 113 102 102 112 102 102 112 102 102 112 102 102 112 102 102 112 102 102 112 102 102 112 102 102 112 102 102 112 102 102 112 102 102 112 102 102 112 102 102 112 102 102 112 102 102 112 101 101 111 101 101 111 101 101 111 101 101 111 101 101 111 101 101 111 101 101 111 101 101 111 101 101 111 75 75 83 75 75 83 75 75 83 75 75 83 75 75 83 75 75 82 75 75 82 75 75 82 75 75 82 75 75 82 75 75 82 75 75 82 75 75 82 75 75 82 74 74 82 74 74 82 74 74 82 74 74 82 74 74 82 74 74 82 74 74 82 74 74 82 74 74 82 74 74 81 74 74 81 74 74 81 74 74 81 74 74 81 74 74 81 74 74 81 74 74 81 74 74 81 74 74 81 74 74 81 74 74 81 73 73 81 73 73 81 73 73 81 73 73 81 73 73 81 73 73 80 73 73 80 73 73 80 73 73 80 73 73 80 73 73 80 73 73 80 73 73 80 73 73 80 73 73 80 73 73 80 73 73 80 73 73 80 73 73 80 72 72 80 72 72 80 72 72 80 72 72 80 97 97 106 96 96 106 96 96 106 96 96 106 96 96 106 96 96 106 96 96 106 96 96 106 96 96 106 96 96 106 96 96 106 96 96 106 96 96 105 96 96 105 96 96 105 96 96 105 95 95 105 95 95 105 95 95 105 95 95 105 95 95 105 95 95 105 95 95 105 95 95 105 95 95 105 95 95 104 95 95 104 95 95 104 95 95 104 95 95 104 94 94 104 94 94 104 94 94 104 94 94 104 94 94 104 94 94 104 94 94 104 94 94 104 94 94 103 94 94 103 94 94 103 94 94 103 
113 113 125 113 113 125 113 113 125 113 113 125 113 113 125 113 113 125 113 113 125 113 113 125 113 113 125 113 113 124 113 113 124 113 113 124 113 113 124 113 113 124 113 113 124 113 113 124 113 113 124 113 113 124 113 113 124 113 113 124 113 113 124 113 113 124 113 113 124 112 112 124 112 112 124 112 112 124 112 112 124 112 112 124 112 112 124 112 112 124 112 112 123 112 112 123 112 112 123 112 112 123 112 112 123 112 112 123 112 112 123 112 112 123 112 112 123 112 112 123 112 112 123 84 84 92 84 84 92 84 84 92 83 83 92 83 83 92 83 83 92 83 83 92 83 83 92 83 83 92 83 83 92 83 83 92 83 83 92 83 83 91 83 83 91 83 83 91 83 83 91 83 83 91 83 83 91 83 83 91 83 83 91 83 83 91 83 83 91 83 83 91 83 83 91 83 83 91 83 83 91 83 83 91 83 83 91 83 83 91 82 82 91 82 82 91 82 82 91 82 82 91 82 82 91 82 82 91 82 82 90 82 82 90 82 82 90 82 82 90 82 82 90 82 82 90 82 82 90 82 82 90 82 82 90 82 82 90 82 82 90 82 82 90 82 82 90 82 82 90 82 82 90 82 82 90 82 82 90 82 82 90 81 81 90 81 81 90 81 81 90 81 81 89 81 81 89 81 81 89 81 81 89 108 108 119 108 108 119 108 108 119 108 108 119 108 108 119 108 108 119 108 108 119 108 108 119 108 108 119 108 108 119 108 108 119 108 108 119 108 108 119 108 108 118 108 108 118 108 108 118 108 108 118 107 107 118 107 107 118 107 107 118 107 107 118 107 107 118 107 107 118 107 107 118 107 107 118 107 107 118 107 107 118 107 107 118 107 107 117 107 107 117 107 107 117 107 107 117 107 107 117 106 106 117 106 106 117 106 106 117 106 106 117 106 106 117 106 106 117 106 106 117 106 106 117 106 106 117 106 106 117 106 106 116 106 106 116 106 106 116 106 106 116 106 106 116 106 106 116 105 105 116 105 105 116 105 105 116 105 105 116 105 105 116 105 105 116 105 105 116 105 105 116 105 105 115 105 105 115 105 105 115 105 105 115 105 105 115 105 105 115 105 105 115 105 105 115 104 104 115 104 104 115 104 104 115 104 104 115 104 104 115 104 104 115 104 104 115 104 104 115 104 104 114 104 104 114 104 104 114 104 104 114 104 104 114 104 104 114 104 104 114 103 103 114 103 103 114 103 103 113 103 103 113 103 103 113 103 103 113 103 103 113 103 103 113 103 103 113 103 103 113 103 103 113 103 103 113 103 103 113 103 103 113 103 103 113 103 103 113 102 102 112 102 102 112 102 102 112 102 102 112 102 102 112 102 102 112 102 102 112 102 102 112 102 102 112 102 102 112 102 102 112 102 102 112 102 102 112 102 102 112 102 102 112 101 101 111 101 101 111 101 101 111 101 101 111 101 101 111 101 101 111 101 101 111 101 101 111 75 75 83 75 75 83 75 75 83 75 75 83 75 75 83 75 75 83 75 75 83 75 75 82 75 75 82 75 75 82 75 75 82 75 75 82 75 75 82 75 75 82 75 75 82 75 75 82 74 74 82 74 74 82 74 74 82 74 74 82 74 74 82 74 74 82 74 74 82 74 74 82 74 74 81 74 74 81 74 74 81 74 74 81 74 74 81 74 74 81 74 74 81 74 74 81 74 74 81 74 74 81 74 74 81 74 74 81 73 73 81 73 73 81 73 73 81 73 73 81 73 73 81 73 73 81 73 73 80 73 73 80 73 73 80 73 73 80 73 73 80 73 73 80 73 73 80 73 73 80 73 73 80 73 73 80 73 73 80 73 73 80 73 73 80 72 72 80 72 72 80 72 72 80 72 72 80 72 72 80 97 97 106 96 96 106 96 96 106 96 96 106 96 96 106 96 96 106 96 96 106 96 96 106 96 96 106 96 96 106 96 96 106 96 96 106 96 96 105 96 96 105 96 96 105 96 96 105 95 95 105 95 95 105 95 95 105 95 95 105 95 95 105 95 95 105 95 95 105 95 95 105 95 95 105 95 95 104 95 95 104 95 95 104 95 95 104 95 95 104 95 95 104 94 94 104 94 94 104 94 94 104 94 94 104 94 94 104 94 94 104 94 94 104 94 94 104 94 94 103 
113 113 125 113 113 125 113 113 125 113 113 125 113 113 125 113 113 125 113 113 125 113 113 125 113 113 124 113 113 124 113 113 124 113 113 124 113 113 124 113 113 124 113 113 124 113 113 124 113 113 124 113 113 124 113 113 124 113 113 124 113 113 124 113 113 124 112 112 124 112 112 124 112 112 124 112 112 124 112 112 124 112 112 124 112 112 124 112 112 123 112 112 123 112 112 123 112 112 123 112 112 123 112 112 123 112 112 123 112 112 123 112 112 123 112 112 123 84 84 92 84 84 92 84 84 92 84 84 92 83 83 92 83 83 92 83 83 92 83 83 92 83 83 92 83 83 92 83 83 92 83 83 92 83 83 92 83 83 91 83 83 91 83 83 91 83 83 91 83 83 91 83 83 91 83 83 91 83 83 91 83 83 91 83 83 91 83 83 91 83 83 91 83 83 91 83 83 91 83 83 91 83 83 91 83 83 91 82 82 91 82 82 91 82 82 91 82 82 91 82 82 91 82 82 91 82 82 90 82 82 90 82 82 90 82 82 90 82 82 90 82 82 90 82 82 90 82 82 90 82 82 90 82 82 90 82 82 90 82 82 90 82 82 90 82 82 90 82 82 90 82 82 90 82 82 90 82 82 90 81 81 90 81 81 90 81 81 90 81 81 90 81 81 89 81 81 89 81 81 89 108 108 119 108 108 119 108 108 119 108 108 119 108 108 119 108 108 119 108 108 119 108 108 119 108 108 119 108 108 119 108 108 119 108 108 119 108 108 119 108 108 119 108 108 118 108 108 118 108 108 118 107 107 118 107 107 118 107 107 118 107 107 118 107 107 118 107 107 118 107 107 118 107 107 118 107 107 118 107 107 118 107 107 118 107 107 118 107 107 117 107 107 117 107 107 117 107 107 117 107 107 117 106 106 117 106 106 117 106 106 117 106 106 117 106 106 117 106 106 117 106 106 117 106 106 117 106 106 117 106 106 117 106 106 116 106 106 116 106 106 116 106 106 116 106 106 116 106 106 116 105 105 116 105 105 116 105 105 116 105 105 116 105 105 116 105 105 116 105 105 116 105 105 116 105 105 115 105 105 115 105 105 115 105 105 115 105 105 115 105 105 115 105 105 115 105 105 115 105 105 115 104 104 115 104 104 115 104 104 115 104 104 115 104 104 115 104 104 115 104 104 115 104 104 114 104 104 114 104 104 114 104 104 114 104 104 114 104 104 114 104 104 114 104 104 114 103 103 114 103 103 114 103 103 113 103 103 113 103 103 113 103 103 113 103 103 113 103 103 113 103 103 113 103 103 113 103 103 113 103 103 113 103 103 113 103 103 113 103 103 113 103 103 113 102 102 112 102 102 112 102 102 112 102 102 112 102 102 112 102 102 112 102 102 112 102 102 112 102 102 112 102 102 112 102 102 112 102 102 112 102 102 112 102 102 112 102 102 112 101 101 111 101 101 111 101 101 111 101 101 111 101 101 111 101 101 111 101 101 111 101 101 111 75 75 83 75 75 83 75 75 83 75 75 83 75 75 83 75 75 83 75 75 83 75 75 82 75 75 82 75 75 82 75 75 82 75 75 82 75 75 82 75 75 82 75 75 82 75 75 82 74 74 82 74 74 82 74 74 82 74 74 82 74 74 82 74 74 82 74 74 82 74 74 82 74 74 82 74 74 81 74 74 81 74 74 81 74 74 81 74 74 81 74 74 81 74 74 81 74 74 81 74 74 81 74 74 81 74 74 81 74 74 81 73 73 81 73 73 81 73 73 81 73 73 81 73 73 81 73 73 81 73 73 80 73 73 80 73 73 80 73 73 80 73 73 80 73 73 80 73 73 80 73 73 80 73 73 80 73 73 80 73 73 80 73 73 80 73 73 80 72 72 80 72 72 80 72 72 80 72 72 80 72 72 80 97 97 106 96 96 106 96 96 106 96 96 106 96 96 106 96 96 106 96 96 106 96 96 106 96 96 106 96 96 106 96 96 106 96 96 106 96 96 105 96 96 105 96 96 105 96 96 105 96 96 105 95 95 105 95 95 105 95 95 105 95 95 105 95 95 105 95 95 105 95 95 105 95 95 105 95 95 105 95 95 104 95 95 104 95 95 104 95 95 104 95 95 104 95 95 104 94 94 104 94 94 104 94 94 104 94 94 104 94 94 104 94 94 104 
113 113 125 113 113 125 113 113 125 113 113 125 113 113 125 113 113 125 113 113 124 113 113 124 113 113 124 113 113 124 113 113 124 113 113 124 113 113 124 113 113 124 113 113 124 113 113 124 113 113 124 113 113 124 113 113 124 113 113 124 112 112 124 112 112 124 112 112 124 112 112 124 112 112 124 112 112 124 112 112 124 112 112 123 112 112 123 112 112 123 112 112 123 112 112 123 112 112 123 112 112 123 112 112 123 112 112 123 112 112 123 84 84 92 84 84 92 84 84 92 84 84 92 84 84 92 83 83 92 83 83 92 83 83 92 83 83 92 83 83 92 83 83 92 83 83 92 83 83 92 83 83 92 83 83 91 83 83 91 83 83 91 83 83 91 83 83 91 83 83 91 83 83 91 83 83 91 83 83 91 83 83 91 83 83 91 83 83 91 83 83 91 83 83 91 83 83 91 83 83 91 83 83 91 82 82 91 82 82 91 82 82 91 82 82 91 82 82 91 82 82 91 82 82 90 82 82 90 82 82 90 82 82 90 82 82 90 82 82 90 82 82 90 82 82 90 82 82 90 82 82 90 82 82 90 82 82 90 82 82 90 82 82 90 82 82 90 82 82 90 82 82 90 82 82 90 81 81 90 81 81 90 81 81 90 81 81 90 81 81 89 81 81 89 81 81 89 109 109 119 108 108 119 108 108 119 108 108 119 108 108 119 108 108 119 108 108 119 108 108 119 108 108 119 108 108 119 108 108 119 108 108 119 108 108 119 108 108 119 108 108 119 108 108 118 108 108 118 108 108 118 107 107 118 107 107 118 107 107 118 107 107 118 107 107 118 107 107 118 107 107 118 107 107 118 107 107 118 107 107 118 107 107 118 107 107 118 107 107 117 107 107 117 107 107 117 107 107 117 107 107 117 106 106 117 106 106 117 106 106 117 106 106 117 106 106 117 106 106 117 106 106 117 106 106 117 106 106 117 106 106 117 106 106 116 106 106 116 106 106 116 106 106 116 106 106 116 106 106 116 105 105 116 105 105 116 105 105 116 105 105 116 105 105 116 105 105 116 105 105 116 105 105 116 105 105 115 105 105 115 105 105 115 105 105 115 105 105 115 105 105 115 105 105 115 105 105 115 105 105 115 104 104 115 104 104 115 104 104 115 104 104 115 104 104 115 104 104 115 104 104 115 104 104 115 104 104 114 104 104 114 104 104 114 104 104 114 104 104 114 104 104 114 104 104 114 104 104 114 103 103 114 103 103 113 103 103 113 103 103 113 103 103 113 103 103 113 103 103 113 103 103 113 103 103 113 103 103 113 103 103 113 103 103 113 103 103 113 103 103 113 103 103 113 102 102 112 102 102 112 102 102 112 102 102 112 102 102 112 102 102 112 102 102 112 102 102 112 102 102 112 102 102 112 102 102 112 102 102 112 102 102 112 102 102 112 102 102 112 102 102 112 101 101 111 101 101 111 101 101 111 101 101 111 101 101 111 101 101 111 101 101 111 101 101 111 75 75 83 75 75 83 75 75 83 75 75 83 75 75 83 75 75 83 75 75 83 75 75 82 75 75 82 75 75 82 75 75 82 75 75 82 75 75 82 75 75 82 75 75 82 75 75 82 74 74 82 74 74 82 74 74 82 74 74 82 74 74 82 74 74 82 74 74 82 74 74 82 74 74 82 74 74 82 74 74 81 74 74 81 74 74 81 74 74 81 74 74 81 74 74 81 74 74 81 74 74 81 74 74 81 74 74 81 74 74 81 74 74 81 73 73 81 73 73 81 73 73 81 73 73 81 73 73 81 73 73 81 73 73 80 73 73 80 73 73 80 73 73 80 73 73 80 73 73 80 73 73 80 73 73 80 73 73 80 73 73 80 73 73 80 73 73 80 73 73 80 72 72 80 72 72 80 72 72 80 72 72 80 72 72 80 97 97 106 97 97 106 96 96 106 96 96 106 96 96 106 96 96 106 96 96 106 96 96 106 96 96 106 96 96 106 96 96 106 96 96 106 96 96 105 96 96 105 96 96 105 96 96 105 96 96 105 95 95 105 95 95 105 95 95 105 95 95 105 95 95 105 95 95 105 95 95 105 95 95 105 95 95 105 95 95 104 95 95 104 95 95 104 95 95 104 95 95 104 95 95 104 94 94 104 94 94 104 94 94 104 94 94 104 
113 113 125 113 113 125 113 113 125 113 113 125 113 113 124 113 113 124 113 113 124 113 113 124 113 113 124 113 113 124 113 113 124 113 113 124 113 113 124 113 113 124 113 113 124 113 113 124 113 113 124 113 113 124 113 113 124 112 112 124 112 112 124 112 112 124 112 112 124 112 112 124 112 112 124 112 112 123 112 112 123 112 112 123 112 112 123 112 112 123 112 112 123 112 112 123 112 112 123 112 112 123 112 112 123 112 112 123 84 84 92 84 84 92 84 84 92 84 84 92 84 84 92 83 83 92 83 83 92 83 83 92 83 83 92 83 83 92 83 83 92 83 83 92 83 83 92 83 83 91 83 83 91 83 83 91 83 83 91 83 83 91 83 83 91 83 83 91 83 83 91 83 83 91 83 83 91 83 83 91 83 83 91 83 83 91 83 83 91 83 83 91 83 83 91 83 83 91 83 83 91 82 82 91 82 82 91 82 82 91 82 82 91 82 82 91 82 82 91 82 82 90 82 82 90 82 82 90 82 82 90 82 82 90 82 82 90 82 82 90 82 82 90 82 82 90 82 82 90 82 82 90 82 82 90 82 82 90 82 82 90 82 82 90 82 82 90 82 82 90 82 82 90 82 82 90 81 81 90 81 81 90 81 81 90 81 81 90 81 81 89 81 81 89 109 109 119 108 108 119 108 108 119 108 108 119 108 108 119 108 108 119 108 108 119 108 108 119 108 108 119 108 108 119 108 108 119 108 108 119 108 108 119 108 108 119 108 108 119 108 108 118 108 108 118 108 108 118 108 108 118 107 107 118 107 107 118 107 107 118 107 107 118 107 107 118 107 107 118 107 107 118 107 107 118 107 107 118 107 107 118 107 107 118 107 107 118 107 107 117 107 107 117 107 107 117 107 107 117 107 107 117 106 106 117 106 106 117 106 106 117 106 106 117 106 106 117 106 106 117 106 106 117 106 106 117 106 106 117 106 106 117 106 106 116 106 106 116 106 106 116 106 106 116 106 106 116 106 106 116 106 106 116 105 105 116 105 105 116 105 105 116 105 105 116 105 105 116 105 105 116 105 105 116 105 105 116 105 105 115 105 105 115 105 105 115 105 105 115 105 105 115 105 105 115 105 105 115 105 105 115 104 104 115 104 104 115 104 104 115 104 104 115 104 104 115 104 104 115 104 104 115 104 104 115 104 104 114 104 104 114 104 104 114 104 104 114 104 104 114 104 104 114 104 104 114 104 104 114 103 103 114 103 103 114 103 103 113 103 103 113 103 103 113 103 103 113 103 103 113 103 103 113 103 103 113 103 103 113 103 103 113 103 103 113 103 103 113 103 103 113 103 103 113 103 103 113 102 102 112 102 102 112 102 102 112 102 102 112 102 102 112 102 102 112 102 102 112 102 102 112 102 102 112 102 102 112 102 102 112 102 102 112 102 102 112 102 102 112 102 102 112 102 102 112 101 101 111 101 101 111 101 101 111 101 101 111 101 101 111 101 101 111 101 101 111 101 101 111 75 75 83 75 75 83 75 75 83 75 75 83 75 75 83 75 75 83 75 75 83 75 75 82 75 75 82 75 75 82 75 75 82 75 75 82 75 75 82 75 75 82 75 75 82 75 75 82 75 75 82 74 74 82 74 74 82 74 74 82 74 74 82 74 74 82 74 74 82 74 74 82 74 74 82 74 74 82 74 74 81 74 74 81 74 74 81 74 74 81 74 74 81 74 74 81 74 74 81 74 74 81 74 74 81 74 74 81 74 74 81 74 74 81 73 73 81 73 73 81 73 73 81 73 73 81 73 73 81 73 73 81 73 73 80 73 73 80 73 73 80 73 73 80 73 73 80 73 73 80 73 73 80 73 73 80 73 73 80 73 73 80 73 73 80 73 73 80 73 73 80 73 73 80 72 72 80 72 72 80 72 72 80 72 72 80 97 97 106 97 97 106 97 97 106 96 96 106 96 96 106 96 96 106 96 96 106 96 96 106 96 96 106 96 96 106 96 96 106 96 96 106 96 96 106 96 96 105 96 96 105 96 96 105 96 96 105 96 96 105 95 95 105 95 95 105 95 95 105 95 95 105 95 95 105 95 95 105 95 95 105 95 95 105 95 95 105 95 95 104 95 95 104 95 95 104 95 95 104 95 95 104 95 95 104 95 95 104 94 94 104 
113 113 125 113 113 125 113 113 125 113 113 124 113 113 124 113 113 124 113 113 124 113 113 124 113 113 124 113 113 124 113 113 124 113 113 124 113 113 124 113 113 124 113 113 124 113 113 124 113 113 124 112 112 124 112 112 124 112 112 124 112 112 124 112 112 124 112 112 124 112 112 124 112 112 123 112 112 123 112 112 123 112 112 123 112 112 123 112 112 123 112 112 123 112 112 123 112 112 123 112 112 123 84 84 92 84 84 92 84 84 92 84 84 92 84 84 92 84 84 92 83 83 92 83 83 92 83 83 92 83 83 92 83 83 92 83 83 92 83 83 92 83 83 92 83 83 91 83 83 91 83 83 91 83 83 91 83 83 91 83 83 91 83 83 91 83 83 91 83 83 91 83 83 91 83 83 91 83 83 91 83 83 91 83 83 91 83 83 91 83 83 91 83 83 91 83 83 91 82 82 91 82 82 91 82 82 91 82 82 91 82 82 91 82 82 91 82 82 90 82 82 90 82 82 90 82 82 90 82 82 90 82 82 90 82 82 90 82 82 90 82 82 90 82 82 90 82 82 90 82 82 90 82 82 90 82 82 90 82 82 90 82 82 90 82 82 90 82 82 90 82 82 90 81 81 90 81 81 90 81 81 90 81 81 90 81 81 89 81 81 89 109 109 119 109 109 119 108 108 119 108 108 119 108 108 119 108 108 119 108 108 119 108 108 119 108 108 119 108 108 119 108 108 119 108 108 119 108 108 119 108 108 119 108 108 119 108 108 119 108 108 118 108 108 118 108 108 118 107 107 118 107 107 118 107 107 118 107 107 118 107 107 118 107 107 118 107 107 118 107 107 118 107 107 118 107 107 118 107 107 118 107 107 118 107 107 118 107 107 117 107 107 117 107 107 117 107 107 117 107 107 117 106 106 117 106 106 117 106 106 117 106 106 117 106 106 117 106 106 117 106 106 117 106 106 117 106 106 117 106 106 117 106 106 116 106 106 116 106 106 116 106 106 116 106 106 116 106 106 116 106 106 116 105 105 116 105 105 116 105 105 116 105 105 116 105 105 116 105 105 116 105 105 116 105 105 116 105 105 115 105 105 115 105 105 115 105 105 115 105 105 115 105 105 115 105 105 115 105 105 115 105 105 115 104 104 115 104 104 115 104 104 115 104 104 115 104 104 115 104 104 115 104 104 115 104 104 115 104 104 114 104 104 114 104 104 114 104 104 114 104 104 114 104 104 114 104 104 114 104 104 114 103 103 114 103 103 114 103 103 113 103 103 113 103 103 113 103 103 113 103 103 113 103 103 113 103 103 113 103 103 113 103 103 113 103 103 113 103 103 113 103 103 113 103 103 113 103 103 113 102 102 112 102 102 112 102 102 112 102 102 112 102 102 112 102 102 112 102 102 112 102 102 112 102 102 112 102 102 112 102 102 112 102 102 112 102 102 112 102 102 112 102 102 112 102 102 112 101 101 111 101 101 111 101 101 111 101 101 111 101 101 111 101 101 111 101 101 111 101 101 111 75 75 83 75 75 83 75 75 83 75 75 83 75 75 83 75 75 83 75 75 83 75 75 83 75 75 82 75 75 82 75 75 82 75 75 82 75 75 82 75 75 82 75 75 82 75 75 82 75 75 82 74 74 82 74 74 82 74 74 82 74 74 82 74 74 82 74 74 82 74 74 82 74 74 82 74 74 82 74 74 82 74 74 81 74 74 81 74 74 81 74 74 81 74 74 81 74 74 81 74 74 81 74 74 81 74 74 81 74 74 81 74 74 81 74 74 81 73 73 81 73 73 81 73 73 81 73 73 81 73 73 81 73 73 81 73 73 80 73 73 80 73 73 80 73 73 80 73 73 80 73 73 80 73 73 80 73 73 80 73 73 80 73 73 80 73 73 80 73 73 80 73 73 80 73 73 80 72 72 80 72 72 80 72 72 80 72 72 80 97 97 106 97 97 106 97 97 106 96 96 106 96 96 106 96 96 106 96 96 106 96 96 106 96 96 106 96 96 106 96 96 106 96 96 106 96 96 106 96 96 106 96 96 105 96 96 105 96 96 105 96 96 105 95 95 105 95 95 105 95 95 105 95 95 105 95 95 105 95 95 105 95 95 105 95 95 105 95 95 105 95 95 105 95 95 104 95 95 104 95 95 104 95 95 104 95 95 104 
113 113 125 113 113 124 113 113 124 113 113 124 113 113 124 113 113 124 113 113 124 113 113 124 113 113 124 113 113 124 113 113 124 113 113 124 113 113 124 113 113 124 113 113 124 113 113 124 112 112 124 112 112 124 112 112 124 112 112 124 112 112 124 112 112 124 112 112 124 112 112 123 112 112 123 112 112 123 112 112 123 112 112 123 112 112 123 112 112 123 112 112 123 112 112 123 84 84 92 84 84 92 84 84 92 84 84 92 84 84 92 84 84 92 83 83 92 83 83 92 83 83 92 83 83 92 83 83 92 83 83 92 83 83 92 83 83 92 83 83 92 83 83 91 83 83 91 83 83 91 83 83 91 83 83 91 83 83 91 83 83 91 83 83 91 83 83 91 83 83 91 83 83 91 83 83 91 83 83 91 83 83 91 83 83 91 83 83 91 83 83 91 83 83 91 82 82 91 82 82 91 82 82 91 82 82 91 82 82 91 82 82 91 82 82 90 82 82 90 82 82 90 82 82 90 82 82 90 82 82 90 82 82 90 82 82 90 82 82 90 82 82 90 82 82 90 82 82 90 82 82 90 82 82 90 82 82 90 82 82 90 82 82 90 82 82 90 82 82 90 82 82 90 81 81 90 81 81 90 81 81 90 81 81 89 81 81 89 109 109 119 109 109 119 108 108 119 108 108 119 108 108 119 108 108 119 108 108 119 108 108 119 108 108 119 108 108 119 108 108 119 108 108 119 108 108 119 108 108 119 108 108 119 108 108 119 108 108 119 108 108 118 108 108 118 108 108 118 107 107 118 107 107 118 107 107 118 107 107 118 107 107 118 107 107 118 107 107 118 107 107 118 107 107 118 107 107 118 107 107 118 107 107 118 107 107 117 107 107 117 107 107 117 107 107 117 107 107 117 107 107 117 106 106 117 106 106 117 106 106 117 106 106 117 106 106 117 106 106 117 106 106 117 106 106 117 106 106 117 106 106 117 106 106 116 106 106 116 106 106 116 106 106 116 106 106 116 106 106 116 106 106 116 105 105 116 105 105 116 105 105 116 105 105 116 105 105 116 105 105 116 105 105 116 105 105 116 105 105 115 105 105 115 105 105 115 105 105 115 105 105 115 105 105 115 105 105 115 105 105 115 105 105 115 104 104 115 104 104 115 104 104 115 104 104 115 104 104 115 104 104 115 104 104 115 104 104 115 104 104 114 104 104 114 104 104 114 104 104 114 104 104 114 104 104 114 104 104 114 104 104 114 103 103 114 103 103 114 103 103 113 103 103 113 103 103 113 103 103 113 103 103 113 103 103 113 103 103 113 103 103 113 103 103 113 103 103 113 103 103 113 103 103 113 103 103 113 103 103 113 103 103 113 102 102 112 102 102 112 102 102 112 102 102 112 102 102 112 102 102 112 102 102 112 102 102 112 102 102 112 102 102 112 102 102 112 102 102 112 102 102 112 102 102 112 102 102 112 102 102 112 101 101 111 101 101 111 101 101 111 101 101 111 101 101 111 101 101 111 101 101 111 101 101 111 75 75 83 75 75 83 75 75 83 75 75 83 75 75 83 75 75 83 75 75 83 75 75 83 75 75 82 75 75 82 75 75 82 75 75 82 75 75 82 75 75 82 75 75 82 75 75 82 75 75 82 74 74 82 74 74 82 74 74 82 74 74 82 74 74 82 74 74 82 74 74 82 74 74 82 74 74 82 74 74 82 74 74 81 74 74 81 74 74 81 74 74 81 74 74 81 74 74 81 74 74 81 74 74 81 74 74 81 74 74 81 74 74 81 74 74 81 73 73 81 73 73 81 73 73 81 73 73 81 73 73 81 73 73 81 73 73 81 73 73 80 73 73 80 73 73 80 73 73 80 73 73 80 73 73 80 73 73 80 73 73 80 73 73 80 73 73 80 73 73 80 73 73 80 73 73 80 73 73 80 72 72 80 72 72 80 72 72 80 72 72 80 97 97 106 97 97 106 97 97 106 96 96 106 96 96 106 96 96 106 96 96 106 96 96 106 96 96 106 96 96 106 96 96 106 96 96 106 96 96 106 96 96 105 96 96 105 96 96 105 96 96 105 96 96 105 95 95 105 95 95 105 95 95 105 95 95 105 95 95 105 95 95 105 95 95 105 95 95 105 95 95 105 95 95 105 95 95 104 95 95 104 95 95 104 
113 113 124 113 113 124 113 113 124 113 113 124 113 113 124 113 113 124 113 113 124 113 113 124 113 113 124 113 113 124 113 113 124 113 113 124 113 113 124 113 113 124 112 112 124 112 112 124 112 112 124 112 112 124 112 112 124 112 112 124 112 112 124 112 112 123 112 112 123 112 112 123 112 112 123 112 112 123 112 112 123 112 112 123 112 112 123 112 112 123 84 84 92 84 84 92 84 84 92 84 84 92 84 84 92 84 84 92 84 84 92 83 83 92 83 83 92 83 83 92 83 83 92 83 83 92 83 83 92 83 83 92 83 83 92 83 83 92 83 83 91 83 83 91 83 83 91 83 83 91 83 83 91 83 83 91 83 83 91 83 83 91 83 83 91 83 83 91 83 83 91 83 83 91 83 83 91 83 83 91 83 83 91 83 83 91 83 83 91 83 83 91 82 82 91 82 82 91 82 82 91 82 82 91 82 82 91 82 82 91 82 82 91 82 82 90 82 82 90 82 82 90 82 82 90 82 82 90 82 82 90 82 82 90 82 82 90 82 82 90 82 82 90 82 82 90 82 82 90 82 82 90 82 82 90 82 82 90 82 82 90 82 82 90 82 82 90 82 82 90 81 81 90 81 81 90 81 81 90 81 81 90 81 81 89 109 109 119 109 109 119 108 108 119 108 108 119 108 108 119 108 108 119 108 108 119 108 108 119 108 108 119 108 108 119 108 108 119 108 108 119 108 108 119 108 108 119 108 108 119 108 108 119 108 108 119 108 108 118 108 108 118 108 108 118 108 108 118 107 107 118 107 107 118 107 107 118 107 107 118 107 107 118 107 107 118 107 107 118 107 107 118 107 107 118 107 107 118 107 107 118 107 107 118 107 107 117 107 107 117 107 107 117 107 107 117 107 107 117 106 106 117 106 106 117 106 106 117 106 106 117 106 106 117 106 106 117 106 106 117 106 106 117 106 106 117 106 106 117 106 106 117 106 106 116 106 106 116 106 106 116 106 106 116 106 106 116 106 106 116 106 106 116 105 105 116 105 105 116 105 105 116 105 105 116 105 105 116 105 105 116 105 105 116 105 105 116 105 105 115 105 105 115 105 105 115 105 105 115 105 105 115 105 105 115 105 105 115 105 105 115 105 105 115 104 104 115 104 104 115 104 104 115 104 104 115 104 104 115 104 104 115 104 104 115 104 104 115 104 104 115 104 104 114 104 104 114 104 104 114 104 104 114 104 104 114 104 104 114 104 104 114 104 104 114 103 103 114 103 103 114 103 103 113 103 103 113 103 103 113 103 103 113 103 103 113 103 103 113 103 103 113 103 103 113 103 103 113 103 103 113 103 103 113 103 103 113 103 103 113 103 103 113 102 102 112 102 102 112 102 102 112 102 102 112 102 102 112 102 102 112 102 102 112 102 102 112 102 102 112 102 102 112 102 102 112 102 102 112 102 102 112 102 102 112 102 102 112 102 102 112 102 102 112 101 101 111 101 101 111 101 101 111 101 101 111 101 101 111 101 101 111 101 101 111 101 101 111 75 75 83 75 75 83 75 75 83 75 75 83 75 75 83 75 75 83 75 75 83 75 75 83 75 75 82 75 75 82 75 75 82 75 75 82 75 75 82 75 75 82 75 75 82 75 75 82 75 75 82 75 75 82 74 74 82 74 74 82 74 74 82 74 74 82 74 74 82 74 74 82 74 74 82 74 74 82 74 74 82 74 74 81 74 74 81 74 74 81 74 74 81 74 74 81 74 74 81 74 74 81 74 74 81 74 74 81 74 74 81 74 74 81 74 74 81 74 74 81 73 73 81 73 73 81 73 73 81 73 73 81 73 73 81 73 73 81 73 73 80 73 73 80 73 73 80 73 73 80 73 73 80 73 73 80 73 73 80 73 73 80 73 73 80 73 73 80 73 73 80 73 73 80 73 73 80 73 73 80 73 73 80 72 72 80 72 72 80 72 72 80 72 72 80 97 97 106 97 97 106 96 96 106 96 96 106 96 96 106 96 96 106 96 96 106 96 96 106 96 96 106 96 96 106 96 96 106 96 96 106 96 96 106 96 96 106 96 96 105 96 96 105 96 96 105 96 96 105 96 96 105 95 95 105 95 95 105 95 95 105 95 95 105 95 95 105 95 95 105 95 95 105 95 95 105 95 95 105 95 95 104 
113 113 124 113 113 124 113 113 124 113 113 124 113 113 124 113 113 124 113 113 124 113 113 124 113 113 124 113 113 124 113 113 124 113 113 124 112 112 124 112 112 124 112 112 124 112 112 124 112 112 124 112 112 124 112 112 124 112 112 123 112 112 123 112 112 123 112 112 123 112 112 123 112 112 123 112 112 123 112 112 123 112 112 123 112 112 123 84 84 92 84 84 92 84 84 92 84 84 92 84 84 92 84 84 92 84 84 92 83 83 92 83 83 92 83 83 92 83 83 92 83 83 92 83 83 92 83 83 92 83 83 92 83 83 91 83 83 91 83 83 91 83 83 91 83 83 91 83 83 91 83 83 91 83 83 91 83 83 91 83 83 91 83 83 91 83 83 91 83 83 91 83 83 91 83 83 91 83 83 91 83 83 91 83 83 91 83 83 91 82 82 91 82 82 91 82 82 91 82 82 91 82 82 91 82 82 91 82 82 90 82 82 90 82 82 90 82 82 90 82 82 90 82 82 90 82 82 90 82 82 90 82 82 90 82 82 90 82 82 90 82 82 90 82 82 90 82 82 90 82 82 90 82 82 90 82 82 90 82 82 90 82 82 90 82 82 90 81 81 90 81 81 90 81 81 90 81 81 90 81 81 89 109 109 120 109 109 119 109 109 119 108 108 119 108 108 119 108 108 119 108 108 119 108 108 119 108 108 119 108 108 119 108 108 119 108 108 119 108 108 119 108 108 119 108 108 119 108 108 119 108 108 119 108 108 119 108 108 118 108 108 118 108 108 118 107 107 118 107 107 118 107 107 118 107 107 118 107 107 118 107 107 118 107 107 118 107 107 118 107 107 118 107 107 118 107 107 118 107 107 118 107 107 118 107 107 117 107 107 117 107 107 117 107 107 117 107 107 117 106 106 117 106 106 117 106 106 117 106 106 117 106 106 117 106 106 117 106 106 117 106 106 117 106 106 117 106 106 117 106 106 117 106 106 116 106 106 116 106 106 116 106 106 116 106 106 116 106 106 116 106 106 116 105 105 116 105 105 116 105 105 116 105 105 116 105 105 116 105 105 116 105 105 116 105 105 116 105 105 116 105 105 115 105 105 115 105 105 115 105 105 115 105 105 115 105 105 115 105 105 115 105 105 115 104 104 115 104 104 115 104 104 115 104 104 115 104 104 115 104 104 115 104 104 115 104 104 115 104 104 115 104 104 114 104 104 114 104 104 114 104 104 114 104 104 114 104 104 114 104 104 114 104 104 114 103 103 114 103 103 114 103 103 113 103 103 113 103 103 113 103 103 113 103 103 113 103 103 113 103 103 113 103 103 113 103 103 113 103 103 113 103 103 113 103 103 113 103 103 113 103 103 113 103 103 113 102 102 112 102 102 112 102 102 112 102 102 112 102 102 112 102 102 112 102 102 112 102 102 112 102 102 112 102 102 112 102 102 112 102 102 112 102 102 112 102 102 112 102 102 112 102 102 112 102 102 112 101 101 111 101 101 111 101 101 111 101 101 111 101 101 111 101 101 111 101 101 111 101 101 111 75 75 83 75 75 83 75 75 83 75 75 83 75 75 83 75 75 83 75 75 83 75 75 83 75 75 82 75 75 82 75 75 82 75 75 82 75 75 82 75 75 82 75 75 82 75 75 82 75 75 82 75 75 82 74 74 82 74 74 82 74 74 82 74 74 82 74 74 82 74 74 82 74 74 82 74 74 82 74 74 82 74 74 82 74 74 81 74 74 81 74 74 81 74 74 81 74 74 81 74 74 81 74 74 81 74 74 81 74 74 81 74 74 81 74 74 81 74 74 81 74 74 81 73 73 81 73 73 81 73 73 81 73 73 81 73 73 81 73 73 81 73 73 80 73 73 80 73 73 80 73 73 80 73 73 80 73 73 80 73 73 80 73 73 80 73 73 80 73 73 80 73 73 80 73 73 80 73 73 80 73 73 80 73 73 80 72 72 80 72 72 80 72 72 80 97 97 106 97 97 106 97 97 106 96 96 106 96 96 106 96 96 106 96 96 106 96 96 106 96 96 106 96 96 106 96 96 106 96 96 106 96 96 106 96 96 106 96 96 106 96 96 105 96 96 105 96 96 105 96 96 105 96 96 105 95 95 105 95 95 105 95 95 105 95 95 105 95 95 105 95 95 105 95 95 105 95 95 105 
113 113 124 113 113 124 113 113 124 113 113 124 113 113 124 113 113 124 113 113 124 113 113 124 113 113 124 113 113 124 113 113 124 112 112 124 112 112 124 112 112 124 112 112 124 112 112 124 112 112 124 112 112 124 112 112 123 112 112 123 112 112 123 112 112 123 112 112 123 112 112 123 112 112 123 112 112 123 112 112 123 84 84 92 84 84 92 84 84 92 84 84 92 84 84 92 84 84 92 84 84 92 83 83 92 83 83 92 83 83 92 83 83 92 83 83 92 83 83 92 83 83 92 83 83 92 83 83 92 83 83 91 83 83 91 83 83 91 83 83 91 83 83 91 83 83 91 83 83 91 83 83 91 83 83 91 83 83 91 83 83 91 83 83 91 83 83 91 83 83 91 83 83 91 83 83 91 83 83 91 83 83 91 83 83 91 82 82 91 82 82 91 82 82 91 82 82 91 82 82 91 82 82 91 82 82 91 82 82 90 82 82 90 82 82 90 82 82 90 82 82 90 82 82 90 82 82 90 82 82 90 82 82 90 82 82 90 82 82 90 82 82 90 82 82 90 82 82 90 82 82 90 82 82 90 82 82 90 82 82 90 82 82 90 81 81 90 81 81 90 81 81 90 81 81 90 81 81 89 109 109 120 109 109 119 109 109 119 108 108 119 108 108 119 108 108 119 108 108 119 108 108 119 108 108 119 108 108 119 108 108 119 108 108 119 108 108 119 108 108 119 108 108 119 108 108 119 108 108 119 108 108 119 108 108 118 108 108 118 108 108 118 108 108 118 107 107 118 107 107 118 107 107 118 107 107 118 107 107 118 107 107 118 107 107 118 107 107 118 107 107 118 107 107 118 107 107 118 107 107 118 107 107 118 107 107 117 107 107 117 107 107 117 107 107 117 107 107 117 106 106 117 106 106 117 106 106 117 106 106 117 106 106 117 106 106 117 106 106 117 106 106 117 106 106 117 106 106 117 106 106 117 106 106 116 106 106 116 106 106 116 106 106 116 106 106 116 106 106 116 106 106 116 105 105 116 105 105 116 105 105 116 105 105 116 105 105 116 105 105 116 105 105 116 105 105 116 105 105 116 105 105 115 105 105 115 105 105 115 105 105 115 105 105 115 105 105 115 105 105 115 105 105 115 105 105 115 104 104 115 104 104 115 104 104 115 104 104 115 104 104 115 104 104 115 104 104 115 104 104 115 104 104 114 104 104 114 104 104 114 104 104 114 104 104 114 104 104 114 104 104 114 104 104 114 104 104 114 103 103 114 103 103 114 103 103 113 103 103 113 103 103 113 103 103 113 103 103 113 103 103 113 103 103 113 103 103 113 103 103 113 103 103 113 103 103 113 103 103 113 103 103 113 103 103 113 103 103 113 102 102 112 102 102 112 102 102 112 102 102 112 102 102 112 102 102 112 102 102 112 102 102 112 102 102 112 102 102 112 102 102 112 102 102 112 102 102 112 102 102 112 102 102 112 102 102 112 102 102 112 101 101 111 101 101 111 101 101 111 101 101 111 101 101 111 101 101 111 101 101 111 101 101 111 75 75 83 75 75 83 75 75 83 75 75 83 75 75 83 75 75 83 75 75 83 75 75 83 75 75 82 75 75 82 75 75 82 75 75 82 75 75 82 75 75 82 75 75 82 75 75 82 75 75 82 75 75 82 74 74 82 74 74 82 74 74 82 74 74 82 74 74 82 74 74 82 74 74 82 74 74 82 74 74 82 74 74 82 74 74 81 74 74 81 74 74 81 74 74 81 74 74 81 74 74 81 74 74 81 74 74 81 74 74 81 74 74 81 74 74 81 74 74 81 74 74 81 73 73 81 73 73 81 73 73 81 73 73 81 73 73 81 73 73 81 73 73 81 73 73 80 73 73 80 73 73 80 73 73 80 73 73 80 73 73 80 73 73 80 73 73 80 73 73 80 73 73 80 73 73 80 73 73 80 73 73 80 73 73 80 73 73 80 72 72 80 72 72 80 72 72 80 97 97 106 97 97 106 97 97 106 96 96 106 96 96 106 96 96 106 96 96 106 96 96 106 96 96 106 96 96 106 96 96 106 96 96 106 96 96 106 96 96 106 96 96 106 96 96 105 96 96 105 96 96 105 96 96 105 96 96 105 95 95 105 95 95 105 95 95 105 95 95 105 95 95 105 95 95 105 
113 113 124 113 113 124 113 113 124 113 113 124 113 113 124 113 113 124 113 113 124 113 113 124 113 113 124 112 112 124 112 112 124 112 112 124 112 112 124 112 112 124 112 112 124 112 112 124 112 112 123 112 112 123 112 112 123 112 112 123 112 112 123 112 112 123 112 112 123 112 112 123 112 112 123 84 84 92 84 84 92 84 84 92 84 84 92 84 84 92 84 84 92 84 84 92 84 84 92 83 83 92 83 83 92 83 83 92 83 83 92 83 83 92 83 83 92 83 83 92 83 83 92 83 83 92 83 83 91 83 83 91 83 83 91 83 83 91 83 83 91 83 83 91 83 83 91 83 83 91 83 83 91 83 83 91 83 83 91 83 83 91 83 83 91 83 83 91 83 83 91 83 83 91 83 83 91 83 83 91 83 83 91 82 82 91 82 82 91 82 82 91 82 82 91 82 82 91 82 82 91 82 82 91 82 82 90 82 82 90 82 82 90 82 82 90 82 82 90 82 82 90 82 82 90 82 82 90 82 82 90 82 82 90 82 82 90 82 82 90 82 82 90 82 82 90 82 82 90 82 82 90 82 82 90 82 82 90 82 82 90 82 82 90 81 81 90 81 81 90 81 81 90 81 81 89 81 81 89 109 109 119 109 109 119 108 108 119 108 108 119 108 108 119 108 108 119 108 108 119 108 108 119 108 108 119 108 108 119 108 108 119 108 108 119 108 108 119 108 108 119 108 108 119 108 108 119 108 108 119 108 108 119 108 108 118 108 108 118 108 108 118 107 107 118 107 107 118 107 107 118 107 107 118 107 107 118 107 107 118 107 107 118 107 107 118 107 107 118 107 107 118 107 107 118 107 107 118 107 107 118 107 107 117 107 107 117 107 107 117 107 107 117 107 107 117 107 107 117 106 106 117 106 106 117 106 106 117 106 106 117 106 106 117 106 106 117 106 106 117 106 106 117 106 106 117 106 106 117 106 106 117 106 106 116 106 106 116 106 106 116 106 106 116 106 106 116 106 106 116 106 106 116 105 105 116 105 105 116 105 105 116 105 105 116 105 105 116 105 105 116 105 105 116 105 105 116 105 105 116 105 105 115 105 105 115 105 105 115 105 105 115 105 105 115 105 105 115 105 105 115 105 105 115 105 105 115 104 104 115 104 104 115 104 104 115 104 104 115 104 104 115 104 104 115 104 104 115 104 104 115 104 104 115 104 104 114 104 104 114 104 104 114 104 104 114 104 104 114 104 104 114 104 104 114 104 104 114 103 103 114 103 103 114 103 103 113 103 103 113 103 103 113 103 103 113 103 103 113 103 103 113 103 103 113 103 103 113 103 103 113 103 103 113 103 103 113 103 103 113 103 103 113 103 103 113 103 103 113 103 103 113 102 102 112 102 102 112 102 102 112 102 102 112 102 102 112 102 102 112 102 102 112 102 102 112 102 102 112 102 102 112 102 102 112 102 102 112 102 102 112 102 102 112 102 102 112 102 102 112 102 102 112 101 101 111 101 101 111 101 101 111 101 101 111 101 101 111 101 101 111 101 101 111 75 75 83 75 75 83 75 75 83 75 75 83 75 75 83 75 75 83 75 75 83 75 75 83 75 75 83 75 75 82 75 75 82 75 75 82 75 75 82 75 75 82 75 75 82 75 75 82 75 75 82 75 75 82 75 75 82 74 74 82 74 74 82 74 74 82 74 74 82 74 74 82 74 74 82 74 74 82 74 74 82 74 74 82 74 74 82 74 74 81 74 74 81 74 74 81 74 74 81 74 74 81 74 74 81 74 74 81 74 74 81 74 74 81 74 74 81 74 74 81 74 74 81 74 74 81 74 74 81 73 73 81 73 73 81 73 73 81 73 73 81 73 73 81 73 73 81 73 73 80 73 73 80 73 73 80 73 73 80 73 73 80 73 73 80 73 73 80 73 73 80 73 73 80 73 73 80 73 73 80 73 73 80 73 73 80 73 73 80 73 73 80 72 72 80 72 72 80 72 72 80 72 72 80 97 97 106 97 97 106 97 97 106 96 96 106 96 96 106 96 96 106 96 96 106 96 96 106 96 96 106 96 96 106 96 96 106 96 96 106 96 96 106 96 96 106 96 96 106 96 96 105 96 96 105 96 96 105 96 96 105 96 96 105 95 95 105 95 95 105 95 95 105 95 95 105 
113 113 124 113 113 124 113 113 124 113 113 124 113 113 124 113 113 124 113 113 124 112 112 124 112 112 124 112 112 124 112 112 124 112 112 124 112 112 124 112 112 124 112 112 124 112 112 123 112 112 123 112 112 123 112 112 123 112 112 123 112 112 123 112 112 123 112 112 123 84 84 92 84 84 92 84 84 92 84 84 92 84 84 92 84 84 92 84 84 92 84 84 92 83 83 92 83 83 92 83 83 92 83 83 92 83 83 92 83 83 92 83 83 92 83 83 92 83 83 92 83 83 91 83 83 91 83 83 91 83 83 91 83 83 91 83 83 91 83 83 91 83 83 91 83 83 91 83 83 91 83 83 91 83 83 91 83 83 91 83 83 91 83 83 91 83 83 91 83 83 91 83 83 91 83 83 91 83 83 91 82 82 91 82 82 91 82 82 91 82 82 91 82 82 91 82 82 91 82 82 90 82 82 90 82 82 90 82 82 90 82 82 90 82 82 90 82 82 90 82 82 90 82 82 90 82 82 90 82 82 90 82 82 90 82 82 90 82 82 90 82 82 90 82 82 90 82 82 90 82 82 90 82 82 90 82 82 90 82 82 90 81 81 90 81 81 90 81 81 90 81 81 90 81 81 89 109 109 120 109 109 119 109 109 119 108 108 119 108 108 119 108 108 119 108 108 119 108 108 119 108 108 119 108 108 119 108 108 119 108 108 119 108 108 119 108 108 119 108 108 119 108 108 119 108 108 119 108 108 119 108 108 118 108 108 118 108 108 118 108 108 118 107 107 118 107 107 118 107 107 118 107 107 118 107 107 118 107 107 118 107 107 118 107 107 118 107 107 118 107 107 118 107 107 118 107 107 118 107 107 118 107 107 117 107 107 117 107 107 117 107 107 117 107 107 117 107 107 117 106 106 117 106 106 117 106 106 117 106 106 117 106 106 117 106 106 117 106 106 117 106 106 117 106 106 117 106 106 117 106 106 117 106 106 116 106 106 116 106 106 116 106 106 116 106 106 116 106 106 116 106 106 116 105 105 116 105 105 116 105 105 116 105 105 116 105 105 116 105 105 116 105 105 116 105 105 116 105 105 116 105 105 115 105 105 115 105 105 115 105 105 115 105 105 115 105 105 115 105 105 115 105 105 115 105 105 115 104 104 115 104 104 115 104 104 115 104 104 115 104 104 115 104 104 115 104 104 115 104 104 115 104 104 115 104 104 114 104 104 114 104 104 114 104 104 114 104 104 114 104 104 114 104 104 114 104 104 114 104 104 114 103 103 114 103 103 114 103 103 113 103 103 113 103 103 113 103 103 113 103 103 113 103 103 113 103 103 113 103 103 113 103 103 113 103 103 113 103 103 113 103 103 113 103 103 113 103 103 113 103 103 113 102 102 112 102 102 112 102 102 112 102 102 112 102 102 112 102 102 112 102 102 112 102 102 112 102 102 112 102 102 112 102 102 112 102 102 112 102 102 112 102 102 112 102 102 112 102 102 112 102 102 112 101 101 111 101 101 111 101 101 111 101 101 111 101 101 111 101 101 111 101 101 111 101 101 111 75 75 83 75 75 83 75 75 83 75 75 83 75 75 83 75 75 83 75 75 83 75 75 83 75 75 83 75 75 82 75 75 82 75 75 82 75 75 82 75 75 82 75 75 82 75 75 82 75 75 82 75 75 82 75 75 82 75 75 82 74 74 82 74 74 82 74 74 82 74 74 82 74 74 82 74 74 82 74 74 82 74 74 82 74 74 82 74 74 82 74 74 81 74 74 81 74 74 81 74 74 81 74 74 81 74 74 81 74 74 81 74 74 81 74 74 81 74 74 81 74 74 81 74 74 81 74 74 81 73 73 81 73 73 81 73 73 81 73 73 81 73 73 81 73 73 81 73 73 81 73 73 80 73 73 80 73 73 80 73 73 80 73 73 80 73 73 80 73 73 80 73 73 80 73 73 80 73 73 80 73 73 80 73 73 80 73 73 80 73 73 80 73 73 80 72 72 80 72 72 80 72 72 80 72 72 80 97 97 106 97 97 106 97 97 106 96 96 106 96 96 106 96 96 106 96 96 106 96 96 106 96 96 106 96 96 106 96 96 106 96 96 106 96 96 106 96 96 106 96 96 106 96 96 105 96 96 105 96 96 105 96 96 105 96 96 105 95 95 105 95 95 105 
113 113 124 113 113 124 113 113 124 113 113 124 113 113 124 112 112 124 112 112 124 112 112 124 112 112 124 112 112 124 112 112 124 112 112 124 112 112 124 112 112 123 112 112 123 112 112 123 112 112 123 112 112 123 112 112 123 112 112 123 112 112 123 84 84 92 84 84 92 84 84 92 84 84 92 84 84 92 84 84 92 84 84 92 84 84 92 83 83 92 83 83 92 83 83 92 83 83 92 83 83 92 83 83 92 83 83 92 83 83 92 83 83 92 83 83 92 83 83 91 83 83 91 83 83 91 83 83 91 83 83 91 83 83 91 83 83 91 83 83 91 83 83 91 83 83 91 83 83 91 83 83 91 83 83 91 83 83 91 83 83 91 83 83 91 83 83 91 83 83 91 83 83 91 83 83 91 82 82 91 82 82 91 82 82 91 82 82 91 82 82 91 82 82 91 82 82 90 82 82 90 82 82 90 82 82 90 82 82 90 82 82 90 82 82 90 82 82 90 82 82 90 82 82 90 82 82 90 82 82 90 82 82 90 82 82 90 82 82 90 82 82 90 82 82 90 82 82 90 82 82 90 82 82 90 82 82 90 81 81 90 81 81 90 81 81 90 81 81 90 81 81 89 109 109 120 109 109 119 109 109 119 108 108 119 108 108 119 108 108 119 108 108 119 108 108 119 108 108 119 108 108 119 108 108 119 108 108 119 108 108 119 108 108 119 108 108 119 108 108 119 108 108 119 108 108 119 108 108 118 108 108 118 108 108 118 108 108 118 107 107 118 107 107 118 107 107 118 107 107 118 107 107 118 107 107 118 107 107 118 107 107 118 107 107 118 107 107 118 107 107 118 107 107 118 107 107 118 107 107 118 107 107 117 107 107 117 107 107 117 107 107 117 107 107 117 107 107 117 106 106 117 106 106 117 106 106 117 106 106 117 106 106 117 106 106 117 106 106 117 106 106 117 106 106 117 106 106 117 106 106 117 106 106 116 106 106 116 106 106 116 106 106 116 106 106 116 106 106 116 106 106 116 105 105 116 105 105 116 105 105 116 105 105 116 105 105 116 105 105 116 105 105 116 105 105 116 105 105 116 105 105 115 105 105 115 105 105 115 105 105 115 105 105 115 105 105 115 105 105 115 105 105 115 105 105 115 104 104 115 104 104 115 104 104 115 104 104 115 104 104 115 104 104 115 104 104 115 104 104 115 104 104 115 104 104 115 104 104 114 104 104 114 104 104 114 104 104 114 104 104 114 104 104 114 104 104 114 104 104 114 103 103 114 103 103 114 103 103 113 103 103 113 103 103 113 103 103 113 103 103 113 103 103 113 103 103 113 103 103 113 103 103 113 103 103 113 103 103 113 103 103 113 103 103 113 103 103 113 103 103 113 103 103 113 102 102 112 102 102 112 102 102 112 102 102 112 102 102 112 102 102 112 102 102 112 102 102 112 102 102 112 102 102 112 102 102 112 102 102 112 102 102 112 102 102 112 102 102 112 102 102 112 102 102 112 101 101 111 101 101 111 101 101 111 101 101 111 101 101 111 101 101 111 101 101 111 101 101 111 75 75 83 75 75 83 75 75 83 75 75 83 75 75 83 75 75 83 75 75 83 75 75 83 75 75 83 75 75 83 75 75 82 75 75 82 75 75 82 75 75 82 75 75 82 75 75 82 75 75 82 75 75 82 75 75 82 75 75 82 74 74 82 74 74 82 74 74 82 74 74 82 74 74 82 74 74 82 74 74 82 74 74 82 74 74 82 74 74 82 74 74 81 74 74 81 74 74 81 74 74 81 74 74 81 74 74 81 74 74 81 74 74 81 74 74 81 74 74 81 74 74 81 74 74 81 74 74 81 74 74 81 73 73 81 73 73 81 73 73 81 73 73 81 73 73 81 73 73 81 73 73 81 73 73 80 73 73 80 73 73 80 73 73 80 73 73 80 73 73 80 73 73 80 73 73 80 73 73 80 73 73 80 73 73 80 73 73 80 73 73 80 73 73 80 73 73 80 72 72 80 72 72 80 72 72 80 72 72 80 97 97 106 97 97 106 97 97 106 96 96 106 96 96 106 96 96 106 96 96 106 96 96 106 96 96 106 96 96 106 96 96 106 96 96 106 96 96 106 96 96 106 96 96 106 96 96 105 96 96 105 96 96 105 96 96 105 96 96 105 
113 113 124 113 113 124 113 113 124 113 113 124 112 112 124 112 112 124 112 112 124 112 112 124 112 112 124 112 112 124 112 112 124 112 112 123 112 112 123 112 112 123 112 112 123 112 112 123 112 112 123 112 112 123 112 112 123 112 112 123 84 84 92 84 84 92 84 84 92 84 84 92 84 84 92 84 84 92 84 84 92 84 84 92 83 83 92 83 83 92 83 83 92 83 83 92 83 83 92 83 83 92 83 83 92 83 83 92 83 83 92 83 83 91 83 83 91 83 83 91 83 83 91 83 83 91 83 83 91 83 83 91 83 83 91 83 83 91 83 83 91 83 83 91 83 83 91 83 83 91 83 83 91 83 83 91 83 83 91 83 83 91 83 83 91 83 83 91 83 83 91 82 82 91 82 82 91 82 82 91 82 82 91 82 82 91 82 82 91 82 82 91 82 82 90 82 82 90 82 82 90 82 82 90 82 82 90 82 82 90 82 82 90 82 82 90 82 82 90 82 82 90 82 82 90 82 82 90 82 82 90 82 82 90 82 82 90 82 82 90 82 82 90 82 82 90 82 82 90 82 82 90 82 82 90 81 81 90 81 81 90 81 81 90 81 81 90 81 81 89 109 109 120 109 109 119 109 109 119 108 108 119 108 108 119 108 108 119 108 108 119 108 108 119 108 108 119 108 108 119 108 108 119 108 108 119 108 108 119 108 108 119 108 108 119 108 108 119 108 108 119 108 108 119 108 108 119 108 108 118 108 108 118 108 108 118 108 108 118 107 107 118 107 107 118 107 107 118 107 107 118 107 107 118 107 107 118 107 107 118 107 107 118 107 107 118 107 107 118 107 107 118 107 107 118 107 107 118 107 107 117 107 107 117 107 107 117 107 107 117 107 107 117 107 107 117 106 106 117 106 106 117 106 106 117 106 106 117 106 106 117 106 106 117 106 106 117 106 106 117 106 106 117 106 106 117 106 106 117 106 106 116 106 106 116 106 106 116 106 106 116 106 106 116 106 106 116 106 106 116 106 106 116 105 105 116 105 105 116 105 105 116 105 105 116 105 105 116 105 105 116 105 105 116 105 105 116 105 105 116 105 105 115 105 105 115 105 105 115 105 105 115 105 105 115 105 105 115 105 105 115 105 105 115 105 105 115 105 105 115 104 104 115 104 104 115 104 104 115 104 104 115 104 104 115 104 104 115 104 104 115 104 104 115 104 104 115 104 104 114 104 104 114 104 104 114 104 104 114 104 104 114 104 104 114 104 104 114 104 104 114 104 104 114 103 103 114 103 103 113 103 103 113 103 103 113 103 103 113 103 103 113 103 103 113 103 103 113 103 103 113 103 103 113 103 103 113 103 103 113 103 103 113 103 103 113 103 103 113 103 103 113 103 103 113 102 102 112 102 102 112 102 102 112 102 102 112 102 102 112 102 102 112 102 102 112 102 102 112 102 102 112 102 102 112 102 102 112 102 102 112 102 102 112 102 102 112 102 102 112 102 102 112 102 102 112 102 102 112 101 101 111 101 101 111 101 101 111 101 101 111 101 101 111 101 101 111 101 101 111 101 101 111 75 75 83 75 75 83 75 75 83 75 75 83 75 75 83 75 75 83 75 75 83 75 75 83 75 75 83 75 75 82 75 75 82 75 75 82 75 75 82 75 75 82 75 75 82 75 75 82 75 75 82 75 75 82 75 75 82 75 75 82 74 74 82 74 74 82 74 74 82 74 74 82 74 74 82 74 74 82 74 74 82 74 74 82 74 74 82 74 74 82 74 74 82 74 74 81 74 74 81 74 74 81 74 74 81 74 74 81 74 74 81 74 74 81 74 74 81 74 74 81 74 74 81 74 74 81 74 74 81 74 74 81 73 73 81 73 73 81 73 73 81 73 73 81 73 73 81 73 73 81 73 73 81 73 73 80 73 73 80 73 73 80 73 73 80 73 73 80 73 73 80 73 73 80 73 73 80 73 73 80 73 73 80 73 73 80 73 73 80 73 73 80 73 73 80 73 73 80 73 73 80 72 72 80 72 72 80 72 72 80 97 97 106 97 97 106 97 97 106 97 97 106 96 96 106 96 96 106 96 96 106 96 96 106 96 96 106 96 96 106 96 96 106 96 96 106 96 96 106 96 96 106 96 96 106 96 96 106 96 96 105 96 96 105 96 96 105 
113 113 124 112 112 124 112 112 124 112 112 124 112 112 124 112 112 124 112 112 124 112 112 124 112 112 124 112 112 123 112 112 123 112 112 123 112 112 123 112 112 123 112 112 123 112 112 123 112 112 123 112 112 123 84 84 92 84 84 92 84 84 92 84 84 92 84 84 92 84 84 92 84 84 92 84 84 92 84 84 92 83 83 92 83 83 92 83 83 92 83 83 92 83 83 92 83 83 92 83 83 92 83 83 92 83 83 92 83 83 91 83 83 91 83 83 91 83 83 91 83 83 91 83 83 91 83 83 91 83 83 91 83 83 91 83 83 91 83 83 91 83 83 91 83 83 91 83 83 91 83 83 91 83 83 91 83 83 91 83 83 91 83 83 91 83 83 91 82 82 91 82 82 91 82 82 91 82 82 91 82 82 91 82 82 91 82 82 91 82 82 90 82 82 90 82 82 90 82 82 90 82 82 90 82 82 90 82 82 90 82 82 90 82 82 90 82 82 90 82 82 90 82 82 90 82 82 90 82 82 90 82 82 90 82 82 90 82 82 90 82 82 90 82 82 90 82 82 90 82 82 90 81 81 90 81 81 90 81 81 90 81 81 90 81 81 89 109 109 120 109 109 119 109 109 119 109 109 119 108 108 119 108 108 119 108 108 119 108 108 119 108 108 119 108 108 119 108 108 119 108 108 119 108 108 119 108 108 119 108 108 119 108 108 119 108 108 119 108 108 119 108 108 119 108 108 119 108 108 118 108 108 118 108 108 118 108 108 118 107 107 118 107 107 118 107 107 118 107 107 118 107 107 118 107 107 118 107 107 118 107 107 118 107 107 118 107 107 118 107 107 118 107 107 118 107 107 118 107 107 117 107 107 117 107 107 117 107 107 117 107 107 117 107 107 117 106 106 117 106 106 117 106 106 117 106 106 117 106 106 117 106 106 117 106 106 117 106 106 117 106 106 117 106 106 117 106 106 117 106 106 116 106 106 116 106 106 116 106 106 116 106 106 116 106 106 116 106 106 116 106 106 116 105 105 116 105 105 116 105 105 116 105 105 116 105 105 116 105 105 116 105 105 116 105 105 116 105 105 116 105 105 115 105 105 115 105 105 115 105 105 115 105 105 115 105 105 115 105 105 115 105 105 115 105 105 115 105 105 115 104 104 115 104 104 115 104 104 115 104 104 115 104 104 115 104 104 115 104 104 115 104 104 115 104 104 115 104 104 114 104 104 114 104 104 114 104 104 114 104 104 114 104 104 114 104 104 114 104 104 114 104 104 114 103 103 114 103 103 114 103 103 113 103 103 113 103 103 113 103 103 113 103 103 113 103 103 113 103 103 113 103 103 113 103 103 113 103 103 113 103 103 113 103 103 113 103 103 113 103 103 113 103 103 113 103 103 113 102 102 112 102 102 112 102 102 112 102 102 112 102 102 112 102 102 112 102 102 112 102 102 112 102 102 112 102 102 112 102 102 112 102 102 112 102 102 112 102 102 112 102 102 112 102 102 112 102 102 112 102 102 112 101 101 111 101 101 111 101 101 111 101 101 111 101 101 111 101 101 111 101 101 111 101 101 111 75 75 83 75 75 83 75 75 83 75 75 83 75 75 83 75 75 83 75 75 83 75 75 83 75 75 83 75 75 83 75 75 82 75 75 82 75 75 82 75 75 82 75 75 82 75 75 82 75 75 82 75 75 82 75 75 82 75 75 82 74 74 82 74 74 82 74 74 82 74 74 82 74 74 82 74 74 82 74 74 82 74 74 82 74 74 82 74 74 82 74 74 82 74 74 81 74 74 81 74 74 81 74 74 81 74 74 81 74 74 81 74 74 81 74 74 81 74 74 81 74 74 81 74 74 81 74 74 81 74 74 81 74 74 81 73 73 81 73 73 81 73 73 81 73 73 81 73 73 81 73 73 81 73 73 81 73 73 80 73 73 80 73 73 80 73 73 80 73 73 80 73 73 80 73 73 80 73 73 80 73 73 80 73 73 80 73 73 80 73 73 80 73 73 80 73 73 80 73 73 80 73 73 80 72 72 80 72 72 80 72 72 80 97 97 107 97 97 106 97 97 106 97 97 106 96 96 106 96 96 106 96 96 106 96 96 106 96 96 106 96 96 106 96 96 106 96 96 106 96 96 106 96 96 106 96 96 106 96 96 106 96 96 105 
112 112 124 112 112 124 112 112 124 112 112 124 112 112 124 112 112 124 112 112 124 112 112 123 112 112 123 112 112 123 112 112 123 112 112 123 112 112 123 112 112 123 112 112 123 112 112 123 84 84 92 84 84 92 84 84 92 84 84 92 84 84 92 84 84 92 84 84 92 84 84 92 84 84 92 83 83 92 83 83 92 83 83 92 83 83 92 83 83 92 83 83 92 83 83 92 83 83 92 83 83 92 83 83 91 83 83 91 83 83 91 83 83 91 83 83 91 83 83 91 83 83 91 83 83 91 83 83 91 83 83 91 83 83 91 83 83 91 83 83 91 83 83 91 83 83 91 83 83 91 83 83 91 83 83 91 83 83 91 83 83 91 83 83 91 82 82 91 82 82 91 82 82 91 82 82 91 82 82 91 82 82 91 82 82 91 82 82 90 82 82 90 82 82 90 82 82 90 82 82 90 82 82 90 82 82 90 82 82 90 82 82 90 82 82 90 82 82 90 82 82 90 82 82 90 82 82 90 82 82 90 82 82 90 82 82 90 82 82 90 82 82 90 82 82 90 82 82 90 81 81 90 81 81 90 81 81 90 81 81 90 81 81 89 109 109 120 109 109 119 109 109 119 109 109 119 108 108 119 108 108 119 108 108 119 108 108 119 108 108 119 108 108 119 108 108 119 108 108 119 108 108 119 108 108 119 108 108 119 108 108 119 108 108 119 108 108 119 108 108 119 108 108 119 108 108 118 108 108 118 108 108 118 108 108 118 107 107 118 107 107 118 107 107 118 107 107 118 107 107 118 107 107 118 107 107 118 107 107 118 107 107 118 107 107 118 107 107 118 107 107 118 107 107 118 107 107 118 107 107 117 107 107 117 107 107 117 107 107 117 107 107 117 107 107 117 106 106 117 106 106 117 106 106 117 106 106 117 106 106 117 106 106 117 106 106 117 106 106 117 106 106 117 106 106 117 106 106 117 106 106 116 106 106 116 106 106 116 106 106 116 106 106 116 106 106 116 106 106 116 106 106 116 105 105 116 105 105 116 105 105 116 105 105 116 105 105 116 105 105 116 105 105 116 105 105 116 105 105 116 105 105 115 105 105 115 105 105 115 105 105 115 105 105 115 105 105 115 105 105 115 105 105 115 105 105 115 105 105 115 104 104 115 104 104 115 104 104 115 104 104 115 104 104 115 104 104 115 104 104 115 104 104 115 104 104 115 104 104 114 104 104 114 104 104 114 104 104 114 104 104 114 104 104 114 104 104 114 104 104 114 104 104 114 103 103 114 103 103 114 103 103 113 103 103 113 103 103 113 103 103 113 103 103 113 103 103 113 103 103 113 103 103 113 103 103 113 103 103 113 103 103 113 103 103 113 103 103 113 103 103 113 103 103 113 103 103 113 103 103 113 102 102 112 102 102 112 102 102 112 102 102 112 102 102 112 102 102 112 102 102 112 102 102 112 102 102 112 102 102 112 102 102 112 102 102 112 102 102 112 102 102 112 102 102 112 102 102 112 102 102 112 102 102 112 101 101 111 101 101 111 101 101 111 101 101 111 101 101 111 101 101 111 101 101 111 101 101 111 75 75 83 75 75 83 75 75 83 75 75 83 75 75 83 75 75 83 75 75 83 75 75 83 75 75 83 75 75 83 75 75 82 75 75 82 75 75 82 75 75 82 75 75 82 75 75 82 75 75 82 75 75 82 75 75 82 75 75 82 74 74 82 74 74 82 74 74 82 74 74 82 74 74 82 74 74 82 74 74 82 74 74 82 74 74 82 74 74 82 74 74 82 74 74 81 74 74 81 74 74 81 74 74 81 74 74 81 74 74 81 74 74 81 74 74 81 74 74 81 74 74 81 74 74 81 74 74 81 74 74 81 74 74 81 73 73 81 73 73 81 73 73 81 73 73 81 73 73 81 73 73 81 73 73 81 73 73 81 73 73 80 73 73 80 73 73 80 73 73 80 73 73 80 73 73 80 73 73 80 73 73 80 73 73 80 73 73 80 73 73 80 73 73 80 73 73 80 73 73 80 73 73 80 72 72 80 72 72 80 72 72 80 72 72 80 97 97 106 97 97 106 97 97 106 97 97 106 96 96 106 96 96 106 96 96 106 96 96 106 96 96 106 96 96 106 96 96 106 96 96 106 96 96 106 96 96 106 96 96 106 
112 112 124 112 112 124 112 112 124 112 112 124 112 112 124 112 112 123 112 112 123 112 112 123 112 112 123 112 112 123 112 112 123 112 112 123 112 112 123 112 112 123 84 84 92 84 84 92 84 84 92 84 84 92 84 84 92 84 84 92 84 84 92 84 84 92 84 84 92 83 83 92 83 83 92 83 83 92 83 83 92 83 83 92 83 83 92 83 83 92 83 83 92 83 83 92 83 83 92 83 83 91 83 83 91 83 83 91 83 83 91 83 83 91 83 83 91 83 83 91 83 83 91 83 83 91 83 83 91 83 83 91 83 83 91 83 83 91 83 83 91 83 83 91 83 83 91 83 83 91 83 83 91 83 83 91 83 83 91 83 83 91 82 82 91 82 82 91 82 82 91 82 82 91 82 82 91 82 82 91 82 82 91 82 82 90 82 82 90 82 82 90 82 82 90 82 82 90 82 82 90 82 82 90 82 82 90 82 82 90 82 82 90 82 82 90 82 82 90 82 82 90 82 82 90 82 82 90 82 82 90 82 82 90 82 82 90 82 82 90 82 82 90 82 82 90 81 81 90 81 81 90 81 81 90 81 81 90 81 81 89 109 109 120 109 109 120 109 109 119 109 109 119 108 108 119 108 108 119 108 108 119 108 108 119 108 108 119 108 108 119 108 108 119 108 108 119 108 108 119 108 108 119 108 108 119 108 108 119 108 108 119 108 108 119 108 108 119 108 108 119 108 108 118 108 108 118 108 108 118 108 108 118 107 107 118 107 107 118 107 107 118 107 107 118 107 107 118 107 107 118 107 107 118 107 107 118 107 107 118 107 107 118 107 107 118 107 107 118 107 107 118 107 107 118 107 107 117 107 107 117 107 107 117 107 107 117 107 107 117 107 107 117 106 106 117 106 106 117 106 106 117 106 106 117 106 106 117 106 106 117 106 106 117 106 106 117 106 106 117 106 106 117 106 106 117 106 106 117 106 106 116 106 106 116 106 106 116 106 106 116 106 106 116 106 106 116 106 106 116 106 106 116 105 105 116 105 105 116 105 105 116 105 105 116 105 105 116 105 105 116 105 105 116 105 105 116 105 105 116 105 105 115 105 105 115 105 105 115 105 105 115 105 105 115 105 105 115 105 105 115 105 105 115 105 105 115 105 105 115 104 104 115 104 104 115 104 104 115 104 104 115 104 104 115 104 104 115 104 104 115 104 104 115 104 104 115 104 104 115 104 104 114 104 104 114 104 104 114 104 104 114 104 104 114 104 104 114 104 104 114 104 104 114 104 104 114 103 103 114 103 103 114 103 103 113 103 103 113 103 103 113 103 103 113 103 103 113 103 103 113 103 103 113 103 103 113 103 103 113 103 103 113 103 103 113 103 103 113 103 103 113 103 103 113 103 103 113 103 103 113 102 102 112 102 102 112 102 102 112 102 102 112 102 102 112 102 102 112 102 102 112 102 102 112 102 102 112 102 102 112 102 102 112 102 102 112 102 102 112 102 102 112 102 102 112 102 102 112 102 102 112 102 102 112 102 102 112 101 101 111 101 101 111 101 101 111 101 101 111 101 101 111 101 101 111 101 101 111 101 101 111 75 75 83 75 75 83 75 75 83 75 75 83 75 75 83 75 75 83 75 75 83 75 75 83 75 75 83 75 75 83 75 75 82 75 75 82 75 75 82 75 75 82 75 75 82 75 75 82 75 75 82 75 75 82 75 75 82 75 75 82 74 74 82 74 74 82 74 74 82 74 74 82 74 74 82 74 74 82 74 74 82 74 74 82 74 74 82 74 74 82 74 74 82 74 74 82 74 74 81 74 74 81 74 74 81 74 74 81 74 74 81 74 74 81 74 74 81 74 74 81 74 74 81 74 74 81 74 74 81 74 74 81 74 74 81 74 74 81 73 73 81 73 73 81 73 73 81 73 73 81 73 73 81 73 73 81 73 73 81 73 73 80 73 73 80 73 73 80 73 73 80 73 73 80 73 73 80 73 73 80 73 73 80 73 73 80 73 73 80 73 73 80 73 73 80 73 73 80 73 73 80 73 73 80 73 73 80 72 72 80 72 72 80 72 72 80 72 72 80 97 97 106 97 97 106 97 97 106 96 96 106 96 96 106 96 96 106 96 96 106 96 96 106 96 96 106 96 96 106 96 96 106 96 96 106 96 96 106 
84 84 93 84 84 92 112 112 124 84 84 92 112 112 123 84 84 92 84 84 92 112 112 123 84 84 92 112 112 123 84 84 92 84 84 92 112 112 123 112 112 123 84 84 92 112 112 123 112 112 123 84 84 92 112 112 123 112 112 123 84 84 92 111 111 123 111 111 123 83 83 92 83 83 92 111 111 123 83 83 92 83 83 92 83 83 92 83 83 92 83 83 92 83 83 92 111 111 122 83 83 91 111 111 122 83 83 91 83 83 91 111 111 122 83 83 91 111 111 122 111 111 122 111 111 122 111 111 122 111 111 122 83 83 91 83 83 91 83 83 91 83 83 91 110 110 121 83 83 91 83 83 91 110 110 121 110 110 121 110 110 121 82 82 91 82 82 91 82 82 91 82 82 91 82 82 91 110 110 121 110 110 121 110 110 121 110 110 121 82 82 90 82 82 90 110 110 121 110 110 121 82 82 90 109 109 120 109 109 120 82 82 90 109 109 120 109 109 120 82 82 90 109 109 120 82 82 90 82 82 90 82 82 90 82 82 90 82 82 90 82 82 90 109 109 120 109 109 120 81 81 90 81 81 90 109 109 120 81 81 89 109 109 120 81 81 89 81 81 89 108 108 119 108 108 119 81 81 89 81 81 89 108 108 119 81 81 89 81 81 89 81 81 89 81 81 89 108 108 119 81 81 89 108 108 119 81 81 89 108 108 119 108 108 119 81 81 88 108 108 119 108 108 118 108 108 118 81 81 88 81 81 88 80 80 88 107 107 118 107 107 118 80 80 88 80 80 88 107 107 118 107 107 118 107 107 118 80 80 88 107 107 118 80 80 88 107 107 118 107 107 118 107 107 118 107 107 117 80 80 88 80 80 88 80 80 88 107 107 117 107 107 117 106 106 117 106 106 117 106 106 117 106 106 117 80 80 87 80 80 87 79 79 87 106 106 117 106 106 117 79 79 87 106 106 117 106 106 117 79 79 87 79 79 87 79 79 87 79 79 87 79 79 87 106 106 116 106 106 116 106 106 116 105 105 116 79 79 87 79 79 87 79 79 86 79 79 86 79 79 86 79 79 86 79 79 86 79 79 86 79 79 86 79 79 86 79 79 86 78 78 86 78 78 86 78 78 86 78 78 86 78 78 86 78 78 86 105 105 115 104 104 115 104 104 115 104 104 115 78 78 86 78 78 86 78 78 86 78 78 86 78 78 86 104 104 115 104 104 115 78 78 85 104 104 114 104 104 114 78 78 85 78 78 85 78 78 85 104 104 114 104 104 114 104 104 114 103 103 114 103 103 114 103 103 113 77 77 85 77 77 85 77 77 85 103 103 113 103 103 113 103 103 113 103 103 113 77 77 85 103 103 113 77 77 84 103 103 113 103 103 113 103 103 113 77 77 84 77 77 84 103 103 113 102 102 112 77 77 84 77 77 84 77 77 84 102 102 112 102 102 112 102 102 112 76 76 84 102 102 112 102 102 112 76 76 84 102 102 112 76 76 84 102 102 112 76 76 84 76 76 83 76 76 83 76 76 83 101 101 111 76 76 83 76 76 83 101 101 111 101 101 111 76 76 83 75 75 83 101 101 111 75 75 83 101 101 111 75 75 83 75 75 83 101 101 111 100 100 111 75 75 83 75 75 83 75 75 83 75 75 83 75 75 83 75 75 82 100 100 110 75 75 82 100 100 110 100 100 110 75 75 82 100 100 110 100 100 110 75 75 82 100 100 110 100 100 110 74 74 82 74 74 82 99 99 110 99 99 109 99 99 109 99 99 109 74 74 82 74 74 82 74 74 82 74 74 82 74 74 82 99 99 109 99 99 109 99 99 109 74 74 81 74 74 81 99 99 109 74 74 81 74 74 81 74 74 81 74 74 81 98 98 108 98 98 108 98 98 108 98 98 108 98 98 108 73 73 81 98 98 108 73 73 81 73 73 81 98 98 108 73 73 81 98 98 108 73 73 80 73 73 80 73 73 80 73 73 80 73 73 80 73 73 80 97 97 107 73 73 80 73 73 80 97 97 107 97 97 107 73 73 80 97 97 107 97 97 107 73 73 80 97 97 107 97 97 107 72 72 80 97 97 107 97 97 107 72 72 80 72 72 80 97 97 106 72 72 79 96 96 106 72 72 79 72 72 79 96 96 106 72 72 79 96 96 106 72 72 79 
84 84 92 84 84 92 84 84 92 84 84 92 84 84 92 84 84 92 84 84 92 84 84 92 84 84 92 84 84 92 84 84 92 112 112 123 112 112 123 112 112 123 112 112 123 112 112 123 112 112 123 112 112 123 112 112 123 112 112 123 111 111 123 111 111 123 111 111 123 111 111 123 111 111 123 111 111 122 111 111 122 111 111 122 111 111 122 111 111 122 111 111 122 111 111 122 111 111 122 111 111 122 111 111 122 111 111 122 111 111 122 111 111 122 111 111 122 111 111 122 111 111 122 111 111 122 111 111 122 111 111 122 110 110 122 110 110 122 110 110 122 110 110 121 110 110 121 110 110 121 110 110 121 110 110 121 110 110 121 110 110 121 110 110 121 110 110 121 110 110 121 110 110 121 110 110 121 110 110 121 110 110 121 110 110 121 110 110 121 110 110 121 110 110 121 110 110 121 110 110 121 109 109 120 109 109 120 109 109 120 109 109 120 109 109 120 109 109 120 109 109 120 109 109 120 109 109 120 109 109 120 109 109 120 109 109 120 109 109 120 109 109 120 109 109 120 109 109 120 109 109 120 109 109 120 81 81 89 81 81 89 81 81 89 81 81 89 81 81 89 81 81 89 81 81 89 81 81 89 81 81 89 81 81 89 81 81 89 81 81 89 81 81 89 81 81 89 81 81 89 81 81 89 81 81 89 81 81 89 81 81 89 81 81 88 81 81 88 81 81 88 81 81 88 81 81 88 81 81 88 80 80 88 80 80 88 80 80 88 80 80 88 80 80 88 80 80 88 80 80 88 80 80 88 80 80 88 80 80 88 80 80 88 80 80 88 80 80 88 80 80 88 80 80 88 80 80 88 80 80 88 80 80 88 80 80 88 80 80 88 80 80 87 80 80 87 80 80 87 80 80 87 80 80 87 80 80 87 80 80 87 79 79 87 79 79 87 79 79 87 79 79 87 79 79 87 79 79 87 79 79 87 79 79 87 79 79 87 79 79 87 79 79 87 79 79 87 79 79 87 79 79 87 79 79 87 79 79 87 79 79 87 79 79 86 79 79 86 79 79 86 79 79 86 79 79 86 79 79 86 79 79 86 79 79 86 79 79 86 78 78 86 78 78 86 78 78 86 78 78 86 78 78 86 78 78 86 78 78 86 78 78 86 78 78 86 78 78 86 78 78 86 78 78 86 78 78 86 78 78 86 78 78 86 78 78 85 78 78 85 78 78 85 78 78 85 78 78 85 78 78 85 78 78 85 78 78 85 78 78 85 78 78 85 78 78 85 77 77 85 77 77 85 77 77 85 77 77 85 77 77 85 77 77 85 77 77 85 77 77 85 77 77 85 77 77 85 77 77 85 77 77 85 77 77 84 77 77 84 77 77 84 77 77 84 77 77 84 77 77 84 77 77 84 77 77 84 77 77 84 77 77 84 77 77 84 77 77 84 77 77 84 76 76 84 76 76 84 76 76 84 76 76 84 76 76 84 76 76 84 76 76 84 76 76 84 76 76 84 76 76 83 76 76 83 76 76 83 76 76 83 76 76 83 76 76 83 76 76 83 76 76 83 76 76 83 76 76 83 75 75 83 75 75 83 75 75 83 101 101 111 101 101 111 101 101 111 101 101 111 100 100 111 100 100 111 100 100 111 100 100 111 100 100 110 100 100 110 100 100 110 100 100 110 100 100 110 100 100 110 100 100 110 100 100 110 100 100 110 100 100 110 100 100 110 100 100 110 100 100 110 100 100 110 100 100 110 99 99 110 99 99 110 99 99 109 99 99 109 99 99 109 99 99 109 99 99 109 99 99 109 99 99 109 99 99 109 99 99 109 99 99 109 99 99 109 99 99 109 99 99 109 99 99 109 99 99 109 99 99 109 98 98 108 98 98 108 98 98 108 98 98 108 98 98 108 98 98 108 98 98 108 98 98 108 98 98 108 98 98 108 98 98 108 98 98 108 98 98 108 98 98 108 98 98 108 98 98 108 98 98 108 98 98 107 98 98 107 97 97 107 97 97 107 97 97 107 97 97 107 97 97 107 97 97 107 97 97 107 97 97 107 97 97 107 97 97 107 97 97 107 97 97 107 97 97 107 97 97 107 72 72 80 72 72 80 72 72 79 72 72 79 72 72 79 72 72 79 72 72 79 72 72 79 72 72 79 72 72 79 
84 84 92 84 84 92 84 84 92 84 84 92 84 84 92 84 84 92 84 84 92 84 84 92 84 84 92 112 112 123 112 112 123 112 112 123 112 112 123 112 112 123 112 112 123 112 112 123 112 112 123 112 112 123 111 111 123 111 111 123 111 111 123 111 111 123 111 111 123 111 111 122 111 111 122 111 111 122 111 111 122 111 111 122 111 111 122 111 111 122 111 111 122 111 111 122 111 111 122 111 111 122 111 111 122 111 111 122 111 111 122 111 111 122 111 111 122 111 111 122 111 111 122 111 111 122 111 111 122 110 110 122 110 110 122 110 110 121 110 110 121 110 110 121 110 110 121 110 110 121 110 110 121 110 110 121 110 110 121 110 110 121 110 110 121 110 110 121 110 110 121 110 110 121 110 110 121 110 110 121 110 110 121 110 110 121 110 110 121 110 110 121 110 110 121 110 110 121 109 109 120 109 109 120 109 109 120 109 109 120 109 109 120 109 109 120 109 109 120 109 109 120 109 109 120 109 109 120 109 109 120 109 109 120 109 109 120 109 109 120 109 109 120 109 109 120 109 109 120 109 109 120 109 109 120 81 81 89 81 81 89 81 81 89 81 81 89 81 81 89 81 81 89 81 81 89 81 81 89 81 81 89 81 81 89 81 81 89 81 81 89 81 81 89 81 81 89 81 81 89 81 81 89 81 81 89 81 81 89 81 81 88 81 81 88 81 81 88 81 81 88 81 81 88 81 81 88 80 80 88 80 80 88 80 80 88 80 80 88 80 80 88 80 80 88 80 80 88 80 80 88 80 80 88 80 80 88 80 80 88 80 80 88 80 80 88 80 80 88 80 80 88 80 80 88 80 80 88 80 80 88 80 80 88 80 80 88 80 80 88 80 80 87 80 80 87 80 80 87 80 80 87 80 80 87 80 80 87 79 79 87 79 79 87 79 79 87 79 79 87 79 79 87 79 79 87 79 79 87 79 79 87 79 79 87 79 79 87 79 79 87 79 79 87 79 79 87 79 79 87 79 79 87 79 79 87 79 79 87 79 79 87 79 79 86 79 79 86 79 79 86 79 79 86 79 79 86 79 79 86 79 79 86 79 79 86 79 79 86 78 78 86 78 78 86 78 78 86 78 78 86 78 78 86 78 78 86 78 78 86 78 78 86 78 78 86 78 78 86 78 78 86 78 78 86 78 78 86 78 78 86 78 78 86 78 78 85 78 78 85 78 78 85 78 78 85 78 78 85 78 78 85 78 78 85 78 78 85 78 78 85 78 78 85 78 78 85 78 78 85 77 77 85 77 77 85 77 77 85 77 77 85 77 77 85 77 77 85 77 77 85 77 77 85 77 77 85 77 77 85 77 77 85 77 77 84 77 77 84 77 77 84 77 77 84 77 77 84 77 77 84 77 77 84 77 77 84 77 77 84 77 77 84 77 77 84 77 77 84 77 77 84 77 77 84 76 76 84 76 76 84 76 76 84 76 76 84 76 76 84 76 76 84 76 76 84 76 76 84 76 76 84 76 76 83 76 76 83 76 76 83 76 76 83 76 76 83 76 76 83 76 76 83 76 76 83 76 76 83 76 76 83 75 75 83 75 75 83 101 101 111 101 101 111 101 101 111 101 101 111 101 101 111 100 100 111 100 100 111 100 100 111 100 100 111 100 100 110 100 100 110 100 100 110 100 100 110 100 100 110 100 100 110 100 100 110 100 100 110 100 100 110 100 100 110 100 100 110 100 100 110 100 100 110 100 100 110 100 100 110 99 99 110 99 99 110 99 99 109 99 99 109 99 99 109 99 99 109 99 99 109 99 99 109 99 99 109 99 99 109 99 99 109 99 99 109 99 99 109 99 99 109 99 99 109 99 99 109 99 99 109 99 99 109 99 99 109 98 98 108 98 98 108 98 98 108 98 98 108 98 98 108 98 98 108 98 98 108 98 98 108 98 98 108 98 98 108 98 98 108 98 98 108 98 98 108 98 98 108 98 98 108 98 98 108 98 98 108 98 98 107 97 97 107 97 97 107 97 97 107 97 97 107 97 97 107 97 97 107 97 97 107 97 97 107 97 97 107 97 97 107 97 97 107 97 97 107 97 97 107 97 97 107 97 97 107 72 72 80 72 72 80 72 72 79 72 72 79 72 72 79 72 72 79 72 72 79 72 72 79 
84 84 92 84 84 92 84 84 92 84 84 92 84 84 92 84 84 92 84 84 92 112 112 123 112 112 123 112 112 123 112 112 123 112 112 123 112 112 123 112 112 123 112 112 123 112 112 123 112 112 123 111 111 123 111 111 123 111 111 123 111 111 123 111 111 123 111 111 122 111 111 122 111 111 122 111 111 122 111 111 122 111 111 122 111 111 122 111 111 122 111 111 122 111 111 122 111 111 122 111 111 122 111 111 122 111 111 122 111 111 122 111 111 122 111 111 122 111 111 122 111 111 122 110 110 122 110 110 122 110 110 122 110 110 121 110 110 121 110 110 121 110 110 121 110 110 121 110 110 121 110 110 121 110 110 121 110 110 121 110 110 121 110 110 121 110 110 121 110 110 121 110 110 121 110 110 121 110 110 121 110 110 121 110 110 121 110 110 121 110 110 121 110 110 121 109 109 120 109 109 120 109 109 120 109 109 120 109 109 120 109 109 120 109 109 120 109 109 120 109 109 120 109 109 120 109 109 120 109 109 120 109 109 120 109 109 120 109 109 120 109 109 120 109 109 120 109 109 120 109 109 120 81 81 89 81 81 89 81 81 89 81 81 89 81 81 89 81 81 89 81 81 89 81 81 89 81 81 89 81 81 89 81 81 89 81 81 89 81 81 89 81 81 89 81 81 89 81 81 89 81 81 89 81 81 89 81 81 88 81 81 88 81 81 88 81 81 88 81 81 88 81 81 88 81 81 88 80 80 88 80 80 88 80 80 88 80 80 88 80 80 88 80 80 88 80 80 88 80 80 88 80 80 88 80 80 88 80 80 88 80 80 88 80 80 88 80 80 88 80 80 88 80 80 88 80 80 88 80 80 88 80 80 88 80 80 88 80 80 88 80 80 87 80 80 87 80 80 87 80 80 87 80 80 87 80 80 87 79 79 87 79 79 87 79 79 87 79 79 87 79 79 87 79 79 87 79 79 87 79 79 87 79 79 87 79 79 87 79 79 87 79 79 87 79 79 87 79 79 87 79 79 87 79 79 87 79 79 87 79 79 87 79 79 86 79 79 86 79 79 86 79 79 86 79 79 86 79 79 86 79 79 86 79 79 86 78 78 86 78 78 86 78 78 86 78 78 86 78 78 86 78 78 86 78 78 86 78 78 86 78 78 86 78 78 86 78 78 86 78 78 86 78 78 86 78 78 86 78 78 86 78 78 86 78 78 85 78 78 85 78 78 85 78 78 85 78 78 85 78 78 85 78 78 85 78 78 85 78 78 85 78 78 85 78 78 85 78 78 85 77 77 85 77 77 85 77 77 85 77 77 85 77 77 85 77 77 85 77 77 85 77 77 85 77 77 85 77 77 85 77 77 85 77 77 85 77 77 84 77 77 84 77 77 84 77 77 84 77 77 84 77 77 84 77 77 84 77 77 84 77 77 84 77 77 84 77 77 84 77 77 84 77 77 84 76 76 84 76 76 84 76 76 84 76 76 84 76 76 84 76 76 84 76 76 84 76 76 84 76 76 84 76 76 84 76 76 83 76 76 83 76 76 83 76 76 83 76 76 83 76 76 83 76 76 83 76 76 83 76 76 83 75 75 83 75 75 83 75 75 83 101 101 111 101 101 111 101 101 111 101 101 111 101 101 111 100 100 111 100 100 111 100 100 111 100 100 111 100 100 110 100 100 110 100 100 110 100 100 110 100 100 110 100 100 110 100 100 110 100 100 110 100 100 110 100 100 110 100 100 110 100 100 110 100 100 110 100 100 110 100 100 110 99 99 110 99 99 110 99 99 109 99 99 109 99 99 109 99 99 109 99 99 109 99 99 109 99 99 109 99 99 109 99 99 109 99 99 109 99 99 109 99 99 109 99 99 109 99 99 109 99 99 109 99 99 109 99 99 109 98 98 108 98 98 108 98 98 108 98 98 108 98 98 108 98 98 108 98 98 108 98 98 108 98 98 108 98 98 108 98 98 108 98 98 108 98 98 108 98 98 108 98 98 108 98 98 108 98 98 108 98 98 107 98 98 107 97 97 107 97 97 107 97 97 107 97 97 107 97 97 107 97 97 107 97 97 107 97 97 107 97 97 107 97 97 107 97 97 107 97 97 107 97 97 107 97 97 107 97 97 107 72 72 80 72 72 80 72 72 79 72 72 79 72 72 79 72 72 79 
84 84 92 84 84 92 84 84 92 84 84 92 84 84 92 112 112 123 112 112 123 112 112 123 112 112 123 112 112 123 112 112 123 112 112 123 112 112 123 112 112 123 112 112 123 111 111 123 111 111 123 111 111 123 111 111 123 111 111 123 111 111 122 111 111 122 111 111 122 111 111 122 111 111 122 111 111 122 111 111 122 111 111 122 111 111 122 111 111 122 111 111 122 111 111 122 111 111 122 111 111 122 111 111 122 111 111 122 111 111 122 111 111 122 111 111 122 111 111 122 110 110 122 110 110 122 110 110 122 110 110 121 110 110 121 110 110 121 110 110 121 110 110 121 110 110 121 110 110 121 110 110 121 110 110 121 110 110 121 110 110 121 110 110 121 110 110 121 110 110 121 110 110 121 110 110 121 110 110 121 110 110 121 110 110 121 110 110 121 110 110 121 109 109 120 109 109 120 109 109 120 109 109 120 109 109 120 109 109 120 109 109 120 109 109 120 109 109 120 109 109 120 109 109 120 109 109 120 109 109 120 109 109 120 109 109 120 109 109 120 109 109 120 109 109 120 109 109 120 81 81 89 81 81 89 81 81 89 81 81 89 81 81 89 81 81 89 81 81 89 81 81 89 81 81 89 81 81 89 81 81 89 81 81 89 81 81 89 81 81 89 81 81 89 81 81 89 81 81 89 81 81 89 81 81 89 81 81 88 81 81 88 81 81 88 81 81 88 81 81 88 81 81 88 80 80 88 80 80 88 80 80 88 80 80 88 80 80 88 80 80 88 80 80 88 80 80 88 80 80 88 80 80 88 80 80 88 80 80 88 80 80 88 80 80 88 80 80 88 80 80 88 80 80 88 80 80 88 80 80 88 80 80 88 80 80 88 80 80 87 80 80 87 80 80 87 80 80 87 80 80 87 80 80 87 80 80 87 79 79 87 79 79 87 79 79 87 79 79 87 79 79 87 79 79 87 79 79 87 79 79 87 79 79 87 79 79 87 79 79 87 79 79 87 79 79 87 79 79 87 79 79 87 79 79 87 79 79 87 79 79 87 79 79 86 79 79 86 79 79 86 79 79 86 79 79 86 79 79 86 79 79 86 79 79 86 79 79 86 78 78 86 78 78 86 78 78 86 78 78 86 78 78 86 78 78 86 78 78 86 78 78 86 78 78 86 78 78 86 78 78 86 78 78 86 78 78 86 78 78 86 78 78 86 78 78 85 78 78 85 78 78 85 78 78 85 78 78 85 78 78 85 78 78 85 78 78 85 78 78 85 78 78 85 78 78 85 78 78 85 77 77 85 77 77 85 77 77 85 77 77 85 77 77 85 77 77 85 77 77 85 77 77 85 77 77 85 77 77 85 77 77 85 77 77 85 77 77 84 77 77 84 77 77 84 77 77 84 77 77 84 77 77 84 77 77 84 77 77 84 77 77 84 77 77 84 77 77 84 77 77 84 77 77 84 77 77 84 76 76 84 76 76 84 76 76 84 76 76 84 76 76 84 76 76 84 76 76 84 76 76 84 76 76 84 76 76 84 76 76 83 76 76 83 76 76 83 76 76 83 76 76 83 76 76 83 76 76 83 76 76 83 76 76 83 75 75 83 75 75 83 75 75 83 101 101 111 101 101 111 101 101 111 101 101 111 101 101 111 100 100 111 100 100 111 100 100 111 100 100 111 100 100 110 100 100 110 100 100 110 100 100 110 100 100 110 100 100 110 100 100 110 100 100 110 100 100 110 100 100 110 100 100 110 100 100 110 100 100 110 100 100 110 100 100 110 99 99 110 99 99 110 99 99 109 99 99 109 99 99 109 99 99 109 99 99 109 99 99 109 99 99 109 99 99 109 99 99 109 99 99 109 99 99 109 99 99 109 99 99 109 99 99 109 99 99 109 99 99 109 99 99 109 98 98 108 98 98 108 98 98 108 98 98 108 98 98 108 98 98 108 98 98 108 98 98 108 98 98 108 98 98 108 98 98 108 98 98 108 98 98 108 98 98 108 98 98 108 98 98 108 98 98 108 98 98 108 98 98 107 97 97 107 97 97 107 97 97 107 97 97 107 97 97 107 97 97 107 97 97 107 97 97 107 97 97 107 97 97 107 97 97 107 97 97 107 97 97 107 97 97 107 97 97 107 97 97 107 72 72 80 72 72 80 72 72 79 72 72 79 
84 84 92 84 84 92 84 84 92 84 84 92 112 112 123 112 112 123 112 112 123 112 112 123 112 112 123 112 112 123 112 112 123 112 112 123 112 112 123 111 111 123 111 111 123 111 111 123 111 111 123 111 111 123 111 111 122 111 111 122 111 111 122 111 111 122 111 111 122 111 111 122 111 111 122 111 111 122 111 111 122 111 111 122 111 111 122 111 111 122 111 111 122 111 111 122 111 111 122 111 111 122 111 111 122 111 111 122 111 111 122 111 111 122 111 111 122 110 110 122 110 110 122 110 110 121 110 110 121 110 110 121 110 110 121 110 110 121 110 110 121 110 110 121 110 110 121 110 110 121 110 110 121 110 110 121 110 110 121 110 110 121 110 110 121 110 110 121 110 110 121 110 110 121 110 110 121 110 110 121 110 110 121 110 110 121 109 109 120 109 109 120 109 109 120 109 109 120 109 109 120 109 109 120 109 109 120 109 109 120 109 109 120 109 109 120 109 109 120 109 109 120 109 109 120 109 109 120 109 109 120 109 109 120 109 109 120 109 109 120 109 109 120 109 109 120 81 81 89 81 81 89 81 81 89 81 81 89 81 81 89 81 81 89 81 81 89 81 81 89 81 81 89 81 81 89 81 81 89 81 81 89 81 81 89 81 81 89 81 81 89 81 81 89 81 81 89 81 81 89 81 81 89 81 81 88 81 81 88 81 81 88 81 81 88 81 81 88 81 81 88 81 81 88 80 80 88 80 80 88 80 80 88 80 80 88 80 80 88 80 80 88 80 80 88 80 80 88 80 80 88 80 80 88 80 80 88 80 80 88 80 80 88 80 80 88 80 80 88 80 80 88 80 80 88 80 80 88 80 80 88 80 80 88 80 80 88 80 80 87 80 80 87 80 80 87 80 80 87 80 80 87 80 80 87 79 79 87 79 79 87 79 79 87 79 79 87 79 79 87 79 79 87 79 79 87 79 79 87 79 79 87 79 79 87 79 79 87 79 79 87 79 79 87 79 79 87 79 79 87 79 79 87 79 79 87 79 79 87 79 79 87 79 79 86 79 79 86 79 79 86 79 79 86 79 79 86 79 79 86 79 79 86 79 79 86 78 78 86 78 78 86 78 78 86 78 78 86 78 78 86 78 78 86 78 78 86 78 78 86 78 78 86 78 78 86 78 78 86 78 78 86 78 78 86 78 78 86 78 78 86 78 78 86 78 78 86 78 78 85 78 78 85 78 78 85 78 78 85 78 78 85 78 78 85 78 78 85 78 78 85 78 78 85 78 78 85 78 78 85 78 78 85 77 77 85 77 77 85 77 77 85 77 77 85 77 77 85 77 77 85 77 77 85 77 77 85 77 77 85 77 77 85 77 77 85 77 77 85 77 77 84 77 77 84 77 77 84 77 77 84 77 77 84 77 77 84 77 77 84 77 77 84 77 77 84 77 77 84 77 77 84 77 77 84 77 77 84 76 76 84 76 76 84 76 76 84 76 76 84 76 76 84 76 76 84 76 76 84 76 76 84 76 76 84 76 76 84 76 76 83 76 76 83 76 76 83 76 76 83 76 76 83 76 76 83 76 76 83 76 76 83 76 76 83 76 76 83 75 75 83 75 75 83 75 75 83 101 101 111 101 101 111 101 101 111 101 101 111 101 101 111 100 100 111 100 100 111 100 100 111 100 100 111 100 100 110 100 100 110 100 100 110 100 100 110 100 100 110 100 100 110 100 100 110 100 100 110 100 100 110 100 100 110 100 100 110 100 100 110 100 100 110 100 100 110 100 100 110 99 99 110 99 99 110 99 99 109 99 99 109 99 99 109 99 99 109 99 99 109 99 99 109 99 99 109 99 99 109 99 99 109 99 99 109 99 99 109 99 99 109 99 99 109 99 99 109 99 99 109 99 99 109 99 99 109 98 98 108 98 98 108 98 98 108 98 98 108 98 98 108 98 98 108 98 98 108 98 98 108 98 98 108 98 98 108 98 98 108 98 98 108 98 98 108 98 98 108 98 98 108 98 98 108 98 98 108 98 98 108 98 98 107 98 98 107 97 97 107 97 97 107 97 97 107 97 97 107 97 97 107 97 97 107 97 97 107 97 97 107 97 97 107 97 97 107 97 97 107 97 97 107 97 97 107 97 97 107 97 97 107 72 72 80 72 72 80 72 72 79 
84 84 92 84 84 92 112 112 123 112 112 123 112 112 123 112 112 123 112 112 123 112 112 123 112 112 123 112 112 123 112 112 123 111 111 123 111 111 123 111 111 123 111 111 123 111 111 123 111 111 123 111 111 122 111 111 122 111 111 122 111 111 122 111 111 122 111 111 122 111 111 122 111 111 122 111 111 122 111 111 122 111 111 122 111 111 122 111 111 122 111 111 122 111 111 122 111 111 122 111 111 122 111 111 122 111 111 122 111 111 122 110 110 122 110 110 122 110 110 122 110 110 121 110 110 121 110 110 121 110 110 121 110 110 121 110 110 121 110 110 121 110 110 121 110 110 121 110 110 121 110 110 121 110 110 121 110 110 121 110 110 121 110 110 121 110 110 121 110 110 121 110 110 121 110 110 121 110 110 121 110 110 121 109 109 120 109 109 120 109 109 120 109 109 120 109 109 120 109 109 120 109 109 120 109 109 120 109 109 120 109 109 120 109 109 120 109 109 120 109 109 120 109 109 120 109 109 120 109 109 120 109 109 120 109 109 120 109 109 120 109 109 120 81 81 89 81 81 89 81 81 89 81 81 89 81 81 89 81 81 89 81 81 89 81 81 89 81 81 89 81 81 89 81 81 89 81 81 89 81 81 89 81 81 89 81 81 89 81 81 89 81 81 89 81 81 89 81 81 89 81 81 88 81 81 88 81 81 88 81 81 88 81 81 88 81 81 88 81 81 88 80 80 88 80 80 88 80 80 88 80 80 88 80 80 88 80 80 88 80 80 88 80 80 88 80 80 88 80 80 88 80 80 88 80 80 88 80 80 88 80 80 88 80 80 88 80 80 88 80 80 88 80 80 88 80 80 88 80 80 88 80 80 88 80 80 87 80 80 87 80 80 87 80 80 87 80 80 87 80 80 87 80 80 87 79 79 87 79 79 87 79 79 87 79 79 87 79 79 87 79 79 87 79 79 87 79 79 87 79 79 87 79 79 87 79 79 87 79 79 87 79 79 87 79 79 87 79 79 87 79 79 87 79 79 87 79 79 87 79 79 87 79 79 86 79 79 86 79 79 86 79 79 86 79 79 86 79 79 86 79 79 86 79 79 86 78 78 86 78 78 86 78 78 86 78 78 86 78 78 86 78 78 86 78 78 86 78 78 86 78 78 86 78 78 86 78 78 86 78 78 86 78 78 86 78 78 86 78 78 86 78 78 86 78 78 86 78 78 85 78 78 85 78 78 85 78 78 85 78 78 85 78 78 85 78 78 85 78 78 85 78 78 85 78 78 85 78 78 85 78 78 85 77 77 85 77 77 85 77 77 85 77 77 85 77 77 85 77 77 85 77 77 85 77 77 85 77 77 85 77 77 85 77 77 85 77 77 85 77 77 84 77 77 84 77 77 84 77 77 84 77 77 84 77 77 84 77 77 84 77 77 84 77 77 84 77 77 84 77 77 84 77 77 84 77 77 84 77 77 84 76 76 84 76 76 84 76 76 84 76 76 84 76 76 84 76 76 84 76 76 84 76 76 84 76 76 84 76 76 84 76 76 83 76 76 83 76 76 83 76 76 83 76 76 83 76 76 83 76 76 83 76 76 83 76 76 83 76 76 83 75 75 83 75 75 83 75 75 83 101 101 111 101 101 111 101 101 111 101 101 111 101 101 111 100 100 111 100 100 111 100 100 111 100 100 110 100 100 110 100 100 110 100 100 110 100 100 110 100 100 110 100 100 110 100 100 110 100 100 110 100 100 110 100 100 110 100 100 110 100 100 110 100 100 110 100 100 110 100 100 110 99 99 110 99 99 110 99 99 109 99 99 109 99 99 109 99 99 109 99 99 109 99 99 109 99 99 109 99 99 109 99 99 109 99 99 109 99 99 109 99 99 109 99 99 109 99 99 109 99 99 109 99 99 109 99 99 109 99 99 109 98 98 108 98 98 108 98 98 108 98 98 108 98 98 108 98 98 108 98 98 108 98 98 108 98 98 108 98 98 108 98 98 108 98 98 108 98 98 108 98 98 108 98 98 108 98 98 108 98 98 108 98 98 108 98 98 107 97 97 107 97 97 107 97 97 107 97 97 107 97 97 107 97 97 107 97 97 107 97 97 107 97 97 107 97 97 107 97 97 107 97 97 107 97 97 107 97 97 107 97 97 107 97 97 107 72 72 80 
112 112 123 112 112 123 112 112 123 112 112 123 112 112 123 112 112 123 112 112 123 112 112 123 112 112 123 111 111 123 111 111 123 111 111 123 111 111 123 111 111 123 111 111 123 111 111 122 111 111 122 111 111 122 111 111 122 111 111 122 111 111 122 111 111 122 111 111 122 111 111 122 111 111 122 111 111 122 111 111 122 111 111 122 111 111 122 111 111 122 111 111 122 111 111 122 111 111 122 111 111 122 111 111 122 111 111 122 110 110 122 110 110 122 110 110 121 110 110 121 110 110 121 110 110 121 110 110 121 110 110 121 110 110 121 110 110 121 110 110 121 110 110 121 110 110 121 110 110 121 110 110 121 110 110 121 110 110 121 110 110 121 110 110 121 110 110 121 110 110 121 110 110 121 110 110 121 110 110 121 109 109 120 109 109 120 109 109 120 109 109 120 109 109 120 109 109 120 109 109 120 109 109 120 109 109 120 109 109 120 109 109 120 109 109 120 109 109 120 109 109 120 109 109 120 109 109 120 109 109 120 109 109 120 109 109 120 109 109 120 81 81 89 81 81 89 81 81 89 81 81 89 81 81 89 81 81 89 81 81 89 81 81 89 81 81 89 81 81 89 81 81 89 81 81 89 81 81 89 81 81 89 81 81 89 81 81 89 81 81 89 81 81 89 81 81 89 81 81 89 81 81 88 81 81 88 81 81 88 81 81 88 81 81 88 81 81 88 80 80 88 80 80 88 80 80 88 80 80 88 80 80 88 80 80 88 80 80 88 80 80 88 80 80 88 80 80 88 80 80 88 80 80 88 80 80 88 80 80 88 80 80 88 80 80 88 80 80 88 80 80 88 80 80 88 80 80 88 80 80 88 80 80 88 80 80 87 80 80 87 80 80 87 80 80 87 80 80 87 80 80 87 79 79 87 79 79 87 79 79 87 79 79 87 79 79 87 79 79 87 79 79 87 79 79 87 79 79 87 79 79 87 79 79 87 79 79 87 79 79 87 79 79 87 79 79 87 79 79 87 79 79 87 79 79 87 79 79 87 79 79 87 79 79 86 79 79 86 79 79 86 79 79 86 79 79 86 79 79 86 79 79 86 79 79 86 78 78 86 78 78 86 78 78 86 78 78 86 78 78 86 78 78 86 78 78 86 78 78 86 78 78 86 78 78 86 78 78 86 78 78 86 78 78 86 78 78 86 78 78 86 78 78 86 78 78 86 78 78 85 78 78 85 78 78 85 78 78 85 78 78 85 78 78 85 78 78 85 78 78 85 78 78 85 78 78 85 78 78 85 78 78 85 77 77 85 77 77 85 77 77 85 77 77 85 77 77 85 77 77 85 77 77 85 77 77 85 77 77 85 77 77 85 77 77 85 77 77 85 77 77 84 77 77 84 77 77 84 77 77 84 77 77 84 77 77 84 77 77 84 77 77 84 77 77 84 77 77 84 77 77 84 77 77 84 77 77 84 77 77 84 77 77 84 76 76 84 76 76 84 76 76 84 76 76 84 76 76 84 76 76 84 76 76 84 76 76 84 76 76 84 76 76 84 76 76 83 76 76 83 76 76 83 76 76 83 76 76 83 76 76 83 76 76 83 76 76 83 76 76 83 76 76 83 75 75 83 75 75 83 75 75 83 101 101 111 101 101 111 101 101 111 101 101 111 101 101 111 100 100 111 100 100 111 100 100 111 100 100 111 100 100 110 100 100 110 100 100 110 100 100 110 100 100 110 100 100 110 100 100 110 100 100 110 100 100 110 100 100 110 100 100 110 100 100 110 100 100 110 100 100 110 100 100 110 99 99 110 99 99 110 99 99 109 99 99 109 99 99 109 99 99 109 99 99 109 99 99 109 99 99 109 99 99 109 99 99 109 99 99 109 99 99 109 99 99 109 99 99 109 99 99 109 99 99 109 99 99 109 99 99 109 99 99 109 98 98 108 98 98 108 98 98 108 98 98 108 98 98 108 98 98 108 98 98 108 98 98 108 98 98 108 98 98 108 98 98 108 98 98 108 98 98 108 98 98 108 98 98 108 98 98 108 98 98 108 98 98 108 98 98 107 98 98 107 97 97 107 97 97 107 97 97 107 97 97 107 97 97 107 97 97 107 97 97 107 97 97 107 97 97 107 97 97 107 97 97 107 97 97 107 97 97 107 97 97 107 97 97 107 
112 112 123 112 112 123 112 112 123 112 112 123 112 112 123 112 112 123 112 112 123 112 112 123 111 111 123 111 111 123 111 111 123 111 111 123 111 111 123 111 111 122 111 111 122 111 111 122 111 111 122 111 111 122 111 111 122 111 111 122 111 111 122 111 111 122 111 111 122 111 111 122 111 111 122 111 111 122 111 111 122 111 111 122 111 111 122 111 111 122 111 111 122 111 111 122 111 111 122 111 111 122 110 110 122 110 110 122 110 110 122 110 110 121 110 110 121 110 110 121 110 110 121 110 110 121 110 110 121 110 110 121 110 110 121 110 110 121 110 110 121 110 110 121 110 110 121 110 110 121 110 110 121 110 110 121 110 110 121 110 110 121 110 110 121 110 110 121 110 110 121 110 110 121 110 110 121 109 109 120 109 109 120 109 109 120 109 109 120 109 109 120 109 109 120 109 109 120 109 109 120 109 109 120 109 109 120 109 109 120 109 109 120 109 109 120 109 109 120 109 109 120 109 109 120 109 109 120 109 109 120 109 109 120 109 109 120 81 81 89 81 81 89 81 81 89 81 81 89 81 81 89 81 81 89 81 81 89 81 81 89 81 81 89 81 81 89 81 81 89 81 81 89 81 81 89 81 81 89 81 81 89 81 81 89 81 81 89 81 81 89 81 81 89 81 81 89 81 81 88 81 81 88 81 81 88 81 81 88 81 81 88 81 81 88 80 80 88 80 80 88 80 80 88 80 80 88 80 80 88 80 80 88 80 80 88 80 80 88 80 80 88 80 80 88 80 80 88 80 80 88 80 80 88 80 80 88 80 80 88 80 80 88 80 80 88 80 80 88 80 80 88 80 80 88 80 80 88 80 80 88 80 80 88 80 80 87 80 80 87 80 80 87 80 80 87 80 80 87 80 80 87 79 79 87 79 79 87 79 79 87 79 79 87 79 79 87 79 79 87 79 79 87 79 79 87 79 79 87 79 79 87 79 79 87 79 79 87 79 79 87 79 79 87 79 79 87 79 79 87 79 79 87 79 79 87 79 79 87 79 79 86 79 79 86 79 79 86 79 79 86 79 79 86 79 79 86 79 79 86 79 79 86 79 79 86 78 78 86 78 78 86 78 78 86 78 78 86 78 78 86 78 78 86 78 78 86 78 78 86 78 78 86 78 78 86 78 78 86 78 78 86 78 78 86 78 78 86 78 78 86 78 78 86 78 78 86 78 78 85 78 78 85 78 78 85 78 78 85 78 78 85 78 78 85 78 78 85 78 78 85 78 78 85 78 78 85 78 78 85 78 78 85 77 77 85 77 77 85 77 77 85 77 77 85 77 77 85 77 77 85 77 77 85 77 77 85 77 77 85 77 77 85 77 77 85 77 77 85 77 77 85 77 77 84 77 77 84 77 77 84 77 77 84 77 77 84 77 77 84 77 77 84 77 77 84 77 77 84 77 77 84 77 77 84 77 77 84 77 77 84 77 77 84 76 76 84 76 76 84 76 76 84 76 76 84 76 76 84 76 76 84 76 76 84 76 76 84 76 76 84 76 76 84 76 76 83 76 76 83 76 76 83 76 76 83 76 76 83 76 76 83 76 76 83 76 76 83 76 76 83 76 76 83 75 75 83 75 75 83 75 75 83 75 75 83 101 101 111 101 101 111 101 101 111 101 101 111 101 101 111 100 100 111 100 100 111 100 100 111 100 100 110 100 100 110 100 100 110 100 100 110 100 100 110 100 100 110 100 100 110 100 100 110 100 100 110 100 100 110 100 100 110 100 100 110 100 100 110 100 100 110 100 100 110 100 100 110 100 100 110 99 99 110 99 99 110 99 99 109 99 99 109 99 99 109 99 99 109 99 99 109 99 99 109 99 99 109 99 99 109 99 99 109 99 99 109 99 99 109 99 99 109 99 99 109 99 99 109 99 99 109 99 99 109 99 99 109 99 99 109 98 98 108 98 98 108 98 98 108 98 98 108 98 98 108 98 98 108 98 98 108 98 98 108 98 98 108 98 98 108 98 98 108 98 98 108 98 98 108 98 98 108 98 98 108 98 98 108 98 98 108 98 98 108 98 98 107 98 98 107 97 97 107 97 97 107 97 97 107 97 97 107 97 97 107 97 97 107 97 97 107 97 97 107 97 97 107 97 97 107 97 97 107 97 97 107 97 97 107 
112 112 123 112 112 123 112 112 123 112 112 123 112 112 123 112 112 123 111 111 123 111 111 123 111 111 123 111 111 123 111 111 123 111 111 123 111 111 122 111 111 122 111 111 122 111 111 122 111 111 122 111 111 122 111 111 122 111 111 122 111 111 122 111 111 122 111 111 122 111 111 122 111 111 122 111 111 122 111 111 122 111 111 122 111 111 122 111 111 122 111 111 122 111 111 122 111 111 122 110 110 122 110 110 122 110 110 121 110 110 121 110 110 121 110 110 121 110 110 121 110 110 121 110 110 121 110 110 121 110 110 121 110 110 121 110 110 121 110 110 121 110 110 121 110 110 121 110 110 121 110 110 121 110 110 121 110 110 121 110 110 121 110 110 121 110 110 121 110 110 121 109 109 120 109 109 120 109 109 120 109 109 120 109 109 120 109 109 120 109 109 120 109 109 120 109 109 120 109 109 120 109 109 120 109 109 120 109 109 120 109 109 120 109 109 120 109 109 120 109 109 120 109 109 120 109 109 120 109 109 120 109 109 120 81 81 89 81 81 89 81 81 89 81 81 89 81 81 89 81 81 89 81 81 89 81 81 89 81 81 89 81 81 89 81 81 89 81 81 89 81 81 89 81 81 89 81 81 89 81 81 89 81 81 89 81 81 89 81 81 89 81 81 89 81 81 88 81 81 88 81 81 88 81 81 88 81 81 88 81 81 88 81 81 88 80 80 88 80 80 88 80 80 88 80 80 88 80 80 88 80 80 88 80 80 88 80 80 88 80 80 88 80 80 88 80 80 88 80 80 88 80 80 88 80 80 88 80 80 88 80 80 88 80 80 88 80 80 88 80 80 88 80 80 88 80 80 88 80 80 88 80 80 87 80 80 87 80 80 87 80 80 87 80 80 87 80 80 87 80 80 87 79 79 87 79 79 87 79 79 87 79 79 87 79 79 87 79 79 87 79 79 87 79 79 87 79 79 87 79 79 87 79 79 87 79 79 87 79 79 87 79 79 87 79 79 87 79 79 87 79 79 87 79 79 87 79 79 87 79 79 86 79 79 86 79 79 86 79 79 86 79 79 86 79 79 86 79 79 86 79 79 86 79 79 86 78 78 86 78 78 86 78 78 86 78 78 86 78 78 86 78 78 86 78 78 86 78 78 86 78 78 86 78 78 86 78 78 86 78 78 86 78 78 86 78 78 86 78 78 86 78 78 86 78 78 86 78 78 85 78 78 85 78 78 85 78 78 85 78 78 85 78 78 85 78 78 85 78 78 85 78 78 85 78 78 85 78 78 85 78 78 85 78 78 85 77 77 85 77 77 85 77 77 85 77 77 85 77 77 85 77 77 85 77 77 85 77 77 85 77 77 85 77 77 85 77 77 85 77 77 85 77 77 84 77 77 84 77 77 84 77 77 84 77 77 84 77 77 84 77 77 84 77 77 84 77 77 84 77 77 84 77 77 84 77 77 84 77 77 84 77 77 84 77 77 84 76 76 84 76 76 84 76 76 84 76 76 84 76 76 84 76 76 84 76 76 84 76 76 84 76 76 84 76 76 84 76 76 83 76 76 83 76 76 83 76 76 83 76 76 83 76 76 83 76 76 83 76 76 83 76 76 83 76 76 83 75 75 83 75 75 83 75 75 83 75 75 83 101 101 111 101 101 111 101 101 111 101 101 111 101 101 111 100 100 111 100 100 111 100 100 111 100 100 110 100 100 110 100 100 110 100 100 110 100 100 110 100 100 110 100 100 110 100 100 110 100 100 110 100 100 110 100 100 110 100 100 110 100 100 110 100 100 110 100 100 110 100 100 110 100 100 110 99 99 110 99 99 110 99 99 109 99 99 109 99 99 109 99 99 109 99 99 109 99 99 109 99 99 109 99 99 109 99 99 109 99 99 109 99 99 109 99 99 109 99 99 109 99 99 109 99 99 109 99 99 109 99 99 109 99 99 109 98 98 108 98 98 108 98 98 108 98 98 108 98 98 108 98 98 108 98 98 108 98 98 108 98 98 108 98 98 108 98 98 108 98 98 108 98 98 108 98 98 108 98 98 108 98 98 108 98 98 108 98 98 108 98 98 107 98 98 107 97 97 107 97 97 107 97 97 107 97 97 107 97 97 107 97 97 107 97 97 107 97 97 107 97 97 107 97 97 107 97 97 107 97 97 107 
112 112 123 112 112 123 112 112 123 112 112 123 111 111 123 111 111 123 111 111 123 111 111 123 111 111 123 111 111 122 111 111 122 111 111 122 111 111 122 111 111 122 111 111 122 111 111 122 111 111 122 111 111 122 111 111 122 111 111 122 111 111 122 111 111 122 111 111 122 111 111 122 111 111 122 111 111 122 111 111 122 111 111 122 111 111 122 111 111 122 111 111 122 110 110 122 110 110 122 110 110 122 110 110 121 110 110 121 110 110 121 110 110 121 110 110 121 110 110 121 110 110 121 110 110 121 110 110 121 110 110 121 110 110 121 110 110 121 110 110 121 110 110 121 110 110 121 110 110 121 110 110 121 110 110 121 110 110 121 110 110 121 110 110 121 110 110 121 110 110 121 109 109 120 109 109 120 109 109 120 109 109 120 109 109 120 109 109 120 109 109 120 109 109 120 109 109 120 109 109 120 109 109 120 109 109 120 109 109 120 109 109 120 109 109 120 109 109 120 109 109 120 109 109 120 109 109 120 109 109 120 81 81 89 81 81 89 81 81 89 81 81 89 81 81 89 81 81 89 81 81 89 81 81 89 81 81 89 81 81 89 81 81 89 81 81 89 81 81 89 81 81 89 81 81 89 81 81 89 81 81 89 81 81 89 81 81 89 81 81 89 81 81 88 81 81 88 81 81 88 81 81 88 81 81 88 81 81 88 81 81 88 80 80 88 80 80 88 80 80 88 80 80 88 80 80 88 80 80 88 80 80 88 80 80 88 80 80 88 80 80 88 80 80 88 80 80 88 80 80 88 80 80 88 80 80 88 80 80 88 80 80 88 80 80 88 80 80 88 80 80 88 80 80 88 80 80 88 80 80 88 80 80 87 80 80 87 80 80 87 80 80 87 80 80 87 80 80 87 79 79 87 79 79 87 79 79 87 79 79 87 79 79 87 79 79 87 79 79 87 79 79 87 79 79 87 79 79 87 79 79 87 79 79 87 79 79 87 79 79 87 79 79 87 79 79 87 79 79 87 79 79 87 79 79 87 79 79 87 79 79 86 79 79 86 79 79 86 79 79 86 79 79 86 79 79 86 79 79 86 79 79 86 79 79 86 78 78 86 78 78 86 78 78 86 78 78 86 78 78 86 78 78 86 78 78 86 78 78 86 78 78 86 78 78 86 78 78 86 78 78 86 78 78 86 78 78 86 78 78 86 78 78 86 78 78 86 78 78 85 78 78 85 78 78 85 78 78 85 78 78 85 78 78 85 78 78 85 78 78 85 78 78 85 78 78 85 78 78 85 78 78 85 78 78 85 77 77 85 77 77 85 77 77 85 77 77 85 77 77 85 77 77 85 77 77 85 77 77 85 77 77 85 77 77 85 77 77 85 77 77 85 77 77 85 77 77 84 77 77 84 77 77 84 77 77 84 77 77 84 77 77 84 77 77 84 77 77 84 77 77 84 77 77 84 77 77 84 77 77 84 77 77 84 77 77 84 76 76 84 76 76 84 76 76 84 76 76 84 76 76 84 76 76 84 76 76 84 76 76 84 76 76 84 76 76 84 76 76 84 76 76 83 76 76 83 76 76 83 76 76 83 76 76 83 76 76 83 76 76 83 76 76 83 76 76 83 76 76 83 75 75 83 75 75 83 75 75 83 75 75 83 101 101 111 101 101 111 101 101 111 101 101 111 100 100 111 100 100 111 100 100 111 100 100 111 100 100 110 100 100 110 100 100 110 100 100 110 100 100 110 100 100 110 100 100 110 100 100 110 100 100 110 100 100 110 100 100 110 100 100 110 100 100 110 100 100 110 100 100 110 100 100 110 100 100 110 99 99 110 99 99 110 99 99 109 99 99 109 99 99 109 99 99 109 99 99 109 99 99 109 99 99 109 99 99 109 99 99 109 99 99 109 99 99 109 99 99 109 99 99 109 99 99 109 99 99 109 99 99 109 99 99 109 99 99 109 98 98 108 98 98 108 98 98 108 98 98 108 98 98 108 98 98 108 98 98 108 98 98 108 98 98 108 98 98 108 98 98 108 98 98 108 98 98 108 98 98 108 98 98 108 98 98 108 98 98 108 98 98 108 98 98 108 98 98 107 98 98 107 97 97 107 97 97 107 97 97 107 97 97 107 97 97 107 97 97 107 97 97 107 97 97 107 97 97 107 97 97 107 
112 112 123 112 112 123 111 111 123 111 111 123 111 111 123 111 111 123 111 111 123 111 111 123 111 111 122 111 111 122 111 111 122 111 111 122 111 111 122 111 111 122 111 111 122 111 111 122 111 111 122 111 111 122 111 111 122 111 111 122 111 111 122 111 111 122 111 111 122 111 111 122 111 111 122 111 111 122 111 111 122 111 111 122 111 111 122 110 110 122 110 110 122 110 110 122 110 110 121 110 110 121 110 110 121 110 110 121 110 110 121 110 110 121 110 110 121 110 110 121 110 110 121 110 110 121 110 110 121 110 110 121 110 110 121 110 110 121 110 110 121 110 110 121 110 110 121 110 110 121 110 110 121 110 110 121 110 110 121 110 110 121 110 110 121 109 109 120 109 109 120 109 109 120 109 109 120 109 109 120 109 109 120 109 109 120 109 109 120 109 109 120 109 109 120 109 109 120 109 109 120 109 109 120 109 109 120 109 109 120 109 109 120 109 109 120 109 109 120 109 109 120 109 109 120 109 109 120 109 109 120 81 81 89 81 81 89 81 81 89 81 81 89 81 81 89 81 81 89 81 81 89 81 81 89 81 81 89 81 81 89 81 81 89 81 81 89 81 81 89 81 81 89 81 81 89 81 81 89 81 81 89 81 81 89 81 81 89 81 81 88 81 81 88 81 81 88 81 81 88 81 81 88 81 81 88 81 81 88 80 80 88 80 80 88 80 80 88 80 80 88 80 80 88 80 80 88 80 80 88 80 80 88 80 80 88 80 80 88 80 80 88 80 80 88 80 80 88 80 80 88 80 80 88 80 80 88 80 80 88 80 80 88 80 80 88 80 80 88 80 80 88 80 80 88 80 80 88 80 80 87 80 80 87 80 80 87 80 80 87 80 80 87 80 80 87 80 80 87 79 79 87 79 79 87 79 79 87 79 79 87 79 79 87 79 79 87 79 79 87 79 79 87 79 79 87 79 79 87 79 79 87 79 79 87 79 79 87 79 79 87 79 79 87 79 79 87 79 79 87 79 79 87 79 79 87 79 79 87 79 79 86 79 79 86 79 79 86 79 79 86 79 79 86 79 79 86 79 79 86 79 79 86 79 79 86 78 78 86 78 78 86 78 78 86 78 78 86 78 78 86 78 78 86 78 78 86 78 78 86 78 78 86 78 78 86 78 78 86 78 78 86 78 78 86 78 78 86 78 78 86 78 78 86 78 78 86 78 78 85 78 78 85 78 78 85 78 78 85 78 78 85 78 78 85 78 78 85 78 78 85 78 78 85 78 78 85 78 78 85 78 78 85 78 78 85 77 77 85 77 77 85 77 77 85 77 77 85 77 77 85 77 77 85 77 77 85 77 77 85 77 77 85 77 77 85 77 77 85 77 77 85 77 77 85 77 77 84 77 77 84 77 77 84 77 77 84 77 77 84 77 77 84 77 77 84 77 77 84 77 77 84 77 77 84 77 77 84 77 77 84 77 77 84 77 77 84 77 77 84 76 76 84 76 76 84 76 76 84 76 76 84 76 76 84 76 76 84 76 76 84 76 76 84 76 76 84 76 76 84 76 76 83 76 76 83 76 76 83 76 76 83 76 76 83 76 76 83 76 76 83 76 76 83 76 76 83 76 76 83 76 76 83 75 75 83 75 75 83 75 75 83 101 101 111 101 101 111 101 101 111 101 101 111 101 101 111 100 100 111 100 100 111 100 100 111 100 100 111 100 100 110 100 100 110 100 100 110 100 100 110 100 100 110 100 100 110 100 100 110 100 100 110 100 100 110 100 100 110 100 100 110 100 100 110 100 100 110 100 100 110 100 100 110 100 100 110 100 100 110 99 99 110 99 99 110 99 99 109 99 99 109 99 99 109 99 99 109 99 99 109 99 99 109 99 99 109 99 99 109 99 99 109 99 99 109 99 99 109 99 99 109 99 99 109 99 99 109 99 99 109 99 99 109 99 99 109 99 99 109 98 98 108 98 98 108 98 98 108 98 98 108 98 98 108 98 98 108 98 98 108 98 98 108 98 98 108 98 98 108 98 98 108 98 98 108 98 98 108 98 98 108 98 98 108 98 98 108 98 98 108 98 98 108 98 98 108 98 98 107 98 98 107 97 97 107 97 97 107 97 97 107 97 97 107 97 97 107 97 97 107 97 97 107 97 97 107 97 97 107 
111 111 123 111 111 123 111 111 123 111 111 123 111 111 123 111 111 123 111 111 122 111 111 122 111 111 122 111 111 122 111 111 122 111 111 122 111 111 122 111 111 122 111 111 122 111 111 122 111 111 122 111 111 122 111 111 122 111 111 122 111 111 122 111 111 122 111 111 122 111 111 122 111 111 122 111 111 122 111 111 122 111 111 122 110 110 122 110 110 122 110 110 122 110 110 121 110 110 121 110 110 121 110 110 121 110 110 121 110 110 121 110 110 121 110 110 121 110 110 121 110 110 121 110 110 121 110 110 121 110 110 121 110 110 121 110 110 121 110 110 121 110 110 121 110 110 121 110 110 121 110 110 121 110 110 121 110 110 121 110 110 121 109 109 120 109 109 120 109 109 120 109 109 120 109 109 120 109 109 120 109 109 120 109 109 120 109 109 120 109 109 120 109 109 120 109 109 120 109 109 120 109 109 120 109 109 120 109 109 120 109 109 120 109 109 120 109 109 120 109 109 120 109 109 120 109 109 120 81 81 89 81 81 89 81 81 89 81 81 89 81 81 89 81 81 89 81 81 89 81 81 89 81 81 89 81 81 89 81 81 89 81 81 89 81 81 89 81 81 89 81 81 89 81 81 89 81 81 89 81 81 89 81 81 89 81 81 88 81 81 88 81 81 88 81 81 88 81 81 88 81 81 88 81 81 88 80 80 88 80 80 88 80 80 88 80 80 88 80 80 88 80 80 88 80 80 88 80 80 88 80 80 88 80 80 88 80 80 88 80 80 88 80 80 88 80 80 88 80 80 88 80 80 88 80 80 88 80 80 88 80 80 88 80 80 88 80 80 88 80 80 88 80 80 88 80 80 88 80 80 87 80 80 87 80 80 87 80 80 87 80 80 87 80 80 87 79 79 87 79 79 87 79 79 87 79 79 87 79 79 87 79 79 87 79 79 87 79 79 87 79 79 87 79 79 87 79 79 87 79 79 87 79 79 87 79 79 87 79 79 87 79 79 87 79 79 87 79 79 87 79 79 87 79 79 87 79 79 87 79 79 86 79 79 86 79 79 86 79 79 86 79 79 86 79 79 86 79 79 86 79 79 86 79 79 86 78 78 86 78 78 86 78 78 86 78 78 86 78 78 86 78 78 86 78 78 86 78 78 86 78 78 86 78 78 86 78 78 86 78 78 86 78 78 86 78 78 86 78 78 86 78 78 86 78 78 86 78 78 86 78 78 85 78 78 85 78 78 85 78 78 85 78 78 85 78 78 85 78 78 85 78 78 85 78 78 85 78 78 85 78 78 85 78 78 85 77 77 85 77 77 85 77 77 85 77 77 85 77 77 85 77 77 85 77 77 85 77 77 85 77 77 85 77 77 85 77 77 85 77 77 85 77 77 85 77 77 84 77 77 84 77 77 84 77 77 84 77 77 84 77 77 84 77 77 84 77 77 84 77 77 84 77 77 84 77 77 84 77 77 84 77 77 84 77 77 84 77 77 84 76 76 84 76 76 84 76 76 84 76 76 84 76 76 84 76 76 84 76 76 84 76 76 84 76 76 84 76 76 84 76 76 84 76 76 83 76 76 83 76 76 83 76 76 83 76 76 83 76 76 83 76 76 83 76 76 83 76 76 83 76 76 83 75 75 83 75 75 83 75 75 83 75 75 83 101 101 111 101 101 111 101 101 111 101 101 111 101 101 111 100 100 111 100 100 111 100 100 111 100 100 111 100 100 110 100 100 110 100 100 110 100 100 110 100 100 110 100 100 110 100 100 110 100 100 110 100 100 110 100 100 110 100 100 110 100 100 110 100 100 110 100 100 110 100 100 110 100 100 110 100 100 110 99 99 110 99 99 110 99 99 109 99 99 109 99 99 109 99 99 109 99 99 109 99 99 109 99 99 109 99 99 109 99 99 109 99 99 109 99 99 109 99 99 109 99 99 109 99 99 109 99 99 109 99 99 109 99 99 109 99 99 109 99 99 109 98 98 108 98 98 108 98 98 108 98 98 108 98 98 108 98 98 108 98 98 108 98 98 108 98 98 108 98 98 108 98 98 108 98 98 108 98 98 108 98 98 108 98 98 108 98 98 108 98 98 108 98 98 108 98 98 107 98 98 107 97 97 107 97 97 107 97 97 107 97 97 107 97 97 107 97 97 107 97 97 107 97 97 107 
111 111 123 111 111 123 111 111 123 111 111 123 111 111 122 111 111 122 111 111 122 111 111 122 111 111 122 111 111 122 111 111 122 111 111 122 111 111 122 111 111 122 111 111 122 111 111 122 111 111 122 111 111 122 111 111 122 111 111 122 111 111 122 111 111 122 111 111 122 111 111 122 111 111 122 111 111 122 110 110 122 110 110 122 110 110 122 110 110 121 110 110 121 110 110 121 110 110 121 110 110 121 110 110 121 110 110 121 110 110 121 110 110 121 110 110 121 110 110 121 110 110 121 110 110 121 110 110 121 110 110 121 110 110 121 110 110 121 110 110 121 110 110 121 110 110 121 110 110 121 110 110 121 110 110 121 109 109 120 109 109 120 109 109 120 109 109 120 109 109 120 109 109 120 109 109 120 109 109 120 109 109 120 109 109 120 109 109 120 109 109 120 109 109 120 109 109 120 109 109 120 109 109 120 109 109 120 109 109 120 109 109 120 109 109 120 109 109 120 109 109 120 109 109 120 81 81 89 81 81 89 81 81 89 81 81 89 81 81 89 81 81 89 81 81 89 81 81 89 81 81 89 81 81 89 81 81 89 81 81 89 81 81 89 81 81 89 81 81 89 81 81 89 81 81 89 81 81 89 81 81 89 81 81 89 81 81 88 81 81 88 81 81 88 81 81 88 81 81 88 81 81 88 81 81 88 80 80 88 80 80 88 80 80 88 80 80 88 80 80 88 80 80 88 80 80 88 80 80 88 80 80 88 80 80 88 80 80 88 80 80 88 80 80 88 80 80 88 80 80 88 80 80 88 80 80 88 80 80 88 80 80 88 80 80 88 80 80 88 80 80 88 80 80 88 80 80 87 80 80 87 80 80 87 80 80 87 80 80 87 80 80 87 80 80 87 79 79 87 79 79 87 79 79 87 79 79 87 79 79 87 79 79 87 79 79 87 79 79 87 79 79 87 79 79 87 79 79 87 79 79 87 79 79 87 79 79 87 79 79 87 79 79 87 79 79 87 79 79 87 79 79 87 79 79 87 79 79 87 79 79 86 79 79 86 79 79 86 79 79 86 79 79 86 79 79 86 79 79 86 79 79 86 79 79 86 78 78 86 78 78 86 78 78 86 78 78 86 78 78 86 78 78 86 78 78 86 78 78 86 78 78 86 78 78 86 78 78 86 78 78 86 78 78 86 78 78 86 78 78 86 78 78 86 78 78 86 78 78 86 78 78 85 78 78 85 78 78 85 78 78 85 78 78 85 78 78 85 78 78 85 78 78 85 78 78 85 78 78 85 78 78 85 78 78 85 78 78 85 77 77 85 77 77 85 77 77 85 77 77 85 77 77 85 77 77 85 77 77 85 77 77 85 77 77 85 77 77 85 77 77 85 77 77 85 77 77 85 77 77 84 77 77 84 77 77 84 77 77 84 77 77 84 77 77 84 77 77 84 77 77 84 77 77 84 77 77 84 77 77 84 77 77 84 77 77 84 77 77 84 77 77 84 76 76 84 76 76 84 76 76 84 76 76 84 76 76 84 76 76 84 76 76 84 76 76 84 76 76 84 76 76 84 76 76 84 76 76 83 76 76 83 76 76 83 76 76 83 76 76 83 76 76 83 76 76 83 76 76 83 76 76 83 76 76 83 75 75 83 75 75 83 75 75 83 75 75 83 101 101 111 101 101 111 101 101 111 101 101 111 101 101 111 100 100 111 100 100 111 100 100 111 100 100 111 100 100 110 100 100 110 100 100 110 100 100 110 100 100 110 100 100 110 100 100 110 100 100 110 100 100 110 100 100 110 100 100 110 100 100 110 100 100 110 100 100 110 100 100 110 100 100 110 100 100 110 99 99 110 99 99 110 99 99 109 99 99 109 99 99 109 99 99 109 99 99 109 99 99 109 99 99 109 99 99 109 99 99 109 99 99 109 99 99 109 99 99 109 99 99 109 99 99 109 99 99 109 99 99 109 99 99 109 99 99 109 99 99 109 98 98 108 98 98 108 98 98 108 98 98 108 98 98 108 98 98 108 98 98 108 98 98 108 98 98 108 98 98 108 98 98 108 98 98 108 98 98 108 98 98 108 98 98 108 98 98 108 98 98 108 98 98 108 98 98 108 98 98 107 98 98 107 97 97 107 97 97 107 97 97 107 97 97 107 97 97 107 97 97 107 
111 111 123 111 111 123 111 111 122 111 111 122 111 111 122 111 111 122 111 111 122 111 111 122 111 111 122 111 111 122 111 111 122 111 111 122 111 111 122 111 111 122 111 111 122 111 111 122 111 111 122 111 111 122 111 111 122 111 111 122 111 111 122 111 111 122 111 111 122 111 111 122 111 111 122 110 110 122 110 110 122 110 110 121 110 110 121 110 110 121 110 110 121 110 110 121 110 110 121 110 110 121 110 110 121 110 110 121 110 110 121 110 110 121 110 110 121 110 110 121 110 110 121 110 110 121 110 110 121 110 110 121 110 110 121 110 110 121 110 110 121 110 110 121 110 110 121 110 110 121 110 110 121 109 109 120 109 109 120 109 109 120 109 109 120 109 109 120 109 109 120 109 109 120 109 109 120 109 109 120 109 109 120 109 109 120 109 109 120 109 109 120 109 109 120 109 109 120 109 109 120 109 109 120 109 109 120 109 109 120 109 109 120 109 109 120 109 109 120 109 109 120 81 81 89 81 81 89 81 81 89 81 81 89 81 81 89 81 81 89 81 81 89 81 81 89 81 81 89 81 81 89 81 81 89 81 81 89 81 81 89 81 81 89 81 81 89 81 81 89 81 81 89 81 81 89 81 81 89 81 81 89 81 81 88 81 81 88 81 81 88 81 81 88 81 81 88 81 81 88 81 81 88 80 80 88 80 80 88 80 80 88 80 80 88 80 80 88 80 80 88 80 80 88 80 80 88 80 80 88 80 80 88 80 80 88 80 80 88 80 80 88 80 80 88 80 80 88 80 80 88 80 80 88 80 80 88 80 80 88 80 80 88 80 80 88 80 80 88 80 80 88 80 80 88 80 80 87 80 80 87 80 80 87 80 80 87 80 80 87 80 80 87 79 79 87 79 79 87 79 79 87 79 79 87 79 79 87 79 79 87 79 79 87 79 79 87 79 79 87 79 79 87 79 79 87 79 79 87 79 79 87 79 79 87 79 79 87 79 79 87 79 79 87 79 79 87 79 79 87 79 79 87 79 79 87 79 79 86 79 79 86 79 79 86 79 79 86 79 79 86 79 79 86 79 79 86 79 79 86 79 79 86 79 79 86 78 78 86 78 78 86 78 78 86 78 78 86 78 78 86 78 78 86 78 78 86 78 78 86 78 78 86 78 78 86 78 78 86 78 78 86 78 78 86 78 78 86 78 78 86 78 78 86 78 78 86 78 78 85 78 78 85 78 78 85 78 78 85 78 78 85 78 78 85 78 78 85 78 78 85 78 78 85 78 78 85 78 78 85 78 78 85 78 78 85 78 78 85 77 77 85 77 77 85 77 77 85 77 77 85 77 77 85 77 77 85 77 77 85 77 77 85 77 77 85 77 77 85 77 77 85 77 77 85 77 77 85 77 77 84 77 77 84 77 77 84 77 77 84 77 77 84 77 77 84 77 77 84 77 77 84 77 77 84 77 77 84 77 77 84 77 77 84 77 77 84 77 77 84 77 77 84 76 76 84 76 76 84 76 76 84 76 76 84 76 76 84 76 76 84 76 76 84 76 76 84 76 76 84 76 76 84 76 76 84 76 76 83 76 76 83 76 76 83 76 76 83 76 76 83 76 76 83 76 76 83 76 76 83 76 76 83 76 76 83 76 76 83 75 75 83 75 75 83 75 75 83 75 75 83 101 101 111 101 101 111 101 101 111 101 101 111 101 101 111 100 100 111 100 100 111 100 100 111 100 100 111 100 100 110 100 100 110 100 100 110 100 100 110 100 100 110 100 100 110 100 100 110 100 100 110 100 100 110 100 100 110 100 100 110 100 100 110 100 100 110 100 100 110 100 100 110 100 100 110 100 100 110 99 99 110 99 99 110 99 99 109 99 99 109 99 99 109 99 99 109 99 99 109 99 99 109 99 99 109 99 99 109 99 99 109 99 99 109 99 99 109 99 99 109 99 99 109 99 99 109 99 99 109 99 99 109 99 99 109 99 99 109 99 99 109 98 98 108 98 98 108 98 98 108 98 98 108 98 98 108 98 98 108 98 98 108 98 98 108 98 98 108 98 98 108 98 98 108 98 98 108 98 98 108 98 98 108 98 98 108 98 98 108 98 98 108 98 98 108 98 98 108 98 98 107 98 98 107 98 98 107 97 97 107 97 97 107 97 97 107 97 97 107 
111 111 123 111 111 122 111 111 122 111 111 122 111 111 122 111 111 122 111 111 122 111 111 122 111 111 122 111 111 122 111 111 122 111 111 122 111 111 122 111 111 122 111 111 122 111 111 122 111 111 122 111 111 122 111 111 122 111 111 122 111 111 122 111 111 122 111 111 122 110 110 122 110 110 122 110 110 122 110 110 121 110 110 121 110 110 121 110 110 121 110 110 121 110 110 121 110 110 121 110 110 121 110 110 121 110 110 121 110 110 121 110 110 121 110 110 121 110 110 121 110 110 121 110 110 121 110 110 121 110 110 121 110 110 121 110 110 121 110 110 121 110 110 121 110 110 121 110 110 121 109 109 120 109 109 120 109 109 120 109 109 120 109 109 120 109 109 120 109 109 120 109 109 120 109 109 120 109 109 120 109 109 120 109 109 120 109 109 120 109 109 120 109 109 120 109 109 120 109 109 120 109 109 120 109 109 120 109 109 120 109 109 120 109 109 120 109 109 120 81 81 89 81 81 89 81 81 89 81 81 89 81 81 89 81 81 89 81 81 89 81 81 89 81 81 89 81 81 89 81 81 89 81 81 89 81 81 89 81 81 89 81 81 89 81 81 89 81 81 89 81 81 89 81 81 89 81 81 89 81 81 88 81 81 88 81 81 88 81 81 88 81 81 88 81 81 88 81 81 88 80 80 88 80 80 88 80 80 88 80 80 88 80 80 88 80 80 88 80 80 88 80 80 88 80 80 88 80 80 88 80 80 88 80 80 88 80 80 88 80 80 88 80 80 88 80 80 88 80 80 88 80 80 88 80 80 88 80 80 88 80 80 88 80 80 88 80 80 88 80 80 88 80 80 87 80 80 87 80 80 87 80 80 87 80 80 87 80 80 87 80 80 87 79 79 87 79 79 87 79 79 87 79 79 87 79 79 87 79 79 87 79 79 87 79 79 87 79 79 87 79 79 87 79 79 87 79 79 87 79 79 87 79 79 87 79 79 87 79 79 87 79 79 87 79 79 87 79 79 87 79 79 87 79 79 87 79 79 86 79 79 86 79 79 86 79 79 86 79 79 86 79 79 86 79 79 86 79 79 86 79 79 86 79 79 86 78 78 86 78 78 86 78 78 86 78 78 86 78 78 86 78 78 86 78 78 86 78 78 86 78 78 86 78 78 86 78 78 86 78 78 86 78 78 86 78 78 86 78 78 86 78 78 86 78 78 86 78 78 86 78 78 85 78 78 85 78 78 85 78 78 85 78 78 85 78 78 85 78 78 85 78 78 85 78 78 85 78 78 85 78 78 85 78 78 85 78 78 85 77 77 85 77 77 85 77 77 85 77 77 85 77 77 85 77 77 85 77 77 85 77 77 85 77 77 85 77 77 85 77 77 85 77 77 85 77 77 85 77 77 84 77 77 84 77 77 84 77 77 84 77 77 84 77 77 84 77 77 84 77 77 84 77 77 84 77 77 84 77 77 84 77 77 84 77 77 84 77 77 84 77 77 84 77 77 84 76 76 84 76 76 84 76 76 84 76 76 84 76 76 84 76 76 84 76 76 84 76 76 84 76 76 84 76 76 84 76 76 84 76 76 83 76 76 83 76 76 83 76 76 83 76 76 83 76 76 83 76 76 83 76 76 83 76 76 83 76 76 83 76 76 83 75 75 83 75 75 83 75 75 83 75 75 83 101 101 111 101 101 111 101 101 111 101 101 111 100 100 111 100 100 111 100 100 111 100 100 111 100 100 110 100 100 110 100 100 110 100 100 110 100 100 110 100 100 110 100 100 110 100 100 110 100 100 110 100 100 110 100 100 110 100 100 110 100 100 110 100 100 110 100 100 110 100 100 110 100 100 110 100 100 110 99 99 110 99 99 110 99 99 109 99 99 109 99 99 109 99 99 109 99 99 109 99 99 109 99 99 109 99 99 109 99 99 109 99 99 109 99 99 109 99 99 109 99 99 109 99 99 109 99 99 109 99 99 109 99 99 109 99 99 109 99 99 109 98 98 108 98 98 108 98 98 108 98 98 108 98 98 108 98 98 108 98 98 108 98 98 108 98 98 108 98 98 108 98 98 108 98 98 108 98 98 108 98 98 108 98 98 108 98 98 108 98 98 108 98 98 108 98 98 108 98 98 108 98 98 107 98 98 107 97 97 107 97 97 107 97 97 107 
111 111 122 111 111 122 111 111 122 111 111 122 111 111 122 111 111 122 111 111 122 111 111 122 111 111 122 111 111 122 111 111 122 111 111 122 111 111 122 111 111 122 111 111 122 111 111 122 111 111 122 111 111 122 111 111 122 111 111 122 111 111 122 110 110 122 110 110 122 110 110 122 110 110 121 110 110 121 110 110 121 110 110 121 110 110 121 110 110 121 110 110 121 110 110 121 110 110 121 110 110 121 110 110 121 110 110 121 110 110 121 110 110 121 110 110 121 110 110 121 110 110 121 110 110 121 110 110 121 110 110 121 110 110 121 110 110 121 110 110 121 110 110 121 109 109 120 109 109 120 109 109 120 109 109 120 109 109 120 109 109 120 109 109 120 109 109 120 109 109 120 109 109 120 109 109 120 109 109 120 109 109 120 109 109 120 109 109 120 109 109 120 109 109 120 109 109 120 109 109 120 109 109 120 109 109 120 109 109 120 109 109 120 109 109 120 81 81 89 81 81 89 81 81 89 81 81 89 81 81 89 81 81 89 81 81 89 81 81 89 81 81 89 81 81 89 81 81 89 81 81 89 81 81 89 81 81 89 81 81 89 81 81 89 81 81 89 81 81 89 81 81 89 81 81 89 81 81 88 81 81 88 81 81 88 81 81 88 81 81 88 81 81 88 81 81 88 80 80 88 80 80 88 80 80 88 80 80 88 80 80 88 80 80 88 80 80 88 80 80 88 80 80 88 80 80 88 80 80 88 80 80 88 80 80 88 80 80 88 80 80 88 80 80 88 80 80 88 80 80 88 80 80 88 80 80 88 80 80 88 80 80 88 80 80 88 80 80 88 80 80 87 80 80 87 80 80 87 80 80 87 80 80 87 80 80 87 80 80 87 80 80 87 79 79 87 79 79 87 79 79 87 79 79 87 79 79 87 79 79 87 79 79 87 79 79 87 79 79 87 79 79 87 79 79 87 79 79 87 79 79 87 79 79 87 79 79 87 79 79 87 79 79 87 79 79 87 79 79 87 79 79 87 79 79 87 79 79 86 79 79 86 79 79 86 79 79 86 79 79 86 79 79 86 79 79 86 79 79 86 79 79 86 78 78 86 78 78 86 78 78 86 78 78 86 78 78 86 78 78 86 78 78 86 78 78 86 78 78 86 78 78 86 78 78 86 78 78 86 78 78 86 78 78 86 78 78 86 78 78 86 78 78 86 78 78 86 78 78 86 78 78 85 78 78 85 78 78 85 78 78 85 78 78 85 78 78 85 78 78 85 78 78 85 78 78 85 78 78 85 78 78 85 78 78 85 78 78 85 77 77 85 77 77 85 77 77 85 77 77 85 77 77 85 77 77 85 77 77 85 77 77 85 77 77 85 77 77 85 77 77 85 77 77 85 77 77 85 77 77 85 77 77 84 77 77 84 77 77 84 77 77 84 77 77 84 77 77 84 77 77 84 77 77 84 77 77 84 77 77 84 77 77 84 77 77 84 77 77 84 77 77 84 77 77 84 76 76 84 76 76 84 76 76 84 76 76 84 76 76 84 76 76 84 76 76 84 76 76 84 76 76 84 76 76 84 76 76 84 76 76 83 76 76 83 76 76 83 76 76 83 76 76 83 76 76 83 76 76 83 76 76 83 76 76 83 76 76 83 76 76 83 75 75 83 75 75 83 75 75 83 75 75 83 75 75 83 101 101 111 101 101 111 101 101 111 101 101 111 100 100 111 100 100 111 100 100 111 100 100 111 100 100 110 100 100 110 100 100 110 100 100 110 100 100 110 100 100 110 100 100 110 100 100 110 100 100 110 100 100 110 100 100 110 100 100 110 100 100 110 100 100 110 100 100 110 100 100 110 100 100 110 100 100 110 99 99 110 99 99 110 99 99 109 99 99 109 99 99 109 99 99 109 99 99 109 99 99 109 99 99 109 99 99 109 99 99 109 99 99 109 99 99 109 99 99 109 99 99 109 99 99 109 99 99 109 99 99 109 99 99 109 99 99 109 99 99 109 99 99 109 98 98 108 98 98 108 98 98 108 98 98 108 98 98 108 98 98 108 98 98 108 98 98 108 98 98 108 98 98 108 98 98 108 98 98 108 98 98 108 98 98 108 98 98 108 98 98 108 98 98 108 98 98 108 98 98 108 98 98 107 98 98 107 98 98 107 97 97 107 
111 111 122 111 111 122 111 111 122 111 111 122 111 111 122 111 111 122 111 111 122 111 111 122 111 111 122 111 111 122 111 111 122 111 111 122 111 111 122 111 111 122 111 111 122 111 111 122 111 111 122 111 111 122 111 111 122 111 111 122 110 110 122 110 110 122 110 110 122 110 110 121 110 110 121 110 110 121 110 110 121 110 110 121 110 110 121 110 110 121 110 110 121 110 110 121 110 110 121 110 110 121 110 110 121 110 110 121 110 110 121 110 110 121 110 110 121 110 110 121 110 110 121 110 110 121 110 110 121 110 110 121 110 110 121 110 110 121 110 110 121 109 109 120 109 109 120 109 109 120 109 109 120 109 109 120 109 109 120 109 109 120 109 109 120 109 109 120 109 109 120 109 109 120 109 109 120 109 109 120 109 109 120 109 109 120 109 109 120 109 109 120 109 109 120 109 109 120 109 109 120 109 109 120 109 109 120 109 109 120 109 109 120 81 81 89 81 81 89 81 81 89 81 81 89 81 81 89 81 81 89 81 81 89 81 81 89 81 81 89 81 81 89 81 81 89 81 81 89 81 81 89 81 81 89 81 81 89 81 81 89 81 81 89 81 81 89 81 81 89 81 81 89 81 81 88 81 81 88 81 81 88 81 81 88 81 81 88 81 81 88 81 81 88 80 80 88 80 80 88 80 80 88 80 80 88 80 80 88 80 80 88 80 80 88 80 80 88 80 80 88 80 80 88 80 80 88 80 80 88 80 80 88 80 80 88 80 80 88 80 80 88 80 80 88 80 80 88 80 80 88 80 80 88 80 80 88 80 80 88 80 80 88 80 80 88 80 80 88 80 80 87 80 80 87 80 80 87 80 80 87 80 80 87 80 80 87 80 80 87 79 79 87 79 79 87 79 79 87 79 79 87 79 79 87 79 79 87 79 79 87 79 79 87 79 79 87 79 79 87 79 79 87 79 79 87 79 79 87 79 79 87 79 79 87 79 79 87 79 79 87 79 79 87 79 79 87 79 79 87 79 79 87 79 79 86 79 79 86 79 79 86 79 79 86 79 79 86 79 79 86 79 79 86 79 79 86 79 79 86 79 79 86 78 78 86 78 78 86 78 78 86 78 78 86 78 78 86 78 78 86 78 78 86 78 78 86 78 78 86 78 78 86 78 78 86 78 78 86 78 78 86 78 78 86 78 78 86 78 78 86 78 78 86 78 78 86 78 78 86 78 78 85 78 78 85 78 78 85 78 78 85 78 78 85 78 78 85 78 78 85 78 78 85 78 78 85 78 78 85 78 78 85 78 78 85 78 78 85 77 77 85 77 77 85 77 77 85 77 77 85 77 77 85 77 77 85 77 77 85 77 77 85 77 77 85 77 77 85 77 77 85 77 77 85 77 77 85 77 77 85 77 77 84 77 77 84 77 77 84 77 77 84 77 77 84 77 77 84 77 77 84 77 77 84 77 77 84 77 77 84 77 77 84 77 77 84 77 77 84 77 77 84 77 77 84 77 77 84 76 76 84 76 76 84 76 76 84 76 76 84 76 76 84 76 76 84 76 76 84 76 76 84 76 76 84 76 76 84 76 76 84 76 76 83 76 76 83 76 76 83 76 76 83 76 76 83 76 76 83 76 76 83 76 76 83 76 76 83 76 76 83 76 76 83 75 75 83 75 75 83 75 75 83 75 75 83 75 75 83 101 101 111 101 101 111 101 101 111 101 101 111 100 100 111 100 100 111 100 100 111 100 100 111 100 100 110 100 100 110 100 100 110 100 100 110 100 100 110 100 100 110 100 100 110 100 100 110 100 100 110 100 100 110 100 100 110 100 100 110 100 100 110 100 100 110 100 100 110 100 100 110 100 100 110 100 100 110 99 99 110 99 99 110 99 99 109 99 99 109 99 99 109 99 99 109 99 99 109 99 99 109 99 99 109 99 99 109 99 99 109 99 99 109 99 99 109 99 99 109 99 99 109 99 99 109 99 99 109 99 99 109 99 99 109 99 99 109 99 99 109 99 99 109 98 98 108 98 98 108 98 98 108 98 98 108 98 98 108 98 98 108 98 98 108 98 98 108 98 98 108 98 98 108 98 98 108 98 98 108 98 98 108 98 98 108 98 98 108 98 98 108 98 98 108 98 98 108 98 98 108 98 98 108 98 98 107 98 98 107 
111 111 122 111 111 122 111 111 122 111 111 122 111 111 122 111 111 122 111 111 122 111 111 122 111 111 122 111 111 122 111 111 122 111 111 122 111 111 122 111 111 122 111 111 122 111 111 122 111 111 122 111 111 122 110 110 122 110 110 122 110 110 122 110 110 121 110 110 121 110 110 121 110 110 121 110 110 121 110 110 121 110 110 121 110 110 121 110 110 121 110 110 121 110 110 121 110 110 121 110 110 121 110 110 121 110 110 121 110 110 121 110 110 121 110 110 121 110 110 121 110 110 121 110 110 121 110 110 121 110 110 121 110 110 121 110 110 121 109 109 120 109 109 120 109 109 120 109 109 120 109 109 120 109 109 120 109 109 120 109 109 120 109 109 120 109 109 120 109 109 120 109 109 120 109 109 120 109 109 120 109 109 120 109 109 120 109 109 120 109 109 120 109 109 120 109 109 120 109 109 120 109 109 120 109 109 120 109 109 120 81 81 89 81 81 89 81 81 89 81 81 89 81 81 89 81 81 89 81 81 89 81 81 89 81 81 89 81 81 89 81 81 89 81 81 89 81 81 89 81 81 89 81 81 89 81 81 89 81 81 89 81 81 89 81 81 89 81 81 89 81 81 88 81 81 88 81 81 88 81 81 88 81 81 88 81 81 88 81 81 88 81 81 88 80 80 88 80 80 88 80 80 88 80 80 88 80 80 88 80 80 88 80 80 88 80 80 88 80 80 88 80 80 88 80 80 88 80 80 88 80 80 88 80 80 88 80 80 88 80 80 88 80 80 88 80 80 88 80 80 88 80 80 88 80 80 88 80 80 88 80 80 88 80 80 88 80 80 87 80 80 87 80 80 87 80 80 87 80 80 87 80 80 87 80 80 87 80 80 87 79 79 87 79 79 87 79 79 87 79 79 87 79 79 87 79 79 87 79 79 87 79 79 87 79 79 87 79 79 87 79 79 87 79 79 87 79 79 87 79 79 87 79 79 87 79 79 87 79 79 87 79 79 87 79 79 87 79 79 87 79 79 87 79 79 86 79 79 86 79 79 86 79 79 86 79 79 86 79 79 86 79 79 86 79 79 86 79 79 86 79 79 86 78 78 86 78 78 86 78 78 86 78 78 86 78 78 86 78 78 86 78 78 86 78 78 86 78 78 86 78 78 86 78 78 86 78 78 86 78 78 86 78 78 86 78 78 86 78 78 86 78 78 86 78 78 86 78 78 86 78 78 85 78 78 85 78 78 85 78 78 85 78 78 85 78 78 85 78 78 85 78 78 85 78 78 85 78 78 85 78 78 85 78 78 85 78 78 85 78 78 85 77 77 85 77 77 85 77 77 85 77 77 85 77 77 85 77 77 85 77 77 85 77 77 85 77 77 85 77 77 85 77 77 85 77 77 85 77 77 85 77 77 84 77 77 84 77 77 84 77 77 84 77 77 84 77 77 84 77 77 84 77 77 84 77 77 84 77 77 84 77 77 84 77 77 84 77 77 84 77 77 84 77 77 84 77 77 84 76 76 84 76 76 84 76 76 84 76 76 84 76 76 84 76 76 84 76 76 84 76 76 84 76 76 84 76 76 84 76 76 84 76 76 84 76 76 83 76 76 83 76 76 83 76 76 83 76 76 83 76 76 83 76 76 83 76 76 83 76 76 83 76 76 83 76 76 83 75 75 83 75 75 83 75 75 83 75 75 83 75 75 83 101 101 111 101 101 111 101 101 111 101 101 111 100 100 111 100 100 111 100 100 111 100 100 111 100 100 110 100 100 110 100 100 110 100 100 110 100 100 110 100 100 110 100 100 110 100 100 110 100 100 110 100 100 110 100 100 110 100 100 110 100 100 110 100 100 110 100 100 110 100 100 110 100 100 110 100 100 110 99 99 110 99 99 110 99 99 109 99 99 109 99 99 109 99 99 109 99 99 109 99 99 109 99 99 109 99 99 109 99 99 109 99 99 109 99 99 109 99 99 109 99 99 109 99 99 109 99 99 109 99 99 109 99 99 109 99 99 109 99 99 109 99 99 109 98 98 108 98 98 108 98 98 108 98 98 108 98 98 108 98 98 108 98 98 108 98 98 108 98 98 108 98 98 108 98 98 108 98 98 108 98 98 108 98 98 108 98 98 108 98 98 108 98 98 108 98 98 108 98 98 108 98 98 108 98 98 107 
111 111 122 111 111 122 111 111 122 111 111 122 111 111 122 111 111 122 111 111 122 111 111 122 111 111 122 111 111 122 111 111 122 111 111 122 111 111 122 111 111 122 111 111 122 111 111 122 110 110 122 110 110 122 110 110 122 110 110 121 110 110 121 110 110 121 110 110 121 110 110 121 110 110 121 110 110 121 110 110 121 110 110 121 110 110 121 110 110 121 110 110 121 110 110 121 110 110 121 110 110 121 110 110 121 110 110 121 110 110 121 110 110 121 110 110 121 110 110 121 110 110 121 110 110 121 110 110 121 110 110 121 109 109 120 109 109 120 109 109 120 109 109 120 109 109 120 109 109 120 109 109 120 109 109 120 109 109 120 109 109 120 109 109 120 109 109 120 109 109 120 109 109 120 109 109 120 109 109 120 109 109 120 109 109 120 109 109 120 109 109 120 109 109 120 109 109 120 109 109 120 109 109 120 109 109 120 109 109 119 81 81 89 81 81 89 81 81 89 81 81 89 81 81 89 81 81 89 81 81 89 81 81 89 81 81 89 81 81 89 81 81 89 81 81 89 81 81 89 81 81 89 81 81 89 81 81 89 81 81 89 81 81 89 81 81 89 81 81 88 81 81 88 81 81 88 81 81 88 81 81 88 81 81 88 81 81 88 81 81 88 80 80 88 80 80 88 80 80 88 80 80 88 80 80 88 80 80 88 80 80 88 80 80 88 80 80 88 80 80 88 80 80 88 80 80 88 80 80 88 80 80 88 80 80 88 80 80 88 80 80 88 80 80 88 80 80 88 80 80 88 80 80 88 80 80 88 80 80 88 80 80 88 80 80 88 80 80 87 80 80 87 80 80 87 80 80 87 80 80 87 80 80 87 80 80 87 79 79 87 79 79 87 79 79 87 79 79 87 79 79 87 79 79 87 79 79 87 79 79 87 79 79 87 79 79 87 79 79 87 79 79 87 79 79 87 79 79 87 79 79 87 79 79 87 79 79 87 79 79 87 79 79 87 79 79 87 79 79 87 79 79 87 79 79 86 79 79 86 79 79 86 79 79 86 79 79 86 79 79 86 79 79 86 79 79 86 79 79 86 79 79 86 78 78 86 78 78 86 78 78 86 78 78 86 78 78 86 78 78 86 78 78 86 78 78 86 78 78 86 78 78 86 78 78 86 78 78 86 78 78 86 78 78 86 78 78 86 78 78 86 78 78 86 78 78 86 78 78 86 78 78 85 78 78 85 78 78 85 78 78 85 78 78 85 78 78 85 78 78 85 78 78 85 78 78 85 78 78 85 78 78 85 78 78 85 78 78 85 78 78 85 77 77 85 77 77 85 77 77 85 77 77 85 77 77 85 77 77 85 77 77 85 77 77 85 77 77 85 77 77 85 77 77 85 77 77 85 77 77 85 77 77 85 77 77 84 77 77 84 77 77 84 77 77 84 77 77 84 77 77 84 77 77 84 77 77 84 77 77 84 77 77 84 77 77 84 77 77 84 77 77 84 77 77 84 77 77 84 77 77 84 76 76 84 76 76 84 76 76 84 76 76 84 76 76 84 76 76 84 76 76 84 76 76 84 76 76 84 76 76 84 76 76 84 76 76 83 76 76 83 76 76 83 76 76 83 76 76 83 76 76 83 76 76 83 76 76 83 76 76 83 76 76 83 76 76 83 75 75 83 75 75 83 75 75 83 75 75 83 75 75 83 101 101 111 101 101 111 101 101 111 101 101 111 101 101 111 100 100 111 100 100 111 100 100 111 100 100 111 100 100 110 100 100 110 100 100 110 100 100 110 100 100 110 100 100 110 100 100 110 100 100 110 100 100 110 100 100 110 100 100 110 100 100 110 100 100 110 100 100 110 100 100 110 100 100 110 100 100 110 100 100 110 99 99 110 99 99 110 99 99 109 99 99 109 99 99 109 99 99 109 99 99 109 99 99 109 99 99 109 99 99 109 99 99 109 99 99 109 99 99 109 99 99 109 99 99 109 99 99 109 99 99 109 99 99 109 99 99 109 99 99 109 99 99 109 99 99 109 98 98 108 98 98 108 98 98 108 98 98 108 98 98 108 98 98 108 98 98 108 98 98 108 98 98 108 98 98 108 98 98 108 98 98 108 98 98 108 98 98 108 98 98 108 98 98 108 98 98 108 98 98 108 98 98 108 98 98 108 
111 111 122 111 111 122 111 111 122 111 111 122 111 111 122 111 111 122 111 111 122 111 111 122 111 111 122 111 111 122 111 111 122 111 111 122 111 111 122 111 111 122 111 111 122 110 110 122 110 110 122 110 110 122 110 110 121 110 110 121 110 110 121 110 110 121 110 110 121 110 110 121 110 110 121 110 110 121 110 110 121 110 110 121 110 110 121 110 110 121 110 110 121 110 110 121 110 110 121 110 110 121 110 110 121 110 110 121 110 110 121 110 110 121 110 110 121 110 110 121 110 110 121 110 110 121 110 110 121 109 109 120 109 109 120 109 109 120 109 109 120 109 109 120 109 109 120 109 109 120 109 109 120 109 109 120 109 109 120 109 109 120 109 109 120 109 109 120 109 109 120 109 109 120 109 109 120 109 109 120 109 109 120 109 109 120 109 109 120 109 109 120 109 109 120 109 109 120 109 109 120 109 109 119 109 109 119 81 81 89 81 81 89 81 81 89 81 81 89 81 81 89 81 81 89 81 81 89 81 81 89 81 81 89 81 81 89 81 81 89 81 81 89 81 81 89 81 81 89 81 81 89 81 81 89 81 81 89 81 81 89 81 81 89 81 81 89 81 81 88 81 81 88 81 81 88 81 81 88 81 81 88 81 81 88 81 81 88 80 80 88 80 80 88 80 80 88 80 80 88 80 80 88 80 80 88 80 80 88 80 80 88 80 80 88 80 80 88 80 80 88 80 80 88 80 80 88 80 80 88 80 80 88 80 80 88 80 80 88 80 80 88 80 80 88 80 80 88 80 80 88 80 80 88 80 80 88 80 80 88 80 80 88 80 80 87 80 80 87 80 80 87 80 80 87 80 80 87 80 80 87 80 80 87 80 80 87 79 79 87 79 79 87 79 79 87 79 79 87 79 79 87 79 79 87 79 79 87 79 79 87 79 79 87 79 79 87 79 79 87 79 79 87 79 79 87 79 79 87 79 79 87 79 79 87 79 79 87 79 79 87 79 79 87 79 79 87 79 79 87 79 79 87 79 79 86 79 79 86 79 79 86 79 79 86 79 79 86 79 79 86 79 79 86 79 79 86 79 79 86 78 78 86 78 78 86 78 78 86 78 78 86 78 78 86 78 78 86 78 78 86 78 78 86 78 78 86 78 78 86 78 78 86 78 78 86 78 78 86 78 78 86 78 78 86 78 78 86 78 78 86 78 78 86 78 78 86 78 78 86 78 78 85 78 78 85 78 78 85 78 78 85 78 78 85 78 78 85 78 78 85 78 78 85 78 78 85 78 78 85 78 78 85 78 78 85 78 78 85 78 78 85 77 77 85 77 77 85 77 77 85 77 77 85 77 77 85 77 77 85 77 77 85 77 77 85 77 77 85 77 77 85 77 77 85 77 77 85 77 77 85 77 77 85 77 77 84 77 77 84 77 77 84 77 77 84 77 77 84 77 77 84 77 77 84 77 77 84 77 77 84 77 77 84 77 77 84 77 77 84 77 77 84 77 77 84 77 77 84 77 77 84 76 76 84 76 76 84 76 76 84 76 76 84 76 76 84 76 76 84 76 76 84 76 76 84 76 76 84 76 76 84 76 76 84 76 76 84 76 76 83 76 76 83 76 76 83 76 76 83 76 76 83 76 76 83 76 76 83 76 76 83 76 76 83 76 76 83 76 76 83 75 75 83 75 75 83 75 75 83 75 75 83 75 75 83 101 101 111 101 101 111 101 101 111 101 101 111 100 100 111 100 100 111 100 100 111 100 100 111 100 100 111 100 100 110 100 100 110 100 100 110 100 100 110 100 100 110 100 100 110 100 100 110 100 100 110 100 100 110 100 100 110 100 100 110 100 100 110 100 100 110 100 100 110 100 100 110 100 100 110 100 100 110 100 100 110 99 99 110 99 99 110 99 99 109 99 99 109 99 99 109 99 99 109 99 99 109 99 99 109 99 99 109 99 99 109 99 99 109 99 99 109 99 99 109 99 99 109 99 99 109 99 99 109 99 99 109 99 99 109 99 99 109 99 99 109 99 99 109 99 99 109 99 99 109 98 98 108 98 98 108 98 98 108 98 98 108 98 98 108 98 98 108 98 98 108 98 98 108 98 98 108 98 98 108 98 98 108 98 98 108 98 98 108 98 98 108 98 98 108 98 98 108 98 98 108 98 98 108 
111 111 122 111 111 122 111 111 122 111 111 122 111 111 122 111 111 122 111 111 122 111 111 122 111 111 122 111 111 122 111 111 122 111 111 122 111 111 122 110 110 122 110 110 122 110 110 122 110 110 121 110 110 121 110 110 121 110 110 121 110 110 121 110 110 121 110 110 121 110 110 121 110 110 121 110 110 121 110 110 121 110 110 121 110 110 121 110 110 121 110 110 121 110 110 121 110 110 121 110 110 121 110 110 121 110 110 121 110 110 121 110 110 121 110 110 121 110 110 121 110 110 121 109 109 120 109 109 120 109 109 120 109 109 120 109 109 120 109 109 120 109 109 120 109 109 120 109 109 120 109 109 120 109 109 120 109 109 120 109 109 120 109 109 120 109 109 120 109 109 120 109 109 120 109 109 120 109 109 120 109 109 120 109 109 120 109 109 120 109 109 120 109 109 120 109 109 120 109 109 119 109 109 119 81 81 89 81 81 89 81 81 89 81 81 89 81 81 89 81 81 89 81 81 89 81 81 89 81 81 89 81 81 89 81 81 89 81 81 89 81 81 89 81 81 89 81 81 89 81 81 89 81 81 89 81 81 89 81 81 89 81 81 88 81 81 88 81 81 88 81 81 88 81 81 88 81 81 88 81 81 88 81 81 88 80 80 88 80 80 88 80 80 88 80 80 88 80 80 88 80 80 88 80 80 88 80 80 88 80 80 88 80 80 88 80 80 88 80 80 88 80 80 88 80 80 88 80 80 88 80 80 88 80 80 88 80 80 88 80 80 88 80 80 88 80 80 88 80 80 88 80 80 88 80 80 88 80 80 88 80 80 88 80 80 87 80 80 87 80 80 87 80 80 87 80 80 87 80 80 87 80 80 87 79 79 87 79 79 87 79 79 87 79 79 87 79 79 87 79 79 87 79 79 87 79 79 87 79 79 87 79 79 87 79 79 87 79 79 87 79 79 87 79 79 87 79 79 87 79 79 87 79 79 87 79 79 87 79 79 87 79 79 87 79 79 87 79 79 87 79 79 86 79 79 86 79 79 86 79 79 86 79 79 86 79 79 86 79 79 86 79 79 86 79 79 86 79 79 86 78 78 86 78 78 86 78 78 86 78 78 86 78 78 86 78 78 86 78 78 86 78 78 86 78 78 86 78 78 86 78 78 86 78 78 86 78 78 86 78 78 86 78 78 86 78 78 86 78 78 86 78 78 86 78 78 86 78 78 86 78 78 85 78 78 85 78 78 85 78 78 85 78 78 85 78 78 85 78 78 85 78 78 85 78 78 85 78 78 85 78 78 85 78 78 85 78 78 85 78 78 85 77 77 85 77 77 85 77 77 85 77 77 85 77 77 85 77 77 85 77 77 85 77 77 85 77 77 85 77 77 85 77 77 85 77 77 85 77 77 85 77 77 85 77 77 84 77 77 84 77 77 84 77 77 84 77 77 84 77 77 84 77 77 84 77 77 84 77 77 84 77 77 84 77 77 84 77 77 84 77 77 84 77 77 84 77 77 84 77 77 84 76 76 84 76 76 84 76 76 84 76 76 84 76 76 84 76 76 84 76 76 84 76 76 84 76 76 84 76 76 84 76 76 84 76 76 84 76 76 83 76 76 83 76 76 83 76 76 83 76 76 83 76 76 83 76 76 83 76 76 83 76 76 83 76 76 83 76 76 83 76 76 83 75 75 83 75 75 83 75 75 83 75 75 83 75 75 83 101 101 111 101 101 111 101 101 111 101 101 111 100 100 111 100 100 111 100 100 111 100 100 111 100 100 110 100 100 110 100 100 110 100 100 110 100 100 110 100 100 110 100 100 110 100 100 110 100 100 110 100 100 110 100 100 110 100 100 110 100 100 110 100 100 110 100 100 110 100 100 110 100 100 110 100 100 110 100 100 110 99 99 110 99 99 110 99 99 109 99 99 109 99 99 109 99 99 109 99 99 109 99 99 109 99 99 109 99 99 109 99 99 109 99 99 109 99 99 109 99 99 109 99 99 109 99 99 109 99 99 109 99 99 109 99 99 109 99 99 109 99 99 109 99 99 109 99 99 109 98 98 108 98 98 108 98 98 108 98 98 108 98 98 108 98 98 108 98 98 108 98 98 108 98 98 108 98 98 108 98 98 108 98 98 108 98 98 108 98 98 108 98 98 108 98 98 108 98 98 108 
111 111 122 111 111 122 111 111 122 111 111 122 111 111 122 111 111 122 111 111 122 111 111 122 111 111 122 111 111 122 111 111 122 111 111 122 110 110 122 110 110 122 110 110 121 110 110 121 110 110 121 110 110 121 110 110 121 110 110 121 110 110 121 110 110 121 110 110 121 110 110 121 110 110 121 110 110 121 110 110 121 110 110 121 110 110 121 110 110 121 110 110 121 110 110 121 110 110 121 110 110 121 110 110 121 110 110 121 110 110 121 110 110 121 110 110 121 110 110 121 109 109 120 109 109 120 109 109 120 109 109 120 109 109 120 109 109 120 109 109 120 109 109 120 109 109 120 109 109 120 109 109 120 109 109 120 109 109 120 109 109 120 109 109 120 109 109 120 109 109 120 109 109 120 109 109 120 109 109 120 109 109 120 109 109 120 109 109 120 109 109 120 109 109 120 109 109 119 109 109 119 81 81 89 81 81 89 81 81 89 81 81 89 81 81 89 81 81 89 81 81 89 81 81 89 81 81 89 81 81 89 81 81 89 81 81 89 81 81 89 81 81 89 81 81 89 81 81 89 81 81 89 81 81 89 81 81 89 81 81 89 81 81 88 81 81 88 81 81 88 81 81 88 81 81 88 81 81 88 81 81 88 80 80 88 80 80 88 80 80 88 80 80 88 80 80 88 80 80 88 80 80 88 80 80 88 80 80 88 80 80 88 80 80 88 80 80 88 80 80 88 80 80 88 80 80 88 80 80 88 80 80 88 80 80 88 80 80 88 80 80 88 80 80 88 80 80 88 80 80 88 80 80 88 80 80 88 80 80 88 80 80 87 80 80 87 80 80 87 80 80 87 80 80 87 80 80 87 80 80 87 80 80 87 79 79 87 79 79 87 79 79 87 79 79 87 79 79 87 79 79 87 79 79 87 79 79 87 79 79 87 79 79 87 79 79 87 79 79 87 79 79 87 79 79 87 79 79 87 79 79 87 79 79 87 79 79 87 79 79 87 79 79 87 79 79 87 79 79 87 79 79 86 79 79 86 79 79 86 79 79 86 79 79 86 79 79 86 79 79 86 79 79 86 79 79 86 79 79 86 78 78 86 78 78 86 78 78 86 78 78 86 78 78 86 78 78 86 78 78 86 78 78 86 78 78 86 78 78 86 78 78 86 78 78 86 78 78 86 78 78 86 78 78 86 78 78 86 78 78 86 78 78 86 78 78 86 78 78 86 78 78 85 78 78 85 78 78 85 78 78 85 78 78 85 78 78 85 78 78 85 78 78 85 78 78 85 78 78 85 78 78 85 78 78 85 78 78 85 78 78 85 77 77 85 77 77 85 77 77 85 77 77 85 77 77 85 77 77 85 77 77 85 77 77 85 77 77 85 77 77 85 77 77 85 77 77 85 77 77 85 77 77 85 77 77 84 77 77 84 77 77 84 77 77 84 77 77 84 77 77 84 77 77 84 77 77 84 77 77 84 77 77 84 77 77 84 77 77 84 77 77 84 77 77 84 77 77 84 77 77 84 77 77 84 76 76 84 76 76 84 76 76 84 76 76 84 76 76 84 76 76 84 76 76 84 76 76 84 76 76 84 76 76 84 76 76 84 76 76 84 76 76 83 76 76 83 76 76 83 76 76 83 76 76 83 76 76 83 76 76 83 76 76 83 76 76 83 76 76 83 76 76 83 75 75 83 75 75 83 75 75 83 75 75 83 75 75 83 75 75 83 101 101 111 101 101 111 101 101 111 101 101 111 100 100 111 100 100 111 100 100 111 100 100 111 100 100 110 100 100 110 100 100 110 100 100 110 100 100 110 100 100 110 100 100 110 100 100 110 100 100 110 100 100 110 100 100 110 100 100 110 100 100 110 100 100 110 100 100 110 100 100 110 100 100 110 100 100 110 100 100 110 99 99 110 99 99 110 99 99 109 99 99 109 99 99 109 99 99 109 99 99 109 99 99 109 99 99 109 99 99 109 99 99 109 99 99 109 99 99 109 99 99 109 99 99 109 99 99 109 99 99 109 99 99 109 99 99 109 99 99 109 99 99 109 99 99 109 99 99 109 98 98 108 98 98 108 98 98 108 98 98 108 98 98 108 98 98 108 98 98 108 98 98 108 98 98 108 98 98 108 98 98 108 98 98 108 98 98 108 98 98 108 98 98 108 98 98 108 
